; generated by SuperSlicer 2.5.59 on 2023-10-08 at 15:25:37 UTC


;
;

;
;
; 

; external perimeters extrusion width = 0.44mm
; perimeters extrusion width = 0.46mm
; infill extrusion width = 0.44mm
; solid infill extrusion width = 0.46mm
; top infill extrusion width = 0.44mm
; first layer extrusion width = 0.56mm

; external perimeters extrusion width = 0.44mm
; perimeters extrusion width = 0.46mm
; infill extrusion width = 0.44mm
; solid infill extrusion width = 0.46mm
; top infill extrusion width = 0.44mm
; first layer extrusion width = 0.56mm

; external perimeters extrusion width = 0.44mm
; perimeters extrusion width = 0.46mm
; infill extrusion width = 0.44mm
; solid infill extrusion width = 0.46mm
; top infill extrusion width = 0.44mm
; first layer extrusion width = 0.56mm

; external perimeters extrusion width = 0.44mm
; perimeters extrusion width = 0.46mm
; infill extrusion width = 0.44mm
; solid infill extrusion width = 0.46mm
; top infill extrusion width = 0.44mm
; first layer extrusion width = 0.56mm

; external perimeters extrusion width = 0.44mm
; perimeters extrusion width = 0.46mm
; infill extrusion width = 0.44mm
; solid infill extrusion width = 0.46mm
; top infill extrusion width = 0.44mm
; first layer extrusion width = 0.56mm

; object:{"name":"bridge_test","id":"bridge_test id:0 copy 0","object_center":[71.000000,58.500000,0.000000],"boundingbox_center":[71.000000,58.500000,2.500000],"boundingbox_size":[42.000000,10.000000,5.000000]}
EXCLUDE_OBJECT_DEFINE NAME=bridge_test_id_0_copy_0 CENTER=71.000000,58.500000 POLYGON=[[50.000000,53.500000],[72.000000,53.500000],[92.000000,58.500000],[92.000000,63.500000],[50.000000,63.500000],[50.000000,53.500000]]
; object:{"name":"bridge_test","id":"bridge_test id:1 copy 0","object_center":[71.000000,115.500000,0.000000],"boundingbox_center":[71.000000,115.500000,2.500000],"boundingbox_size":[42.000000,10.000000,5.000000]}
EXCLUDE_OBJECT_DEFINE NAME=bridge_test_id_1_copy_0 CENTER=71.000000,115.500000 POLYGON=[[50.000000,110.500000],[72.000000,110.500000],[92.000000,115.500000],[92.000000,120.500000],[50.000000,120.500000],[50.000000,110.500000]]
; object:{"name":"bridge_test","id":"bridge_test id:2 copy 0","object_center":[160.000000,58.500000,0.000000],"boundingbox_center":[160.000000,58.500000,2.500000],"boundingbox_size":[42.000000,10.000000,5.000000]}
EXCLUDE_OBJECT_DEFINE NAME=bridge_test_id_2_copy_0 CENTER=160.000000,58.500000 POLYGON=[[139.000000,53.500000],[161.000000,53.500000],[181.000000,58.500000],[181.000000,63.500000],[139.000000,63.500000],[139.000000,53.500000]]
; object:{"name":"bridge_test","id":"bridge_test id:3 copy 0","object_center":[160.000000,115.500000,0.000000],"boundingbox_center":[160.000000,115.500000,2.500000],"boundingbox_size":[42.000000,10.000000,5.000000]}
EXCLUDE_OBJECT_DEFINE NAME=bridge_test_id_3_copy_0 CENTER=160.000000,115.500000 POLYGON=[[139.000000,110.500000],[161.000000,110.500000],[181.000000,115.500000],[181.000000,120.500000],[139.000000,120.500000],[139.000000,110.500000]]
; object:{"name":"bridge_test","id":"bridge_test id:4 copy 0","object_center":[115.500000,172.500000,0.000000],"boundingbox_center":[115.500000,172.500000,2.500000],"boundingbox_size":[42.000000,10.000000,5.000000]}
EXCLUDE_OBJECT_DEFINE NAME=bridge_test_id_4_copy_0 CENTER=115.500000,172.500000 POLYGON=[[94.500000,167.500000],[116.500000,167.500000],[136.500000,172.500000],[136.500000,177.500000],[94.500000,177.500000],[94.500000,167.500000]]
; plater:{"center":[115.500000,115.500000,0.000000],"boundingbox_center":[115.500000,115.500000,2.500000],"boundingbox_size":[131.000000,124.000000,5.000000]}

;TYPE:Custom
SET_PRINT_STATS_INFO TOTAL_LAYER=125

PRINT_START BED=60 EXTRUDER=205 CHAMBER=0 SIZE=44.8815_48.3815_186.119_182.619 MATERIAL=PLA
; Filament gcode
;_TOOLCHANGE 0
M107
;LAYER_CHANGE
;Z:0.2
;HEIGHT:0.2

G1 E-0.8 F2100
G1 Z0.4 F9000
SET_PRINT_STATS_INFO CURRENT_LAYER=1

G92 E0
G1 Z0.6
M204 S500
G1 X46.36 Y48.892
G1 Z0.2
G1 E0.8 F2100
;TYPE:Skirt
;WIDTH:0.48
G1 F1200
G1 X45.275 Y50.057 E0.85786
G1 X44.881 Y51.6 E0.91573
G1 X44.881 Y122.4 E3.48883
G1 X45.563 Y124.381 E3.56496
G1 X90.063 Y181.381 E6.19307
G1 X91.057 Y182.225 E6.24048
G1 X92.6 Y182.619 E6.29834
G1 X138.4 Y182.619 E7.96286
G1 X139.677 Y182.354 E8.01027
G1 X140.937 Y181.381 E8.06813
G1 X185.437 Y124.381 E10.69624
G1 X186.119 Y122.4 E10.77237
G1 X186.119 Y56.6 E13.16376
G1 X185.949 Y55.569 E13.20173
G1 X185.082 Y54.234 E13.2596
G1 X183.681 Y53.478 E13.31746
G1 X163.681 Y48.478 E14.0667
G1 X162.9 Y48.381 E14.09528
G1 X48.1 Y48.381 E18.26749
G1 X46.418 Y48.875 E18.33121
G92 E0
;WIPE_START
G1 F7200
G1 X48.1 Y48.381 E-0.48577
G1 X49.09 Y48.381 E-0.76
;WIPE_END
G1 E-0.8 F2100
G1 Z0.6 F9000
; acceleration to travel
M204 S1500
G1 X124.637 Y158.092
; decel to extrusion
M204 S500
G1 X133.866 Y171.495
; end travel
G1 Z0.2
G1 E0 F2100
;WIDTH:0.56292
G1 F1200
G1 X133.951 Y171.438 E0.00443
G1 X134.237 Y171.32 E0.0178
G1 X134.338 Y171.3 E0.02223
G1 X136.662 Y171.3 E0.12275
G1 X136.763 Y171.32 E0.12718
G1 X137.049 Y171.438 E0.14055
G1 X137.134 Y171.495 E0.14498
G1 X137.505 Y171.866 E0.16767
G1 X137.562 Y171.951 E0.17209
G1 X137.68 Y172.237 E0.18547
G1 X137.7 Y172.338 E0.1899
G1 X137.7 Y177.662 E0.42013
G1 X137.68 Y177.763 E0.42456
G1 X137.562 Y178.049 E0.43793
G1 X137.505 Y178.134 E0.44236
G1 X137.134 Y178.505 E0.46505
G1 X137.049 Y178.562 E0.46947
G1 X136.763 Y178.68 E0.48285
G1 X136.662 Y178.7 E0.48728
G1 X134.338 Y178.7 E0.58779
G1 X134.237 Y178.68 E0.59222
G1 X133.951 Y178.562 E0.6056
G1 X133.866 Y178.505 E0.61002
G1 X133.495 Y178.134 E0.63271
G1 X133.438 Y178.049 E0.63714
G1 X133.32 Y177.763 E0.65051
G1 X133.3 Y177.662 E0.65494
G1 X133.3 Y172.338 E0.88517
G1 X133.32 Y172.237 E0.8896
G1 X133.438 Y171.951 E0.90298
G1 X133.495 Y171.866 E0.9074
G1 X133.824 Y171.538 E0.9275
G1 X134.192 Y171.905 F9000
G1 F1200
G1 X134.389 Y171.82 E0.93679
G1 X136.611 Y171.82 E1.03288
G1 X136.802 Y171.899 E1.04183
G1 X137.101 Y172.198 E1.06008
G1 X137.18 Y172.389 E1.06903
G1 X137.18 Y177.611 E1.29483
G1 X137.101 Y177.802 E1.30377
G1 X136.802 Y178.101 E1.32203
G1 X136.611 Y178.18 E1.33098
G1 X134.389 Y178.18 E1.42706
G1 X134.198 Y178.101 E1.43601
G1 X133.899 Y177.802 E1.45427
G1 X133.82 Y177.611 E1.46321
G1 X133.82 Y172.389 E1.68901
G1 X133.899 Y172.198 E1.69796
G1 X134.149 Y171.948 E1.71324
G1 X134.492 Y172.34 F9000
G1 F1200
G1 X136.508 Y172.34 E1.80038
G1 X136.66 Y172.492 E1.8097
G1 X136.66 Y177.508 E2.02655
G1 X136.508 Y177.66 E2.03587
G1 X134.492 Y177.66 E2.12301
G1 X134.34 Y177.508 E2.13232
G1 X134.34 Y172.492 E2.34918
G1 X134.45 Y172.382 E2.3559
G92 E0
;WIPE_START
G1 F7200
G1 X134.34 Y172.492 E-0.04306
G1 X134.34 Y175.08 E-0.76
;WIPE_END
G1 E-0.8 F2100
G1 Z0.6 F9000
; acceleration to travel
M204 S1500
G1 X101.689 Y172.676
; decel to extrusion
M204 S500
G1 X97.7 Y172.382
; end travel
G1 Z0.2
G1 E0 F2100
G1 F1200
G1 X97.7 Y177.662 E0.22829
G1 X97.68 Y177.763 E0.23272
G1 X97.562 Y178.049 E0.2461
G1 X97.505 Y178.134 E0.25053
G1 X97.134 Y178.505 E0.27321
G1 X97.049 Y178.562 E0.27764
G1 X96.763 Y178.68 E0.29102
G1 X96.662 Y178.7 E0.29544
G1 X94.338 Y178.7 E0.39596
G1 X94.237 Y178.68 E0.40039
G1 X93.951 Y178.562 E0.41376
G1 X93.866 Y178.505 E0.41819
G1 X93.495 Y178.134 E0.44088
G1 X93.438 Y178.049 E0.44531
G1 X93.32 Y177.763 E0.45868
G1 X93.3 Y177.662 E0.46311
G1 X93.3 Y167.338 E0.90953
G1 X93.32 Y167.237 E0.91396
G1 X93.438 Y166.951 E0.92733
G1 X93.495 Y166.866 E0.93176
G1 X93.866 Y166.495 E0.95445
G1 X93.951 Y166.438 E0.95888
G1 X94.237 Y166.32 E0.97225
G1 X94.338 Y166.3 E0.97668
G1 X96.662 Y166.3 E1.0772
G1 X96.763 Y166.32 E1.08163
G1 X97.049 Y166.438 E1.095
G1 X97.134 Y166.495 E1.09943
G1 X97.505 Y166.866 E1.12212
G1 X97.562 Y166.951 E1.12654
G1 X97.68 Y167.237 E1.13992
G1 X97.7 Y167.338 E1.14435
G1 X97.7 Y172.322 E1.35988
G1 X97.18 Y172.322 F9000
G1 F1200
G1 X97.18 Y177.611 E1.58855
G1 X97.101 Y177.802 E1.5975
G1 X96.802 Y178.101 E1.61576
G1 X96.611 Y178.18 E1.6247
G1 X94.389 Y178.18 E1.72079
G1 X94.198 Y178.101 E1.72973
G1 X93.899 Y177.802 E1.74799
G1 X93.82 Y177.611 E1.75693
G1 X93.82 Y167.389 E2.19893
G1 X93.899 Y167.198 E2.20787
G1 X94.198 Y166.899 E2.22613
G1 X94.389 Y166.82 E2.23507
G1 X96.611 Y166.82 E2.33116
G1 X96.802 Y166.899 E2.34011
G1 X97.101 Y167.198 E2.35836
G1 X97.18 Y167.389 E2.36731
G1 X97.18 Y172.262 E2.57803
G1 X96.66 Y172.262 F9000
G1 F1200
G1 X96.66 Y177.508 E2.80483
G1 X96.508 Y177.66 E2.81414
G1 X94.492 Y177.66 E2.90128
G1 X94.34 Y177.508 E2.9106
G1 X94.34 Y167.492 E3.34365
G1 X94.492 Y167.34 E3.35296
G1 X96.508 Y167.34 E3.4401
G1 X96.66 Y167.492 E3.44941
G1 X96.66 Y172.202 E3.65307
G92 E0
;WIPE_START
G1 F7200
G1 X96.66 Y169.46 E-0.76
;WIPE_END
G1 E-0.8 F2100
G1 Z0.6 F9000
; acceleration to travel
M204 S1500
G1 X111.488 Y171.904
; decel to extrusion
M204 S500
G1 X113.3 Y172.202
; end travel
G1 Z0.2
G1 E0 F2100
G1 F1200
G1 X113.3 Y167.338 E0.21034
G1 X113.32 Y167.237 E0.21477
G1 X113.438 Y166.951 E0.22815
G1 X113.495 Y166.866 E0.23258
G1 X113.866 Y166.495 E0.25526
G1 X113.951 Y166.438 E0.25969
G1 X114.237 Y166.32 E0.27306
G1 X114.338 Y166.3 E0.27749
G1 X116.662 Y166.3 E0.37801
G1 X116.763 Y166.32 E0.38244
G1 X117.049 Y166.438 E0.39581
G1 X117.134 Y166.495 E0.40024
G1 X117.505 Y166.866 E0.42293
G1 X117.562 Y166.951 E0.42736
G1 X117.68 Y167.237 E0.44073
G1 X117.7 Y167.338 E0.44516
G1 X117.7 Y172.662 E0.67539
G1 X117.68 Y172.763 E0.67982
G1 X117.562 Y173.049 E0.69319
G1 X117.505 Y173.134 E0.69762
G1 X117.134 Y173.505 E0.72031
G1 X117.049 Y173.562 E0.72474
G1 X116.763 Y173.68 E0.73811
G1 X116.662 Y173.7 E0.74254
G1 X114.338 Y173.7 E0.84306
G1 X114.237 Y173.68 E0.84748
G1 X113.951 Y173.562 E0.86086
G1 X113.866 Y173.505 E0.86529
G1 X113.495 Y173.134 E0.88797
G1 X113.438 Y173.049 E0.8924
G1 X113.32 Y172.763 E0.90578
G1 X113.3 Y172.662 E0.9102
G1 X113.3 Y172.262 E0.9275
G1 X113.82 Y172.262 F9000
G1 F1200
G1 X113.82 Y167.389 E1.13822
G1 X113.899 Y167.198 E1.14717
G1 X114.198 Y166.899 E1.16542
G1 X114.389 Y166.82 E1.17437
G1 X116.611 Y166.82 E1.27046
G1 X116.802 Y166.899 E1.2794
G1 X117.101 Y167.198 E1.29766
G1 X117.18 Y167.389 E1.3066
G1 X117.18 Y172.611 E1.5324
G1 X117.101 Y172.802 E1.54135
G1 X116.802 Y173.101 E1.55961
G1 X116.611 Y173.18 E1.56855
G1 X114.389 Y173.18 E1.66464
G1 X114.198 Y173.101 E1.67358
G1 X113.899 Y172.802 E1.69184
G1 X113.82 Y172.611 E1.70079
G1 X113.82 Y172.322 E1.71327
G1 X114.34 Y172.322 F9000
G1 F1200
G1 X114.34 Y167.492 E1.92211
G1 X114.492 Y167.34 E1.93143
G1 X116.508 Y167.34 E2.01857
G1 X116.66 Y167.492 E2.02788
G1 X116.66 Y172.508 E2.24474
G1 X116.508 Y172.66 E2.25405
G1 X114.492 Y172.66 E2.3412
G1 X114.34 Y172.508 E2.35051
G1 X114.34 Y172.382 E2.35593
G92 E0
;WIPE_START
G1 F7200
G1 X114.34 Y172.508 E-0.03472
G1 X114.492 Y172.66 E-0.0944
G1 X116.508 Y172.66 E-0.65283
G1 X116.66 Y172.508 E-0.71251
G1 X116.66 Y172.336 E-0.76
;WIPE_END
G1 E-0.8 F2100
G1 Z0.6 F9000
; acceleration to travel
M204 S1500
G1 X171.318 Y126.708
; decel to extrusion
M204 S500
G1 X177.995 Y121.134
; end travel
G1 Z0.2
G1 E0 F2100
G1 F1200
G1 X177.938 Y121.049 E0.00443
G1 X177.82 Y120.763 E0.0178
G1 X177.8 Y120.662 E0.02223
G1 X177.8 Y115.338 E0.25246
G1 X177.82 Y115.237 E0.25689
G1 X177.938 Y114.951 E0.27026
G1 X177.995 Y114.866 E0.27469
G1 X178.366 Y114.495 E0.29738
G1 X178.451 Y114.438 E0.30181
G1 X178.737 Y114.32 E0.31518
G1 X178.838 Y114.3 E0.31961
G1 X181.162 Y114.3 E0.42013
G1 X181.263 Y114.32 E0.42456
G1 X181.549 Y114.438 E0.43793
G1 X181.634 Y114.495 E0.44236
G1 X182.005 Y114.866 E0.46505
G1 X182.062 Y114.951 E0.46947
G1 X182.18 Y115.237 E0.48285
G1 X182.2 Y115.338 E0.48728
G1 X182.2 Y120.662 E0.71751
G1 X182.18 Y120.763 E0.72194
G1 X182.062 Y121.049 E0.73531
G1 X182.005 Y121.134 E0.73974
G1 X181.634 Y121.505 E0.76243
G1 X181.549 Y121.562 E0.76685
G1 X181.263 Y121.68 E0.78023
G1 X181.162 Y121.7 E0.78466
G1 X178.838 Y121.7 E0.88517
G1 X178.737 Y121.68 E0.8896
G1 X178.451 Y121.562 E0.90298
G1 X178.366 Y121.505 E0.9074
G1 X178.038 Y121.176 E0.9275
G1 X178.405 Y120.808 F9000
G1 F1200
G1 X178.32 Y120.611 E0.93679
G1 X178.32 Y115.389 E1.1626
G1 X178.399 Y115.198 E1.17154
G1 X178.698 Y114.899 E1.1898
G1 X178.889 Y114.82 E1.19874
G1 X181.111 Y114.82 E1.29483
G1 X181.302 Y114.899 E1.30377
G1 X181.601 Y115.198 E1.32203
G1 X181.68 Y115.389 E1.33098
G1 X181.68 Y120.611 E1.55678
G1 X181.601 Y120.802 E1.56572
G1 X181.302 Y121.101 E1.58398
G1 X181.111 Y121.18 E1.59293
G1 X178.889 Y121.18 E1.68901
G1 X178.698 Y121.101 E1.69796
G1 X178.448 Y120.851 E1.71324
G1 X178.84 Y120.508 F9000
G1 F1200
G1 X178.84 Y115.492 E1.9301
G1 X178.992 Y115.34 E1.93941
G1 X181.008 Y115.34 E2.02655
G1 X181.16 Y115.492 E2.03587
G1 X181.16 Y120.508 E2.25272
G1 X181.008 Y120.66 E2.26204
G1 X178.992 Y120.66 E2.34918
G1 X178.882 Y120.55 E2.3559
G92 E0
;WIPE_START
G1 F7200
G1 X178.992 Y120.66 E-0.04306
G1 X181.008 Y120.66 E-0.60149
G1 X181.16 Y120.508 E-0.66117
G1 X181.16 Y120.151 E-0.76
;WIPE_END
G1 E-0.8 F2100
G1 Z0.6 F9000
; acceleration to travel
M204 S1500
G1 X146.442 Y120.507
; decel to extrusion
M204 S500
G1 X142.2 Y120.55
; end travel
G1 Z0.2
G1 E0 F2100
G1 F1200
G1 X142.2 Y120.662 E0.00485
G1 X142.18 Y120.763 E0.00928
G1 X142.062 Y121.049 E0.02265
G1 X142.005 Y121.134 E0.02708
G1 X141.634 Y121.505 E0.04977
G1 X141.549 Y121.562 E0.0542
G1 X141.263 Y121.68 E0.06757
G1 X141.162 Y121.7 E0.072
G1 X138.838 Y121.7 E0.17252
G1 X138.737 Y121.68 E0.17695
G1 X138.451 Y121.562 E0.19032
G1 X138.366 Y121.505 E0.19475
G1 X137.995 Y121.134 E0.21744
G1 X137.938 Y121.049 E0.22187
G1 X137.82 Y120.763 E0.23524
G1 X137.8 Y120.662 E0.23967
G1 X137.8 Y110.338 E0.68609
G1 X137.82 Y110.237 E0.69052
G1 X137.938 Y109.951 E0.70389
G1 X137.995 Y109.866 E0.70832
G1 X138.366 Y109.495 E0.73101
G1 X138.451 Y109.438 E0.73544
G1 X138.737 Y109.32 E0.74881
G1 X138.838 Y109.3 E0.75324
G1 X141.162 Y109.3 E0.85375
G1 X141.263 Y109.32 E0.85818
G1 X141.549 Y109.438 E0.87156
G1 X141.634 Y109.495 E0.87599
G1 X142.005 Y109.866 E0.89867
G1 X142.062 Y109.951 E0.9031
G1 X142.18 Y110.237 E0.91647
G1 X142.2 Y110.338 E0.9209
G1 X142.2 Y120.49 E1.35988
G1 X141.68 Y120.49 F9000
G1 F1200
G1 X141.68 Y120.611 E1.36511
G1 X141.601 Y120.802 E1.37406
G1 X141.302 Y121.101 E1.39231
G1 X141.111 Y121.18 E1.40126
G1 X138.889 Y121.18 E1.49735
G1 X138.698 Y121.101 E1.50629
G1 X138.399 Y120.802 E1.52455
G1 X138.32 Y120.611 E1.53349
G1 X138.32 Y110.389 E1.97548
G1 X138.399 Y110.198 E1.98443
G1 X138.698 Y109.899 E2.00269
G1 X138.889 Y109.82 E2.01163
G1 X141.111 Y109.82 E2.10772
G1 X141.302 Y109.899 E2.11666
G1 X141.601 Y110.198 E2.13492
G1 X141.68 Y110.389 E2.14387
G1 X141.68 Y120.43 E2.57803
G1 X141.16 Y120.43 F9000
G1 F1200
G1 X141.16 Y120.508 E2.58139
G1 X141.008 Y120.66 E2.5907
G1 X138.992 Y120.66 E2.67784
G1 X138.84 Y120.508 E2.68716
G1 X138.84 Y110.492 E3.1202
G1 X138.992 Y110.34 E3.12952
G1 X141.008 Y110.34 E3.21666
G1 X141.16 Y110.492 E3.22597
G1 X141.16 Y120.37 E3.65307
G92 E0
;WIPE_START
G1 F7200
G1 X141.16 Y117.627 E-0.76
;WIPE_END
G1 E-0.8 F2100
G1 Z0.6 F9000
; acceleration to travel
M204 S1500
G1 X98.421 Y120.072
; decel to extrusion
M204 S500
G1 X93.2 Y120.37
; end travel
G1 Z0.2
G1 E0 F2100
G1 F1200
G1 X93.2 Y120.662 E0.01264
G1 X93.18 Y120.763 E0.01706
G1 X93.062 Y121.049 E0.03044
G1 X93.005 Y121.134 E0.03487
G1 X92.634 Y121.505 E0.05755
G1 X92.549 Y121.562 E0.06198
G1 X92.263 Y121.68 E0.07536
G1 X92.162 Y121.7 E0.07978
G1 X89.838 Y121.7 E0.1803
G1 X89.737 Y121.68 E0.18473
G1 X89.451 Y121.562 E0.1981
G1 X89.366 Y121.505 E0.20253
G1 X88.995 Y121.134 E0.22522
G1 X88.938 Y121.049 E0.22965
G1 X88.82 Y120.763 E0.24302
G1 X88.8 Y120.662 E0.24745
G1 X88.8 Y115.338 E0.47768
G1 X88.82 Y115.237 E0.48211
G1 X88.938 Y114.951 E0.49548
G1 X88.995 Y114.866 E0.49991
G1 X89.366 Y114.495 E0.5226
G1 X89.451 Y114.438 E0.52703
G1 X89.737 Y114.32 E0.5404
G1 X89.838 Y114.3 E0.54483
G1 X92.162 Y114.3 E0.64535
G1 X92.263 Y114.32 E0.64978
G1 X92.549 Y114.438 E0.66315
G1 X92.634 Y114.495 E0.66758
G1 X93.005 Y114.866 E0.69026
G1 X93.062 Y114.951 E0.69469
G1 X93.18 Y115.237 E0.70807
G1 X93.2 Y115.338 E0.7125
G1 X93.2 Y120.31 E0.9275
G1 X92.68 Y120.31 F9000
G1 F1200
