; generated by SuperSlicer 2.5.59 on 2023-10-21 at 02:36:07 UTC


;
;

;
;
; 

; external perimeters extrusion width = 0.44mm
; perimeters extrusion width = 0.46mm
; infill extrusion width = 0.44mm
; solid infill extrusion width = 0.46mm
; top infill extrusion width = 0.44mm
; support material extrusion width = 0.38mm
; first layer extrusion width = 0.57mm

; external perimeters extrusion width = 0.44mm
; perimeters extrusion width = 0.46mm
; infill extrusion width = 0.44mm
; solid infill extrusion width = 0.46mm
; top infill extrusion width = 0.44mm
; support material extrusion width = 0.38mm
; first layer extrusion width = 0.57mm

; external perimeters extrusion width = 0.44mm
; perimeters extrusion width = 0.46mm
; infill extrusion width = 0.44mm
; solid infill extrusion width = 0.46mm
; top infill extrusion width = 0.44mm
; support material extrusion width = 0.38mm
; first layer extrusion width = 0.57mm

; object:{"name":"31","id":"31.5mm.stl id:0 copy 0","object_center":[110.162123,114.763392,0.000000],"boundingbox_center":[110.162123,114.763392,9.319212],"boundingbox_size":[41.641525,29.950001,18.638424]}
EXCLUDE_OBJECT_DEFINE NAME=31_5mm_stl_id_0_copy_0 CENTER=110.162123,114.763392 POLYGON=[[89.341360,100.788392],[89.343288,100.732336],[89.348000,100.676464],[89.355824,100.620944],[89.366768,100.565952],[89.375432,100.529568],[89.380776,100.511648],[89.397808,100.458224],[89.417808,100.405840],[89.440696,100.354656],[89.466440,100.304832],[89.475336,100.288392],[89.494928,100.256536],[89.526088,100.209912],[89.559808,100.165112],[89.595984,100.122272],[89.634256,100.081280],[89.675240,100.043000],[89.718088,100.006824],[89.762888,99.973104],[89.809520,99.941952],[89.841360,99.922360],[89.857808,99.913464],[89.907632,99.887728],[89.958808,99.864824],[90.011192,99.844824],[90.064632,99.827800],[90.082544,99.822464],[90.118920,99.813800],[90.173912,99.802856],[90.229440,99.795016],[90.285320,99.790296],[90.341360,99.788392],[105.182888,99.788392],[105.238944,99.790296],[105.294808,99.795016],[129.982880,102.788392],[130.241696,102.822464],[130.482880,102.922360],[130.690000,103.081280],[130.848904,103.288392],[130.948824,103.529568],[130.982880,103.788392],[130.982880,108.788392],[130.948824,109.047208],[130.848904,109.288392],[130.690000,109.495496],[130.482880,109.654408],[94.841360,129.604416],[94.824912,129.613312],[94.775112,129.639056],[94.723912,129.661960],[94.671528,129.681944],[94.618112,129.698976],[94.600184,129.704312],[94.563808,129.712984],[94.508816,129.723920],[94.453288,129.731768],[94.397424,129.736480],[94.341360,129.738392],[90.341360,129.738392],[90.285320,129.736480],[90.229440,129.731768],[90.173912,129.723920],[90.118920,129.712984],[90.082544,129.704312],[90.064632,129.698976],[90.011192,129.681944],[89.958808,129.661960],[89.907632,129.639056],[89.857808,129.613312],[89.841360,129.604416],[89.809520,129.584824],[89.762888,129.553680],[89.718088,129.519960],[89.675240,129.483784],[89.634256,129.445496],[89.595984,129.404512],[89.559808,129.361664],[89.526088,129.316864],[89.494928,129.270232],[89.475336,129.238392],[89.466440,129.221936],[89.440696,129.172120],[89.417808,129.120944],[89.397808,129.068560],[89.380776,129.015136],[89.375432,128.997208],[89.366768,128.960832],[89.355824,128.905840],[89.348000,128.850312],[89.343288,128.794432],[89.341360,128.738392],[89.341360,100.788392]]
; object:{"name":"Probe_Mount_31","id":"Probe_Mount_31.5mm.stl id:1 copy 0","object_center":[123.694734,138.861605,0.000000],"boundingbox_center":[123.694734,138.861605,6.000000],"boundingbox_size":[23.927795,23.099998,12.000000]}
EXCLUDE_OBJECT_DEFINE NAME=Probe_Mount_31_5mm_stl_id_1_copy_0 CENTER=123.694734,138.861605 POLYGON=[[111.730832,127.321488],[111.731200,127.318928],[111.732216,127.316536],[111.733808,127.314488],[111.735464,127.313168],[111.735872,127.312928],[111.738264,127.311936],[111.740840,127.311600],[135.648640,127.311600],[135.649616,127.311656],[135.650592,127.311800],[135.651232,127.311944],[135.652464,127.312360],[135.653648,127.312944],[135.654192,127.313296],[135.655696,127.314528],[135.656960,127.316048],[135.657280,127.316608],[135.657872,127.317776],[135.658288,127.319016],[135.658448,127.319656],[135.658624,127.321600],[135.658624,149.411600],[135.657760,149.448192],[135.655760,149.484736],[135.653824,149.509616],[135.652400,149.521184],[135.647728,149.557472],[135.641760,149.593568],[135.639424,149.606688],[135.634432,149.629408],[135.625808,149.664960],[135.615568,149.701888],[135.604688,149.734992],[135.592240,149.769360],[135.582512,149.794288],[135.578544,149.803248],[135.563616,149.836640],[135.548704,149.867072],[135.540560,149.882992],[135.532768,149.896992],[135.515824,149.926336],[135.497888,149.955088],[135.490096,149.967184],[135.478992,149.983216],[135.459152,150.010672],[135.438384,150.037424],[135.431648,150.045984],[135.416736,150.063472],[135.394224,150.088784],[135.365744,150.118720],[135.346704,150.137024],[135.321776,150.159920],[135.293024,150.184624],[135.269648,150.203120],[135.242528,150.223360],[135.214208,150.243072],[135.186272,150.261008],[135.157216,150.278368],[135.127600,150.294720],[135.097424,150.310080],[135.061104,150.326912],[135.041328,150.335488],[135.024128,150.342288],[134.986576,150.356208],[134.948496,150.368592],[134.909952,150.379456],[134.871024,150.388768],[134.853728,150.392400],[134.831744,150.396496],[134.792176,150.402656],[134.752400,150.407200],[134.712464,150.410160],[134.658624,150.411600],[114.398640,150.411600],[114.344808,150.410160],[114.304880,150.407200],[114.265096,150.402656],[114.225536,150.396496],[114.203544,150.392400],[114.186248,150.388768],[114.147312,150.379456],[114.108776,150.368592],[114.070704,150.356208],[114.033144,150.342288],[114.015952,150.335488],[113.996168,150.326912],[113.959840,150.310080],[113.929680,150.294720],[113.900056,150.278368],[113.871000,150.261008],[113.843064,150.243072],[113.814752,150.223360],[113.787624,150.203120],[113.764248,150.184624],[113.735496,150.159920],[113.710552,150.137024],[113.691528,150.118720],[113.663040,150.088784],[113.640528,150.063472],[113.625624,150.045984],[113.618880,150.037424],[113.598120,150.010672],[113.578280,149.983216],[113.567160,149.967184],[113.559376,149.955088],[113.541440,149.926336],[113.524504,149.896992],[113.516720,149.882992],[113.508568,149.867072],[113.493656,149.836640],[113.478736,149.803248],[113.474752,149.794288],[113.465032,149.769360],[113.452576,149.734992],[113.441696,149.701888],[113.431456,149.664960],[113.422840,149.629408],[113.417848,149.606688],[113.415520,149.593568],[113.409528,149.557472],[113.404856,149.521184],[113.403448,149.509616],[113.401512,149.484736],[111.730848,127.321856],[111.730832,127.321488]]
; object:{"name":"Probe_Block v0","id":"Probe_Block v0.2 h0.2.stl id:2 copy 0","object_center":[110.162124,84.188394,0.000000],"boundingbox_center":[110.162124,84.188394,4.900001],"boundingbox_size":[22.360001,19.199997,9.800001]}
EXCLUDE_OBJECT_DEFINE NAME=Probe_Block_v0_2_h0_2_stl_id_2_copy_0 CENTER=110.162124,84.188394 POLYGON=[[98.982128,75.588392],[98.987600,75.483864],[98.988408,75.476424],[99.003976,75.380480],[99.007192,75.365864],[99.031072,75.279376],[99.038248,75.258112],[99.068584,75.181656],[99.081152,75.154512],[99.116096,75.088392],[99.135400,75.056360],[99.173104,75.000600],[99.200296,74.964904],[99.238976,74.919256],[99.275016,74.881288],[99.313000,74.845248],[99.358632,74.806560],[99.394344,74.779376],[99.450096,74.741672],[99.482128,74.722368],[99.548240,74.687424],[99.575384,74.674840],[99.651848,74.644512],[99.673104,74.637336],[99.759608,74.613464],[99.769416,74.611288],[99.774208,74.610248],[99.870152,74.594680],[99.877600,74.593872],[99.982128,74.588392],[120.342128,74.588392],[120.446648,74.593872],[120.454096,74.594680],[120.550040,74.610248],[120.554832,74.611288],[120.564648,74.613464],[120.651144,74.637336],[120.672400,74.644512],[120.748864,74.674840],[120.776008,74.687424],[120.842128,74.722368],[120.874152,74.741672],[120.929912,74.779376],[120.965616,74.806560],[121.011256,74.845248],[121.049232,74.881288],[121.085272,74.919256],[121.123952,74.964904],[121.151144,75.000600],[121.188848,75.056360],[121.208152,75.088392],[121.243096,75.154512],[121.255672,75.181656],[121.286000,75.258112],[121.293192,75.279376],[121.317056,75.365864],[121.319224,75.375688],[121.320272,75.380480],[121.335840,75.476424],[121.336648,75.483864],[121.342128,75.588392],[121.342128,92.788392],[121.336648,92.892920],[121.335840,92.900360],[121.320272,92.996304],[121.319224,93.001096],[121.317056,93.010912],[121.293192,93.097416],[121.286000,93.118664],[121.255672,93.195128],[121.243096,93.222272],[121.208152,93.288392],[121.188848,93.320416],[121.151144,93.376176],[121.123952,93.411880],[121.085272,93.457520],[121.049232,93.495496],[121.011256,93.531544],[120.965616,93.570224],[120.929912,93.597416],[120.874152,93.635120],[120.842128,93.654416],[120.776008,93.689360],[120.748864,93.701936],[120.672400,93.732272],[120.651144,93.739448],[120.564648,93.763320],[120.554832,93.765496],[120.550040,93.766544],[120.454096,93.782104],[120.446648,93.782912],[120.342128,93.788392],[99.982128,93.788392],[99.877600,93.782912],[99.870152,93.782104],[99.809792,93.772888],[99.774208,93.766544],[99.759608,93.763320],[99.673104,93.739448],[99.651848,93.732272],[99.575384,93.701936],[99.548240,93.689360],[99.482128,93.654416],[99.450096,93.635120],[99.394344,93.597416],[99.358632,93.570224],[99.313000,93.531544],[99.275016,93.495496],[99.238976,93.457520],[99.200296,93.411880],[99.173104,93.376176],[99.135400,93.320416],[99.116096,93.288392],[99.081152,93.222272],[99.068584,93.195128],[99.063896,93.183944],[99.038248,93.118664],[99.031072,93.097416],[99.017680,93.050800],[99.007192,93.010912],[99.003976,92.996304],[98.990760,92.917144],[98.988408,92.900360],[98.987600,92.892920],[98.982128,92.788392],[98.982128,75.588392]]
; plater:{"center":[112.499996,112.500000,0.000000],"boundingbox_center":[112.499996,112.500000,9.319212],"boundingbox_size":[46.317271,75.823209,18.638424]}

;TYPE:Custom
SET_PRINT_STATS_INFO TOTAL_LAYER=168

PRINT_START BED=70 EXTRUDER=240 CHAMBER=0 SIZE=83.1108_71.1983_139.298_153.802 MATERIAL=PETG
; Filament gcode
SET_PRESSURE_ADVANCE ADVANCE=0.135
;_TOOLCHANGE 0
M107
;LAYER_CHANGE
;Z:0.24
;HEIGHT:0.24

G1 E-0.8 F2100
G1 Z0.4 F18000
SET_PRINT_STATS_INFO CURRENT_LAYER=1

G92 E0
G1 Z0.64
M204 S1000
G1 X96.6 Y73.531
G1 Z0.24
G1 E0.8 F2100
;TYPE:Skirt
;WIDTH:0.48
G1 F1200
G1 X83.97 Y95.332 E1.87722
G1 X83.537 Y96.943 E1.94854
G1 X83.573 Y111.962 E2.59072
G1 X86.208 Y129.473 E3.34781
G1 X86.515 Y130.463 E3.39215
G1 X86.935 Y131.189 E3.42801
G1 X87.546 Y131.875 E3.46727
G1 X111.638 Y152.594 E4.82588
G1 X113.733 Y153.371 E4.92139
G1 X135.313 Y153.376 E5.84406
G1 X136.194 Y153.253 E5.88208
G1 X137.684 Y152.337 E5.95688
G1 X138.336 Y151.451 E6.0039
G1 X138.657 Y150.727 E6.03778
G1 X138.837 Y149.922 E6.07307
G1 X138.872 Y128.536 E6.9874
G1 X138.816 Y127.938 E7.0131
G1 X133.953 Y102.476 E8.12143
G1 X124.082 Y74.276 E9.39886
G1 X123.774 Y73.62 E9.42982
G1 X123.377 Y73.043 E9.45976
G1 X122.887 Y72.554 E9.48938
G1 X122.115 Y72.052 E9.52877
G1 X120.926 Y71.676 E9.58207
G1 X120.352 Y71.625 E9.60672
G1 X99.973 Y71.625 E10.47803
G1 X99.157 Y71.72 E10.51314
G1 X98.014 Y72.157 E10.56545
G1 X97.354 Y72.625 E10.60006
G1 X96.639 Y73.485 E10.64788
G92 E0
;WIPE_START
G1 F14400
G1 X97.354 Y72.625 E-0.15495
G1 X98.014 Y72.157 E-0.26711
G1 X99.157 Y71.72 E-0.4366
G1 X99.973 Y71.625 E-0.55038
G1 X101.486 Y71.625 E-0.76
;WIPE_END
G1 E-0.8 F2100
G1 Z0.64 F18000
; printing object 31.5mm.stl id:0 copy 0
EXCLUDE_OBJECT_START NAME=31_5mm_stl_id_0_copy_0
; acceleration to travel
M204 S1500
G1 X107.997 Y100.612
; decel to extrusion
M204 S1000
G1 X109.566 Y107.6
; end travel
G1 Z0.24
G1 E0 F2100
;TYPE:Support material
;WIDTH:0.571504
G1 F1200
G1 X123.471 Y107.6 E0.72145
G1 X123.483 Y107.815 E0.73261
G1 X123.488 Y108.293 E0.7574
G1 X123.488 Y108.809 E0.78417
G1 X123.492 Y108.862 E0.78691
G1 X123.527 Y109.133 E0.80112
G1 X123.555 Y109.236 E0.80664
G1 X123.667 Y109.507 E0.82189
G1 X123.721 Y109.599 E0.82741
G1 X123.899 Y109.832 E0.84265
G1 X123.975 Y109.908 E0.84817
G1 X124.208 Y110.087 E0.86342
G1 X124.329 Y110.156 E0.87066
G1 X124.329 Y112.751 E1.00526
G1 X104.498 Y112.751 E2.03417
G1 X105.035 Y111.785 E2.09149
G1 X105.274 Y111.355 E2.11703
G1 X105.513 Y110.924 E2.14256
G1 X105.752 Y110.494 E2.16809
G1 X105.801 Y110.406 E2.17334
G1 X105.849 Y110.319 E2.1785
G1 X108.039 Y110.319 E2.29211
G1 X108.092 Y110.316 E2.29486
G1 X108.363 Y110.28 E2.30907
G1 X108.448 Y110.257 E2.31363
G1 X108.466 Y110.252 E2.31459
G1 X108.738 Y110.14 E2.32984
G1 X108.83 Y110.087 E2.33536
G1 X109.063 Y109.908 E2.35061
G1 X109.138 Y109.832 E2.35613
G1 X109.317 Y109.599 E2.37137
G1 X109.37 Y109.507 E2.37689
G1 X109.483 Y109.236 E2.39214
G1 X109.51 Y109.133 E2.39766
G1 X109.546 Y108.862 E2.41186
G1 X109.549 Y108.809 E2.41461
G1 X109.55 Y108.293 E2.44138
G1 X109.554 Y107.815 E2.46617
G1 X109.563 Y107.66 E2.47422
; acceleration to travel
M204 S1500
G1 X117.896 Y110.636 F18000
; decel to extrusion
M204 S1000
G1 X123.451 Y112.621
; end travel
G1 F1200
G1 X123.451 Y109.829 E2.61906
G1 X123.426 Y109.796 E2.6212
G1 X123.349 Y109.664 E2.62913
G1 X123.219 Y109.35 E2.64678
G1 X123.18 Y109.202 E2.65471
G1 X123.14 Y108.896 E2.67071
G1 X123.135 Y108.821 E2.67465
G1 X123.134 Y108.295 E2.70193
G1 X123.131 Y107.954 E2.71961
G1 X122.873 Y107.954 E2.73297
G1 X122.873 Y112.397 E2.9635
G1 X122.295 Y112.397 E2.99348
G1 X122.295 Y107.954 E3.22401
G1 X121.718 Y107.954 E3.25399
G1 X121.718 Y112.397 E3.48452
G1 X121.14 Y112.397 E3.5145
G1 X121.14 Y107.954 E3.74503
G1 X120.562 Y107.954 E3.77501
G1 X120.562 Y112.397 E4.00554
G1 X119.984 Y112.397 E4.03552
G1 X119.984 Y107.954 E4.26605
G1 X119.407 Y107.954 E4.29603
G1 X119.407 Y112.397 E4.52656
G1 X118.829 Y112.397 E4.55654
G1 X118.829 Y107.954 E4.78707
G1 X118.251 Y107.954 E4.81705
G1 X118.251 Y112.397 E5.04758
G1 X117.673 Y112.397 E5.07756
G1 X117.673 Y107.954 E5.30809
G1 X117.095 Y107.954 E5.33807
G1 X117.095 Y112.397 E5.5686
G1 X116.518 Y112.397 E5.59858
G1 X116.518 Y107.954 E5.82911
G1 X115.94 Y107.954 E5.85908
G1 X115.94 Y112.397 E6.08962
G1 X115.362 Y112.397 E6.11959
G1 X115.362 Y107.954 E6.35012
G1 X114.784 Y107.954 E6.3801
G1 X114.784 Y112.397 E6.61063
G1 X114.207 Y112.397 E6.64061
G1 X114.207 Y107.954 E6.87114
G1 X113.629 Y107.954 E6.90112
G1 X113.629 Y112.397 E7.13165
G1 X113.051 Y112.397 E7.16163
G1 X113.051 Y107.954 E7.39216
G1 X112.473 Y107.954 E7.42214
G1 X112.473 Y112.397 E7.65267
G1 X111.895 Y112.397 E7.68265
G1 X111.895 Y107.954 E7.91318
G1 X111.318 Y107.954 E7.94316
G1 X111.318 Y112.397 E8.17369
G1 X110.74 Y112.397 E8.20367
G1 X110.74 Y107.954 E8.4342
G1 X110.162 Y107.954 E8.46418
G1 X110.162 Y112.397 E8.69471
G1 X109.584 Y112.397 E8.72469
G1 X109.584 Y109.832 E8.85779
G1 X109.404 Y110.066 E8.87313
G1 X109.296 Y110.174 E8.88105
G1 X109.027 Y110.381 E8.8987
G1 X109.007 Y110.393 E8.8999
G1 X109.007 Y112.397 E9.00389
G1 X108.429 Y112.397 E9.03387
G1 X108.429 Y110.628 E9.12566
G1 X108.126 Y110.668 E9.14149
G1 X108.077 Y110.671 E9.14406
G1 X108.05 Y110.673 E9.14544
G1 X107.851 Y110.673 E9.15578
G1 X107.851 Y112.397 E9.24525
G1 X107.273 Y112.397 E9.27523
G1 X107.273 Y110.673 E9.3647
G1 X106.695 Y110.673 E9.39468
G1 X106.695 Y112.397 E9.48415
G1 X106.118 Y112.397 E9.51413
G1 X106.118 Y110.673 E9.6036
G1 X106.057 Y110.673 E9.60674
G1 X105.583 Y111.526 E9.65741
G1 X105.54 Y111.604 E9.662
G1 X105.54 Y112.621 E9.71476
G92 E0
;WIPE_START
G1 F14400
G1 X105.54 Y111.604 E-0.14089
G1 X105.583 Y111.526 E-0.15313
G1 X106.057 Y110.673 E-0.28844
G1 X106.118 Y110.673 E-0.29683
G1 X106.118 Y112.397 E-0.53572
G1 X106.695 Y112.397 E-0.61577
G1 X106.695 Y111.356 E-0.76
;WIPE_END
G1 E-0.8 F2100
G1 Z0.64 F18000
; acceleration to travel
M204 S1500
G1 X105.764 Y106.297
; decel to extrusion
M204 S1000
G1 X105.54 Y105.077
; end travel
G1 Z0.24
G1 E0 F2100
G1 F1200
G1 X89.115 Y105.077 E0.85221
G1 X88.64 Y105.552 E0.88709
