; generated by SuperSlicer 2.5.59 on 2023-10-12 at 15:04:00 UTC


;
;

;
;
; 

; external perimeters extrusion width = 0.44mm
; perimeters extrusion width = 0.46mm
; infill extrusion width = 0.44mm
; solid infill extrusion width = 0.46mm
; top infill extrusion width = 0.44mm
; first layer extrusion width = 0.57mm

; object:{"name":"3DBenchy","id":"3DBenchy.stl id:0 copy 0","object_center":[115.500000,115.500000,0.000000],"boundingbox_center":[115.500000,115.500000,24.000000],"boundingbox_size":[60.000999,31.004000,48.000000]}
EXCLUDE_OBJECT_DEFINE NAME=3DBenchy_stl_id_0_copy_0 CENTER=115.500000,115.500000 POLYGON=[[85.499496,106.316000],[85.502504,106.255000],[85.506504,106.199000],[85.511504,106.146000],[85.513504,106.130000],[85.519504,106.083000],[85.528504,106.025000],[85.545504,105.936000],[85.558504,105.879000],[85.573504,105.822000],[85.580504,105.796000],[85.597504,105.739000],[85.626496,105.655000],[85.640504,105.618000],[85.662496,105.564000],[85.669496,105.547000],[85.685504,105.510000],[85.709504,105.458000],[85.730496,105.416000],[85.763504,105.354008],[85.778504,105.327000],[85.790496,105.306000],[85.839504,105.227000],[85.857496,105.200000],[85.871496,105.179000],[85.905504,105.131000],[85.940496,105.084000],[85.983504,105.031000],[86.008496,105.001000],[86.038496,104.966000],[86.078496,104.923008],[86.092496,104.908000],[86.141496,104.859000],[86.161496,104.840000],[86.204496,104.800000],[86.237504,104.771000],[86.282504,104.734000],[86.293504,104.725000],[86.328496,104.697000],[86.386504,104.654000],[86.434504,104.621000],[86.478504,104.592000],[86.544496,104.552000],[86.571504,104.536000],[86.623504,104.508000],[86.648496,104.495000],[86.675496,104.481000],[86.697496,104.470000],[86.753496,104.444000],[86.811504,104.419000],[86.861496,104.399000],[86.916504,104.379000],[86.928496,104.375000],[86.971496,104.361000],[86.984496,104.357000],[87.040496,104.340000],[87.047504,104.338000],[87.084504,104.328000],[87.096496,104.325000],[87.124496,104.318000],[87.140504,104.314000],[87.182496,104.305000],[87.210496,104.299000],[87.297504,104.284000],[115.312504,100.386000],[115.555496,100.353000],[115.799496,100.321000],[116.043504,100.291000],[116.382496,100.252000],[116.605496,100.228000],[116.850504,100.202000],[117.096496,100.178000],[117.342496,100.156000],[117.587504,100.135000],[117.753504,100.122000],[117.833496,100.116000],[118.023496,100.102000],[118.079496,100.098000],[118.326504,100.081000],[118.487504,100.071000],[118.571504,100.066000],[118.732496,100.057000],[118.989504,100.044000],[119.097504,100.039000],[119.119496,100.038000],[119.255504,100.032000],[119.406504,100.026000],[119.550496,100.021000],[119.667504,100.017000],[119.733496,100.015000],[119.842496,100.012000],[119.960504,100.009000],[120.048504,100.007008],[120.189496,100.004000],[120.381504,100.001000],[120.562504,99.999000],[120.680496,99.998000],[121.078496,99.998000],[121.434504,100.000000],[121.869496,100.008000],[121.949504,100.010000],[122.305496,100.020008],[122.412496,100.024000],[122.740504,100.037000],[123.176496,100.058000],[123.509496,100.078000],[123.592496,100.083000],[123.702496,100.090000],[123.875504,100.102000],[123.995496,100.111000],[124.141504,100.122000],[124.228504,100.129000],[124.409504,100.144000],[124.539496,100.155000],[125.332496,100.280000],[125.341496,100.282000],[125.769504,100.388000],[125.877504,100.415000],[126.095496,100.470000],[126.237504,100.507008],[126.313496,100.527000],[126.467496,100.568000],[126.748496,100.645008],[126.924496,100.695000],[127.180496,100.770008],[127.396496,100.834000],[127.610504,100.900000],[127.832496,100.970000],[128.058504,101.043000],[128.252504,101.107000],[128.508496,101.194000],[128.678496,101.253000],[128.732496,101.272000],[128.900496,101.332000],[129.101504,101.405000],[129.322496,101.487000],[129.533496,101.567000],[129.733504,101.645008],[129.843504,101.688000],[129.953504,101.732000],[130.162504,101.816000],[130.371504,101.902000],[130.426496,101.925000],[130.634504,102.013000],[130.841504,102.103000],[131.047504,102.193000],[131.457504,102.379000],[131.660496,102.474000],[131.863496,102.570000],[132.065488,102.668000],[132.266496,102.767000],[132.467496,102.867000],[132.666504,102.969000],[132.865512,103.072000],[133.063504,103.177000],[133.261504,103.283000],[133.457504,103.390000],[133.653504,103.499000],[134.043504,103.721000],[134.237504,103.834000],[134.430496,103.949000],[134.622496,104.065000],[134.814496,104.183000],[135.005488,104.301000],[135.196496,104.422000],[135.385504,104.543000],[135.574496,104.667000],[135.762496,104.791000],[135.950496,104.917000],[136.137504,105.044000],[136.323504,105.173008],[136.508496,105.303000],[136.692512,105.434000],[136.876496,105.567000],[137.059504,105.701008],[137.242496,105.837000],[137.423488,105.974000],[137.604496,106.112000],[137.784496,106.252000],[137.963504,106.393000],[138.142496,106.536000],[138.320496,106.680000],[138.497504,106.825000],[138.673488,106.972000],[138.848496,107.121000],[139.023504,107.270008],[139.197488,107.421000],[139.370496,107.574000],[139.542496,107.728000],[139.714512,107.884000],[139.828496,107.989000],[139.997504,108.145000],[140.165504,108.303000],[140.331504,108.462000],[140.496496,108.622000],[140.661504,108.783000],[140.824496,108.945000],[140.986496,109.109000],[141.147488,109.273000],[141.307488,109.439000],[141.466496,109.606000],[141.624496,109.774000],[141.781488,109.943000],[141.937504,110.114000],[142.092496,110.285000],[142.245504,110.458000],[142.398496,110.632008],[142.550512,110.806000],[142.700496,110.983000],[142.849504,111.160000],[142.998512,111.338000],[143.145504,111.517000],[143.291504,111.698000],[143.436496,111.880000],[143.580512,112.063000],[143.723488,112.247000],[143.864496,112.432000],[144.005488,112.618000],[144.145504,112.805000],[144.283504,112.993000],[144.420496,113.183000],[144.556496,113.374000],[144.691504,113.565000],[144.825504,113.758000],[144.958496,113.952000],[145.089504,114.147000],[145.118496,114.192000],[145.151504,114.245000],[145.182496,114.298000],[145.212496,114.352000],[145.241504,114.407000],[145.268496,114.462000],[145.293504,114.519000],[145.318496,114.576000],[145.334496,114.617000],[145.356512,114.675000],[145.376496,114.733000],[145.395504,114.792000],[145.412512,114.851000],[145.428496,114.913000],[145.442512,114.970000],[145.454496,115.030000],[145.466496,115.093000],[145.475488,115.152000],[145.483504,115.213000],[145.490512,115.274000],[145.495504,115.336000],[145.498512,115.405000],[145.500496,115.466000],[145.500496,115.527000],[145.499504,115.588000],[145.496496,115.649000],[145.491504,115.709000],[145.485504,115.770000],[145.477504,115.831000],[145.468512,115.891000],[145.458496,115.949000],[145.445488,116.012000],[145.432496,116.069000],[145.416512,116.132008],[145.401504,116.186000],[145.383504,116.245000],[145.363488,116.303000],[145.342496,116.361000],[145.320496,116.418000],[145.296512,116.474000],[145.271504,116.530000],[145.244512,116.586000],[145.216496,116.640000],[145.186496,116.694000],[145.155504,116.748000],[145.123504,116.801000],[145.089504,116.853000],[144.972512,117.027000],[144.839504,117.221000],[144.705504,117.414000],[144.571504,117.606000],[144.435504,117.797000],[144.297504,117.987000],[144.159504,118.176000],[144.020512,118.364000],[143.879504,118.550000],[143.737504,118.736000],[143.594496,118.920000],[143.450496,119.104008],[143.304512,119.286000],[143.158512,119.468000],[143.010496,119.648000],[142.861504,119.828000],[142.710496,120.006000],[142.559504,120.183000],[142.406496,120.360000],[142.252496,120.535000],[142.097504,120.709000],[141.982496,120.837000],[141.825504,121.009000],[141.667504,121.180000],[141.508496,121.350000],[141.348496,121.518000],[141.187504,121.686000],[141.025504,121.852000],[140.699488,122.180000],[140.369504,122.502000],[140.203488,122.661000],[140.035488,122.819000],[139.867488,122.975000],[139.698496,123.130000],[139.528496,123.284000],[139.357504,123.437000],[139.185504,123.589000],[139.012496,123.739000],[138.838496,123.888000],[138.663504,124.036000],[138.487504,124.182000],[138.310496,124.327000],[138.132512,124.471000],[137.954496,124.614000],[137.774512,124.756000],[137.593504,124.896000],[137.411504,125.035000],[137.228496,125.173008],[137.044496,125.310000],[136.859504,125.445000],[136.673488,125.580000],[136.299504,125.844000],[136.110512,125.974000],[135.920496,126.103000],[135.730496,126.231000],[135.538496,126.357000],[135.346496,126.482000],[135.152496,126.606000],[134.958496,126.728000],[134.763504,126.849000],[134.566496,126.969000],[134.369504,127.087000],[134.171512,127.204000],[133.972504,127.319000],[133.772488,127.434000],[133.572496,127.546000],[133.370496,127.658000],[133.094496,127.807000],[132.895512,127.912000],[132.696504,128.016008],[132.496488,128.118000],[132.295504,128.218992],[132.094496,128.317992],[131.892504,128.416000],[131.690488,128.511992],[131.487504,128.606992],[131.283496,128.700000],[131.079496,128.791992],[130.874496,128.882992],[130.669496,128.972000],[130.463504,129.059008],[130.256504,129.145008],[130.166504,129.182008],[130.049496,129.230000],[129.841504,129.313000],[129.622496,129.397992],[129.503496,129.444000],[129.204496,129.557008],[128.993504,129.634000],[128.793504,129.705992],[128.571504,129.784000],[128.384504,129.847992],[128.369504,129.853000],[128.156496,129.924000],[127.943496,129.994000],[127.706496,130.070008],[127.505504,130.132008],[127.479504,130.140000],[127.251504,130.209000],[127.023496,130.276000],[126.795504,130.341000],[126.642504,130.384000],[126.565496,130.405000],[126.424496,130.442992],[126.206496,130.501008],[126.106496,130.527008],[125.988504,130.557008],[125.769504,130.612000],[125.343496,130.718000],[124.816496,130.819000],[124.806504,130.820008],[124.550496,130.843992],[124.503504,130.847992],[124.310504,130.864000],[124.225504,130.871000],[124.061504,130.884000],[123.981496,130.890000],[123.634496,130.914000],[123.188496,130.940992],[123.149496,130.942992],[122.764496,130.962008],[122.626504,130.968000],[122.278504,130.981000],[122.064496,130.987000],[121.843496,130.993000],[121.407504,131.000000],[121.021496,131.002000],[120.677496,131.002000],[120.377504,130.998992],[120.321504,130.998000],[120.099504,130.994000],[119.956496,130.991000],[119.838504,130.988008],[119.666504,130.983000],[119.576504,130.980000],[119.430496,130.975008],[119.252504,130.968000],[119.228504,130.966992],[119.070504,130.960008],[118.962504,130.955000],[118.832496,130.948000],[118.633496,130.937000],[118.389504,130.923008],[118.144504,130.907000],[118.129504,130.906008],[117.842496,130.884992],[117.596496,130.866000],[117.349504,130.845000],[117.167504,130.828000],[117.103504,130.822008],[116.923504,130.804992],[116.679496,130.780000],[116.611504,130.772992],[116.435504,130.754000],[116.119496,130.718000],[115.873496,130.688000],[115.704496,130.666000],[115.382496,130.623992],[87.327496,126.720000],[87.292496,126.715000],[87.242504,126.707000],[87.185504,126.696000],[87.153504,126.689000],[87.096496,126.675000],[87.084504,126.672000],[87.047504,126.662000],[87.036496,126.659000],[86.980496,126.642000],[86.928496,126.625000],[86.916504,126.621000],[86.861496,126.601000],[86.811504,126.581000],[86.753496,126.556000],[86.697496,126.530000],[86.655504,126.509000],[86.604504,126.482000],[86.586504,126.472000],[86.544496,126.448000],[86.492504,126.417000],[86.478504,126.408000],[86.443496,126.385000],[86.434504,126.379000],[86.386504,126.346000],[86.347504,126.317000],[86.339504,126.311000],[86.293504,126.275000],[86.255504,126.244000],[86.248504,126.238000],[86.204496,126.200000],[86.161496,126.160000],[86.140504,126.140000],[86.119496,126.119000],[86.092496,126.092000],[86.057496,126.055000],[86.038496,126.034000],[86.018504,126.011000],[85.980496,125.966000],[85.944504,125.920000],[85.930496,125.902000],[85.906504,125.870000],[85.872496,125.822000],[85.842496,125.778000],[85.808504,125.724000],[85.778504,125.673008],[85.750504,125.622000],[85.730496,125.584000],[85.718496,125.560000],[85.695496,125.512000],[85.669496,125.454000],[85.648496,125.403000],[85.627504,125.349000],[85.608504,125.293000],[85.607496,125.290000],[85.590504,125.238000],[85.574504,125.182000],[85.559504,125.125000],[85.545504,125.064000],[85.534504,125.007008],[85.525496,124.954000],[85.524504,124.948000],[85.516496,124.896000],[85.511504,124.853000],[85.508496,124.825000],[85.502504,124.745000],[85.500504,124.708000],[85.499496,124.679000],[85.499496,106.316000]]
; plater:{"center":[115.500000,115.500000,0.000000],"boundingbox_center":[115.500000,115.500000,24.000000],"boundingbox_size":[60.000999,31.004000,48.000000]}

;TYPE:Custom
SET_PRINT_STATS_INFO TOTAL_LAYER=240

PRINT_START BED=60 EXTRUDER=215 CHAMBER=0 SIZE=85.8738_103.59_132.54_127.409 MATERIAL=PLA
; Filament gcode
SET_PRESSURE_ADVANCE ADVANCE=0.08
;_TOOLCHANGE 0
M107
;LAYER_CHANGE
;Z:0.24
;HEIGHT:0.24

G1 E-0.8 F2100
G1 Z0.4 F18000
SET_PRINT_STATS_INFO CURRENT_LAYER=1

G92 E0
G1 Z0.64
M204 S1000
G1 X87.769 Y106.951
G1 Z0.24
G1 E0.8 F2100
;TYPE:Skirt
;WIDTH:0.48
G1 F1200
G1 X87.677 Y107.027 E0.80497
G1 X87.148 Y107.685 E0.84034
G1 X86.697 Y108.545 E0.88105
G1 X86.501 Y109.092 E0.90538
G1 X86.328 Y110.008 E0.94447
G1 X86.322 Y120.932 E1.40216
G1 X86.6 Y122.219 E1.45732
G1 X87.165 Y123.332 E1.50964
G1 X87.758 Y124.056 E1.54884
G1 X88.496 Y124.66 E1.58881
G1 X89.516 Y125.179 E1.63676
G1 X90.649 Y125.449 E1.68558
G1 X115.176 Y126.981 E2.71525
G1 X117.752 Y126.851 E2.82332
G1 X119.938 Y126.453 E2.91642
G1 X121.118 Y126.122 E2.96778
G1 X123.551 Y125.157 E3.07745
G1 X125.864 Y123.83 E3.18916
G1 X127.815 Y122.315 E3.29267
G1 X129.131 Y121.02 E3.37004
G1 X130.595 Y119.21 E3.46759
G1 X131.573 Y117.659 E3.5444
G1 X131.943 Y116.755 E3.58535
G1 X132.115 Y115.746 E3.62821
G1 X132.051 Y114.703 E3.67201
G1 X131.87 Y114.016 E3.70176
G1 X131.501 Y113.206 E3.73908
G1 X130.19 Y111.243 E3.83796
G1 X128.641 Y109.468 E3.93671
G1 X126.783 Y107.831 E4.04044
G1 X124.708 Y106.452 E4.14485
G1 X122.56 Y105.401 E4.24502
G1 X120.215 Y104.618 E4.3486
G1 X117.966 Y104.176 E4.44466
G1 X115.611 Y104.017 E4.54355
G1 X90.958 Y105.516 E5.57842
G1 X89.642 Y105.78 E5.63468
G1 X88.582 Y106.284 E5.68385
G1 X87.815 Y106.913 E5.72542
M104 S215 ; set temperature
G92 E0
;WIPE_START
G1 F14400
G1 X88.582 Y106.284 E-0.13746
G1 X89.642 Y105.78 E-0.30004
G1 X90.958 Y105.516 E-0.48606
G1 X92.932 Y105.396 E-0.76
;WIPE_END
G1 E-0.8 F2100
G1 Z0.64 F18000
; printing object 3DBenchy.stl id:0 copy 0
EXCLUDE_OBJECT_START NAME=3DBenchy_stl_id_0_copy_0
; acceleration to travel
M204 S1500
G1 X112.5 Y114.101
; decel to extrusion
M204 S1000
G1 X117.217 Y116.199
; end travel
G1 Z0.24
G1 E0 F2100
;TYPE:Internal perimeter
;WIDTH:0.571504
G1 F1200
G1 X117.594 Y115.524 E0.03932
G1 X118.141 Y117.005 E0.11961
G1 X117.8 Y117.169 E0.13887
G1 X117.248 Y116.251 E0.19333
G92 E0
;WIPE_START
G1 F14400
G1 X117.8 Y117.169 E-0.14837
G1 X118.141 Y117.005 E-0.20085
G1 X117.594 Y115.524 E-0.41961
G1 X117.217 Y116.199 E-0.52674
;WIPE_END
G1 E-0.8 F2100
G1 Z0.64 F18000
G1 X118.415 Y117.73
G1 Z0.24
G1 E0 F2100
G1 F1200
G1 X118.625 Y118.209 E0.02661
G1 X118.388 Y118.704 E0.05452
G1 X118.048 Y118.605 E0.07251
G1 X118.109 Y118.122 E0.09724
G1 X118.065 Y117.831 E0.11221
G1 X118.357 Y117.747 E0.12768
G92 E0
;WIPE_START
G1 F14400
G1 X118.065 Y117.831 E-0.04215
G1 X118.109 Y118.122 E-0.08294
G1 X118.048 Y118.605 E-0.15033
G1 X118.388 Y118.704 E-0.19933
G1 X118.625 Y118.209 E-0.2754
G1 X118.415 Y117.73 E-0.34789
;WIPE_END
G1 E-0.8 F2100
G1 Z0.64 F18000
G1 X121.617 Y117.826
G1 Z0.24
G1 E0 F2100
G1 F1200
G1 X122.006 Y118.888 E0.05754
G1 X122.412 Y119.312 E0.08738
G1 X122.824 Y119.473 E0.10984
G1 X123.127 Y119.511 E0.12536
G1 X124.046 Y119.476 E0.17212
G1 X124.144 Y119.758 E0.18733
G1 X123.378 Y120.318 E0.23559
G1 X122.886 Y120.635 E0.26534
G1 X122.27 Y120.991 E0.3015
G1 X121.472 Y121.396 E0.34701
G1 X120.622 Y121.758 E0.39397
G1 X119.538 Y122.122 E0.45212
G1 X119.403 Y121.769 E0.47137
G1 X119.676 Y121.634 E0.48685
