; generated by SuperSlicer 2.5.59 on 2023-10-21 at 01:24:46 UTC


;
;

;
;
; 

; external perimeters extrusion width = 0.46mm
; perimeters extrusion width = 0.48mm
; infill extrusion width = 0.46mm
; solid infill extrusion width = 0.48mm
; top infill extrusion width = 0.46mm
; first layer extrusion width = 0.57mm

; external perimeters extrusion width = 0.46mm
; perimeters extrusion width = 0.48mm
; infill extrusion width = 0.46mm
; solid infill extrusion width = 0.48mm
; top infill extrusion width = 0.46mm
; first layer extrusion width = 0.57mm

; object:{"name":"4040_Cable_Clip_Large","id":"4040_Cable_Clip_Large.stl id:0 copy 0","object_center":[94.500559,95.250001,0.000000],"boundingbox_center":[94.500559,95.250001,3.800000],"boundingbox_size":[30.000000,28.500000,7.600000]}
EXCLUDE_OBJECT_DEFINE NAME=4040_Cable_Clip_Large_stl_id_0_copy_0 CENTER=94.500559,95.250001 POLYGON=[[79.500560,84.000000],[79.526224,83.608424],[79.602784,83.223544],[79.728920,82.851952],[79.902480,82.500000],[80.120496,82.173712],[80.379232,81.878680],[80.674272,81.619944],[81.000560,81.401928],[81.352512,81.228360],[81.724096,81.102216],[82.108976,81.025664],[82.500560,81.000000],[106.500560,81.000000],[106.892136,81.025664],[107.277016,81.102216],[107.648608,81.228360],[108.000560,81.401928],[108.326840,81.619944],[108.621880,81.878680],[108.880616,82.173712],[109.098632,82.500000],[109.272192,82.851952],[109.398328,83.223544],[109.474888,83.608424],[109.500560,84.000000],[109.500560,100.000000],[109.474888,100.391576],[109.398328,100.776456],[109.272192,101.148048],[109.098632,101.500000],[108.880616,101.826288],[103.500560,109.500000],[85.500560,109.500000],[80.120496,101.826288],[79.902480,101.500000],[79.817448,101.309024],[79.810520,101.286808],[79.773984,101.104528],[79.770192,101.058144],[79.500560,94.500000],[79.500560,84.000000]]
; object:{"name":"4040_Cable_Clip_Large","id":"4040_Cable_Clip_Large.stl id:0 copy 1","object_center":[94.500559,129.750001,0.000000],"boundingbox_center":[94.500559,129.750001,3.800000],"boundingbox_size":[30.000000,28.500000,7.600000]}
EXCLUDE_OBJECT_DEFINE NAME=4040_Cable_Clip_Large_stl_id_0_copy_1 CENTER=94.500559,129.750001 POLYGON=[[79.500560,118.500000],[79.526224,118.108424],[79.602784,117.723544],[79.728920,117.351952],[79.902480,117.000000],[80.120496,116.673712],[80.379232,116.378680],[80.674272,116.119944],[81.000560,115.901928],[81.352512,115.728360],[81.724096,115.602216],[82.108976,115.525664],[82.500560,115.500000],[106.500560,115.500000],[106.892136,115.525664],[107.277016,115.602216],[107.648608,115.728360],[108.000560,115.901928],[108.326840,116.119944],[108.621880,116.378680],[108.880616,116.673712],[109.098632,117.000000],[109.272192,117.351952],[109.398328,117.723544],[109.474888,118.108424],[109.500560,118.500000],[109.500560,134.500000],[109.474888,134.891568],[109.398328,135.276464],[109.272192,135.648064],[109.098632,136.000000],[108.880616,136.326272],[103.500560,144.000000],[85.500560,144.000000],[80.120496,136.326272],[79.902480,136.000000],[79.817448,135.809024],[79.810520,135.786800],[79.773984,135.604528],[79.770192,135.558144],[79.500560,129.000000],[79.500560,118.500000]]
; object:{"name":"4040_Cable_Clip_Large","id":"4040_Cable_Clip_Large.stl id:0 copy 2","object_center":[130.500559,95.250001,0.000000],"boundingbox_center":[130.500559,95.250001,3.800000],"boundingbox_size":[30.000000,28.500000,7.600000]}
EXCLUDE_OBJECT_DEFINE NAME=4040_Cable_Clip_Large_stl_id_0_copy_2 CENTER=130.500559,95.250001 POLYGON=[[115.500568,84.000000],[115.526232,83.608424],[115.602784,83.223544],[115.728928,82.851952],[115.902488,82.500000],[116.120504,82.173712],[116.379240,81.878680],[116.674280,81.619944],[117.000568,81.401928],[117.352520,81.228360],[117.724104,81.102216],[118.108984,81.025664],[118.500568,81.000000],[142.500560,81.000000],[142.892144,81.025664],[143.277024,81.102216],[143.648624,81.228360],[144.000560,81.401928],[144.326848,81.619944],[144.621888,81.878680],[144.880624,82.173712],[145.098640,82.500000],[145.272208,82.851952],[145.398352,83.223544],[145.474896,83.608424],[145.500560,84.000000],[145.500560,100.000000],[145.474896,100.391576],[145.398352,100.776456],[145.272208,101.148048],[145.098640,101.500000],[144.880624,101.826288],[139.500560,109.500000],[121.500568,109.500000],[116.120504,101.826288],[115.902488,101.500000],[115.817456,101.309024],[115.810528,101.286808],[115.773992,101.104528],[115.770200,101.058144],[115.500568,94.500000],[115.500568,84.000000]]
; object:{"name":"4040_Cable_Clip_Large","id":"4040_Cable_Clip_Large.stl id:0 copy 3","object_center":[130.500559,129.750001,0.000000],"boundingbox_center":[130.500559,129.750001,3.800000],"boundingbox_size":[30.000000,28.500000,7.600000]}
EXCLUDE_OBJECT_DEFINE NAME=4040_Cable_Clip_Large_stl_id_0_copy_3 CENTER=130.500559,129.750001 POLYGON=[[115.500568,118.500000],[115.526232,118.108424],[115.602784,117.723544],[115.728928,117.351952],[115.902488,117.000000],[116.120504,116.673712],[116.379240,116.378680],[116.674280,116.119944],[117.000568,115.901928],[117.352520,115.728360],[117.724104,115.602216],[118.108984,115.525664],[118.500568,115.500000],[142.500560,115.500000],[142.892144,115.525664],[143.277024,115.602216],[143.648624,115.728360],[144.000560,115.901928],[144.326848,116.119944],[144.621888,116.378680],[144.880624,116.673712],[145.098640,117.000000],[145.272208,117.351952],[145.398352,117.723544],[145.474896,118.108424],[145.500560,118.500000],[145.500560,134.500000],[145.474896,134.891568],[145.398352,135.276464],[145.272208,135.648064],[145.098640,136.000000],[144.880624,136.326272],[139.500560,144.000000],[121.500568,144.000000],[116.120504,136.326272],[115.902488,136.000000],[115.817456,135.809024],[115.810528,135.786800],[115.773992,135.604528],[115.770200,135.558144],[115.500568,129.000000],[115.500568,118.500000]]
; object:{"name":"4040_Cable_Clip","id":"4040_Cable_Clip.stl id:1 copy 0","object_center":[112.500558,160.250001,0.000000],"boundingbox_center":[112.500558,160.250001,3.800000],"boundingbox_size":[30.000000,20.500000,7.600000]}
EXCLUDE_OBJECT_DEFINE NAME=4040_Cable_Clip_stl_id_1_copy_0 CENTER=112.500558,160.250001 POLYGON=[[97.500560,153.000000],[97.507552,152.795280],[97.528496,152.591504],[97.563312,152.389632],[97.611800,152.190608],[97.673776,151.995360],[97.748928,151.804800],[97.836896,151.619808],[97.937304,151.441248],[98.049648,151.269952],[98.173424,151.106736],[98.308056,150.952352],[98.452896,150.807488],[98.607296,150.672864],[98.770512,150.549088],[98.941800,150.436736],[99.120360,150.336352],[99.305352,150.248368],[99.495920,150.173216],[99.691168,150.111248],[99.890192,150.062752],[100.092056,150.027936],[100.295832,150.006992],[100.500560,150.000000],[124.500560,150.000000],[124.705288,150.006992],[124.909056,150.027936],[125.110928,150.062752],[125.309952,150.111248],[125.505192,150.173216],[125.695760,150.248368],[125.880752,150.336352],[126.059312,150.436736],[126.230600,150.549088],[126.393824,150.672864],[126.548216,150.807488],[126.693072,150.952352],[126.827688,151.106736],[126.951472,151.269952],[127.063816,151.441248],[127.164216,151.619808],[127.252192,151.804800],[127.327336,151.995360],[127.389312,152.190608],[127.437808,152.389632],[127.472608,152.591504],[127.493560,152.795280],[127.500560,153.000000],[127.500560,161.000000],[127.493560,161.204720],[127.472608,161.408496],[127.437808,161.610368],[127.389312,161.809392],[127.327336,162.004640],[127.252192,162.195200],[127.164216,162.380192],[127.063816,162.558752],[126.951472,162.730048],[121.500560,170.500000],[103.500560,170.500000],[98.013440,162.677584],[97.902480,162.500000],[97.850288,162.396080],[97.810520,162.286800],[97.783696,162.173648],[97.770192,162.058144],[97.500560,155.500000],[97.500560,153.000000]]
; object:{"name":"4040_Cable_Clip","id":"4040_Cable_Clip.stl id:1 copy 1","object_center":[112.500559,64.750001,0.000000],"boundingbox_center":[112.500559,64.750001,3.800000],"boundingbox_size":[30.000000,20.500000,7.600000]}
EXCLUDE_OBJECT_DEFINE NAME=4040_Cable_Clip_stl_id_1_copy_1 CENTER=112.500559,64.750001 POLYGON=[[97.500560,57.500000],[97.507552,57.295272],[97.528496,57.091500],[97.563312,56.889632],[97.611800,56.690608],[97.673776,56.495360],[97.748928,56.304800],[97.836896,56.119804],[97.937304,55.941248],[98.049648,55.769960],[98.173424,55.606736],[98.308056,55.452340],[98.452896,55.307492],[98.607296,55.172868],[98.770512,55.049092],[98.941800,54.936740],[99.120360,54.836344],[99.305352,54.748368],[99.495920,54.673216],[99.691168,54.611248],[99.890192,54.562748],[100.092056,54.527944],[100.295832,54.506992],[100.500560,54.500000],[124.500560,54.500000],[124.705288,54.506992],[124.909056,54.527944],[125.110928,54.562748],[125.309952,54.611248],[125.505192,54.673216],[125.695760,54.748368],[125.880752,54.836344],[126.059312,54.936740],[126.230600,55.049092],[126.393824,55.172868],[126.548216,55.307492],[126.693072,55.452340],[126.827688,55.606736],[126.951472,55.769960],[127.063816,55.941248],[127.164216,56.119804],[127.252192,56.304800],[127.327336,56.495360],[127.389312,56.690608],[127.437808,56.889632],[127.472608,57.091500],[127.493560,57.295272],[127.500560,57.500000],[127.500560,65.500000],[127.493560,65.704728],[127.472608,65.908500],[127.437808,66.110368],[127.389312,66.309388],[127.327336,66.504640],[127.252192,66.695204],[127.164216,66.880196],[127.063816,67.058756],[126.951472,67.230040],[121.500560,75.000000],[103.500560,75.000000],[98.013440,67.177584],[97.902480,67.000000],[97.850288,66.896080],[97.810520,66.786804],[97.783696,66.673644],[97.770192,66.558144],[97.500560,60.000000],[97.500560,57.500000]]
; object:{"name":"4040_Cable_Clip","id":"4040_Cable_Clip.stl id:1 copy 2","object_center":[165.281313,112.505484,0.000000],"boundingbox_center":[165.281313,112.505484,3.800000],"boundingbox_size":[30.000000,20.500000,7.600000]}
EXCLUDE_OBJECT_DEFINE NAME=4040_Cable_Clip_stl_id_1_copy_2 CENTER=165.281313,112.505484 POLYGON=[[150.281312,105.255488],[150.288304,105.050760],[150.309248,104.846984],[150.344048,104.645120],[150.392560,104.446096],[150.454528,104.250848],[150.529680,104.060280],[150.617664,103.875288],[150.718048,103.696728],[150.830400,103.525448],[150.954176,103.362224],[151.088800,103.207824],[151.233664,103.062984],[151.388048,102.928352],[151.551264,102.804576],[151.722560,102.692232],[151.901120,102.591824],[152.086112,102.503856],[152.276672,102.428704],[152.471920,102.366728],[152.670944,102.318240],[152.872816,102.283424],[153.076592,102.262480],[153.281312,102.255488],[177.281312,102.255488],[177.486032,102.262480],[177.689824,102.283424],[177.891680,102.318240],[178.090704,102.366728],[178.285952,102.428704],[178.476512,102.503856],[178.661504,102.591824],[178.840064,102.692232],[179.011360,102.804576],[179.174576,102.928352],[179.328960,103.062984],[179.473824,103.207824],[179.608448,103.362224],[179.732224,103.525448],[179.844576,103.696728],[179.944960,103.875288],[180.032944,104.060280],[180.108096,104.250848],[180.170064,104.446096],[180.218560,104.645120],[180.253376,104.846984],[180.274320,105.050760],[180.281312,105.255488],[180.281312,113.255488],[180.274320,113.460216],[180.253376,113.663984],[180.218560,113.865856],[180.170064,114.064872],[180.108096,114.260128],[180.032944,114.450688],[179.944960,114.635680],[179.844576,114.814240],[179.732224,114.985528],[174.281312,122.755488],[156.281312,122.755488],[150.794208,114.933064],[150.683232,114.755488],[150.631040,114.651568],[150.591280,114.542288],[150.564448,114.429128],[150.550944,114.313632],[150.281312,107.755488],[150.281312,105.255488]]
; object:{"name":"4040_Cable_Clip","id":"4040_Cable_Clip.stl id:1 copy 3","object_center":[59.718688,112.496780,0.000000],"boundingbox_center":[59.718688,112.496780,3.800000],"boundingbox_size":[30.000000,20.500000,7.600000]}
EXCLUDE_OBJECT_DEFINE NAME=4040_Cable_Clip_stl_id_1_copy_3 CENTER=59.718688,112.496780 POLYGON=[[44.718688,105.246784],[44.725680,105.042056],[44.746632,104.838280],[44.781436,104.636416],[44.829936,104.437392],[44.891908,104.242144],[44.967056,104.051576],[45.055036,103.866584],[45.155428,103.688024],[45.267780,103.516736],[45.391556,103.353512],[45.526180,103.199120],[45.671028,103.054272],[45.825424,102.919648],[45.988648,102.795872],[46.159936,102.683528],[46.338492,102.583120],[46.523488,102.495144],[46.714052,102.420000],[46.909300,102.358032],[47.108324,102.309528],[47.310188,102.274720],[47.513960,102.253776],[47.718688,102.246784],[71.718688,102.246784],[71.923416,102.253776],[72.127192,102.274720],[72.329056,102.309528],[72.528080,102.358032],[72.723328,102.420000],[72.913896,102.495144],[73.098888,102.583120],[73.277440,102.683528],[73.448728,102.795872],[73.611952,102.919648],[73.766352,103.054272],[73.911192,103.199120],[74.045824,103.353512],[74.169600,103.516736],[74.281952,103.688024],[74.382344,103.866584],[74.470320,104.051576],[74.545472,104.242144],[74.607440,104.437392],[74.655944,104.636416],[74.690752,104.838280],[74.711696,105.042056],[74.718688,105.246784],[74.718688,113.246784],[74.711696,113.451504],[74.690752,113.655280],[74.655944,113.857144],[74.607440,114.056168],[74.545472,114.251416],[74.470320,114.441984],[74.382344,114.626976],[74.281952,114.805536],[74.169600,114.976824],[68.718688,122.746784],[50.718688,122.746784],[45.231576,114.924360],[45.120612,114.746784],[45.068420,114.642864],[45.028648,114.533584],[45.001832,114.420424],[44.988332,114.304928],[44.718688,107.746784],[44.718688,105.246784]]
; plater:{"center":[112.500000,112.500001,0.000000],"boundingbox_center":[112.500000,112.500001,3.800000],"boundingbox_size":[135.562625,116.000000,7.600000]}

;TYPE:Custom
SET_PRINT_STATS_INFO TOTAL_LAYER=27

PRINT_START BED=60 EXTRUDER=215 CHAMBER=0 SIZE=41.0792_50.8605_183.921_174.14 MATERIAL=PLA
; Filament gcode
SET_PRESSURE_ADVANCE ADVANCE=0.08
;_TOOLCHANGE 0
M107
;LAYER_CHANGE
;Z:0.24
;HEIGHT:0.24

G1 E-0.8 F2100
G1 Z0.4 F18000
SET_PRINT_STATS_INFO CURRENT_LAYER=1

G92 E0
G1 Z0.64
M204 S2000
G1 X69.667 Y77.014
G1 Z0.24
G1 E0.8 F2100
;TYPE:Skirt
;WIDTH:0.48
G1 F1200
G1 X43.515 Y100.671 E2.2776
G1 X42.766 Y101.501 E2.32441
G1 X42.303 Y102.21 E2.35993
G1 X41.802 Y103.361 E2.41253
G1 X41.601 Y104.185 E2.44805
G1 X41.506 Y105.247 E2.49273
G1 X41.506 Y107.747 E2.59748
G1 X41.794 Y114.607 E2.88519
G1 X41.99 Y115.564 E2.92613
G1 X42.288 Y116.254 E2.95762
G1 X43.178 Y117.486 E3.02129
G1 X50.845 Y125.13 E3.47491
G1 X103.627 Y172.883 E6.45729
G1 X105.783 Y173.713 E6.55409
G1 X119.218 Y173.713 E7.11703
G1 X121.374 Y172.883 E7.21382
G1 X174.154 Y125.138 E10.19592
G1 X181.966 Y117.331 E10.65869
G1 X182.478 Y116.655 E10.6942
G1 X182.892 Y115.916 E10.72971
G1 X183.202 Y115.127 E10.76522
G1 X183.402 Y114.303 E10.80073
G1 X183.487 Y113.463 E10.83613
G1 X183.459 Y104.628 E11.20633
G1 X183.34 Y103.884 E11.23787
G1 X183.061 Y102.984 E11.27737
G1 X182.531 Y101.934 E11.32663
G1 X181.966 Y101.18 E11.36612
G1 X128.55 Y52.79 E14.38612
G1 X127.538 Y52.084 E14.43783
G1 X126.772 Y51.721 E14.47335
G1 X125.563 Y51.382 E14.52595
G1 X124.706 Y51.294 E14.56203
G1 X100.281 Y51.294 E15.58545
G1 X99.344 Y51.396 E15.62494
G1 X98.615 Y51.584 E15.65648
G1 X97.827 Y51.895 E15.69199
G1 X97.18 Y52.25 E15.72293
G1 X96.297 Y52.925 E15.76946
G1 X69.712 Y76.974 E17.27155
M104 S215 ; set temperature
G92 E0
;WIPE_START
G1 F14400
G1 X73.78 Y73.294 E-0.76
;WIPE_END
G1 E-0.8 F2100
G1 Z0.64 F18000
; printing object 4040_Cable_Clip_Large.stl id:0 copy 0
EXCLUDE_OBJECT_START NAME=4040_Cable_Clip_Large_stl_id_0_copy_0
; acceleration to travel
M204 S3000
G1 X90.41 Y96.665
; decel to extrusion
M204 S2000
G1 X94.419 Y102.299
; end travel
G1 Z0.24
G1 E0 F2100
;TYPE:Internal perimeter
;WIDTH:0.393401
G1 F1200
G1 X94.347 Y102.104 E0.00696
G1 X94.133 Y101.857 E0.0179
G1 X94.868 Y101.857 E0.0425
G1 X94.654 Y102.104 E0.05344
G1 X94.524 Y102.457 E0.06602
G1 X94.501 Y102.647 E0.07241
G1 X94.477 Y102.457 E0.07881
G1 X94.44 Y102.355 E0.08242
G1 X94.018 Y102.454 F18000
;WIDTH:0.571503
G1 F1200
G1 X93.962 Y102.296 E0.09098
