; generated by SuperSlicer 2.5.59 on 2023-10-12 at 16:17:01 UTC


;
;

;
;
; 

; external perimeters extrusion width = 0.42mm
; perimeters extrusion width = 0.44mm
; infill extrusion width = 0.42mm
; solid infill extrusion width = 0.44mm
; top infill extrusion width = 0.42mm
; first layer extrusion width = 0.56mm

; object:{"name":"40mm_fan_cover_relef_-embedded_in","id":"40mm_fan_cover_relef_-embedded_in.stl id:0 copy 0","object_center":[115.500000,115.500000,0.000000],"boundingbox_center":[115.500000,115.500000,0.900000],"boundingbox_size":[40.000000,40.000000,1.800000]}
EXCLUDE_OBJECT_DEFINE NAME=40mm_fan_cover_relef__embedded_in_stl_id_0_copy_0 CENTER=115.500000,115.500000 POLYGON=[[95.500000,98.500000],[95.510248,98.252256],[95.540920,98.006216],[95.591800,97.763544],[95.662552,97.525904],[95.752680,97.294912],[95.861584,97.072160],[95.988504,96.859152],[96.132576,96.657368],[96.292832,96.468152],[96.468152,96.292832],[96.657368,96.132576],[96.859152,95.988504],[97.072160,95.861584],[97.294912,95.752680],[97.525904,95.662552],[97.763544,95.591800],[98.006216,95.540920],[98.252256,95.510248],[98.500000,95.500000],[132.500000,95.500000],[132.747744,95.510248],[132.993776,95.540920],[133.236448,95.591800],[133.474088,95.662552],[133.705080,95.752680],[133.927840,95.861584],[134.140840,95.988504],[134.342640,96.132576],[134.531840,96.292832],[134.707168,96.468152],[134.867424,96.657368],[135.011504,96.859152],[135.138432,97.072160],[135.247312,97.294912],[135.337456,97.525904],[135.408208,97.763544],[135.459072,98.006216],[135.489744,98.252256],[135.500000,98.500000],[135.500000,132.500000],[135.489744,132.747744],[135.459072,132.993776],[135.408208,133.236448],[135.337456,133.474088],[135.247312,133.705080],[135.138432,133.927840],[135.011504,134.140840],[134.867424,134.342640],[134.707168,134.531840],[134.531840,134.707168],[134.342640,134.867424],[134.140840,135.011504],[133.927840,135.138432],[133.705080,135.247312],[133.474088,135.337456],[133.236448,135.408208],[132.993776,135.459072],[132.747744,135.489744],[132.500000,135.500000],[98.500000,135.500000],[98.252256,135.489744],[98.006216,135.459072],[97.763544,135.408208],[97.525904,135.337456],[97.294912,135.247312],[97.072160,135.138432],[96.859152,135.011504],[96.657368,134.867424],[96.468152,134.707168],[96.292832,134.531840],[96.132576,134.342640],[95.988504,134.140840],[95.861584,133.927840],[95.752680,133.705080],[95.662552,133.474088],[95.591800,133.236448],[95.540920,132.993776],[95.510248,132.747744],[95.500000,132.500000],[95.500000,98.500000]]
; plater:{"center":[115.500000,115.500000,0.000000],"boundingbox_center":[115.500000,115.500000,0.900000],"boundingbox_size":[40.000000,40.000000,1.800000]}

;TYPE:Custom
SET_PRINT_STATS_INFO TOTAL_LAYER=14

PRINT_START BED=70 EXTRUDER=240 CHAMBER=0 SIZE=91.8444_91.8444_139.156_139.156 MATERIAL=PETG
; Filament gcode
;_TOOLCHANGE 0
M107
;LAYER_CHANGE
;Z:0.2
;HEIGHT:0.2

G1 E-0.8 F2100
G1 Z0.4 F9000
SET_PRINT_STATS_INFO CURRENT_LAYER=1

G92 E0
G1 Z0.6
M204 S500
G1 X93.837 Y94.388
G1 Z0.2
G1 E0.8 F2100
;TYPE:Skirt
;WIDTH:0.48
G1 F1200
G1 X93.167 Y95.312 E0.84147
G1 X92.715 Y96.233 E0.87876
G1 X92.421 Y97.216 E0.91606
G1 X92.281 Y98.5 E0.96299
G1 X92.281 Y132.5 E2.19866
G1 X92.417 Y133.766 E2.24494
G1 X92.922 Y135.237 E2.30146
G1 X93.513 Y136.213 E2.34293
G1 X94.491 Y137.247 E2.39466
G1 X95.212 Y137.776 E2.42715
G1 X96.233 Y138.285 E2.46861
G1 X97.216 Y138.579 E2.50591
G1 X98.5 Y138.719 E2.55284
G1 X132.5 Y138.719 E3.78852
G1 X133.784 Y138.579 E3.83545
G1 X134.644 Y138.336 E3.86794
G1 X135.237 Y138.078 E3.89144
G1 X136.509 Y137.247 E3.94665
G1 X137.247 Y136.509 E3.9846
G1 X137.842 Y135.673 E4.02189
G1 X138.336 Y134.644 E4.06336
G1 X138.579 Y133.784 E4.09585
G1 X138.719 Y132.499 E4.14282
G1 X138.684 Y97.854 E5.40193
G1 X138.458 Y96.736 E5.44339
G1 X138.086 Y95.779 E5.48069
G1 X137.562 Y94.897 E5.51798
G1 X136.9 Y94.113 E5.55528
G1 X136.118 Y93.449 E5.59257
G1 X135.237 Y92.922 E5.62986
G1 X134.282 Y92.548 E5.66716
G1 X132.749 Y92.292 E5.72364
G1 X98.119 Y92.294 E6.98219
G1 X96.718 Y92.548 E7.03392
G1 X95.659 Y92.97 E7.07539
G1 X94.897 Y93.438 E7.10788
G1 X93.881 Y94.348 E7.15743
M104 S240 ; set temperature
G92 E0
;WIPE_START
G1 F7200
G1 X94.897 Y93.438 E-0.3778
G1 X95.659 Y92.97 E-0.6255
G1 X96.11 Y92.79 E-0.76
;WIPE_END
G1 E-0.8 F2100
G1 Z0.6 F9000
; printing object 40mm_fan_cover_relef_-embedded_in.stl id:0 copy 0
EXCLUDE_OBJECT_START NAME=40mm_fan_cover_relef__embedded_in_stl_id_0_copy_0
; acceleration to travel
M204 S1500
G1 X110.18 Y106.038
; decel to extrusion
M204 S500
G1 X111.899 Y107.657
; end travel
G1 Z0.2
G1 E0 F2100
;TYPE:Internal perimeter
;WIDTH:0.56292
G1 F1200
G1 X112.314 Y107.532 E0.01873
G1 X113.141 Y107.253 E0.05649
G1 X114.252 Y106.821 E0.108
G1 X114.369 Y106.908 E0.11433
G1 X117.085 Y106.93 E0.23174
G1 X118.498 Y107.459 E0.29698
G1 X119.386 Y107.819 E0.33842
G1 X120.049 Y108.031 E0.36854
G1 X120.491 Y108.481 E0.39581
G1 X121.433 Y109.305 E0.44992
G1 X121.966 Y109.865 E0.48333
G1 X122.516 Y110.406 E0.51669
G1 X122.806 Y110.795 E0.53767
G1 X123.07 Y111.26 E0.56081
G1 X123.164 Y111.57 E0.57479
G1 X123.789 Y113.144 E0.64803
G1 X124.074 Y113.691 E0.67471
G1 X124.051 Y113.756 E0.67767
G1 X124.081 Y114.588 E0.71369
G1 X124.226 Y115.407 E0.74964
G1 X124.106 Y115.996 E0.77564
G1 X123.97 Y116.863 E0.81358
G1 X123.809 Y117.629 E0.84742
G1 X123.425 Y118.869 E0.90356
G1 X123.247 Y119.614 E0.93668
G1 X123.125 Y119.663 E0.94238
G1 X123.086 Y119.867 E0.95135
G1 X122.042 Y121.1 E1.0212
G1 X121.134 Y121.969 E1.07553
G1 X119.815 Y123.052 E1.14932
G1 X117.968 Y123.715 E1.23419
G1 X117.618 Y123.812 E1.24987
G1 X116.825 Y123.975 E1.28489
G1 X114.933 Y124.199 E1.36726
G1 X113.237 Y123.774 E1.44286
G1 X112.054 Y123.394 E1.4966
G1 X111.425 Y123.244 E1.52457
G1 X110.966 Y122.823 E1.55148
G1 X109.909 Y122.052 E1.60805
G1 X109.236 Y121.668 E1.64156
G1 X109.242 Y121.496 E1.64897
G1 X108.745 Y120.79 E1.68631
G1 X108.242 Y120.15 E1.72151
G1 X107.864 Y119.753 E1.74523
G1 X107.687 Y119.118 E1.77371
G1 X107.251 Y117.848 E1.83178
G1 X106.952 Y116.538 E1.88985
G1 X106.771 Y115.913 E1.91799
G1 X106.896 Y115.259 E1.9468
G1 X106.965 Y113.723 E2.01326
G1 X107.656 Y112.027 E2.09245
G1 X107.809 Y111.701 E2.10801
G1 X108.012 Y111.322 E2.12662
G1 X108.352 Y110.594 E2.16136
G1 X108.661 Y110.132 E2.18537
G1 X109.028 Y109.73 E2.20892
G1 X109.632 Y109.246 E2.24241
G1 X109.934 Y108.972 E2.26002
G1 X110.909 Y108.207 E2.31361
G1 X111.339 Y107.825 E2.33848
G1 X111.841 Y107.674 E2.36115
G1 X112.201 Y107.021 F9000
G1 F1200
G1 X112.964 Y106.764 E2.39594
G1 X114.331 Y106.233 E2.45934
G1 X114.543 Y106.39 E2.47074
G1 X117.181 Y106.41 E2.58483
G1 X118.686 Y106.975 E2.65434
G1 X119.563 Y107.329 E2.69524
G1 X120.33 Y107.575 E2.73007
G1 X120.849 Y108.102 E2.76204
G1 X121.793 Y108.93 E2.81634
G1 X122.336 Y109.5 E2.85039
G1 X122.909 Y110.063 E2.88511
G1 X123.242 Y110.51 E2.90921
G1 X123.551 Y111.054 E2.93625
G1 X123.655 Y111.398 E2.95181
G1 X124.262 Y112.928 E3.02295
G1 X124.64 Y113.652 E3.05826
G1 X124.574 Y113.836 E3.06674
G1 X124.599 Y114.533 E3.0969
G1 X124.756 Y115.414 E3.13555
G1 X124.618 Y116.089 E3.16534
G1 X124.481 Y116.957 E3.20334
G1 X124.313 Y117.759 E3.2388
G1 X123.927 Y119.007 E3.29525
G1 X123.691 Y119.996 E3.33925
G1 X123.582 Y120.04 E3.34433
G1 X123.453 Y120.71 E3.37382
G1 X123.259 Y120.467 E3.38725
G1 X122.421 Y121.457 E3.44334
G1 X121.479 Y122.358 E3.4997
G1 X120.076 Y123.511 E3.57823
G1 X118.125 Y124.211 E3.66782
G1 X117.74 Y124.318 E3.68511
G1 X116.908 Y124.488 E3.72185
G1 X114.899 Y124.727 E3.80929
G1 X113.094 Y124.274 E3.88977
G1 X111.914 Y123.895 E3.94338
G1 X111.279 Y123.744 E3.97157
G1 X111.218 Y123.76 E3.97432
G1 X110.636 Y123.226 E4.00848
G1 X109.626 Y122.489 E4.06253
G1 X108.706 Y121.964 E4.10836
G1 X108.717 Y121.653 E4.12181
G1 X108.328 Y121.101 E4.151
G1 X107.848 Y120.491 E4.18454
G1 X107.398 Y120.017 E4.2128
G1 X107.19 Y119.273 E4.24622
G1 X106.75 Y117.99 E4.30484
G1 X106.449 Y116.669 E4.36345
G1 X106.237 Y115.938 E4.39634
G1 X106.378 Y115.198 E4.42892
G1 X106.45 Y113.61 E4.49764
G1 X107.18 Y111.819 E4.58128
G1 X107.343 Y111.468 E4.59801
G1 X107.547 Y111.089 E4.61662
G1 X107.898 Y110.337 E4.65248
G1 X108.251 Y109.811 E4.6799
G1 X108.671 Y109.35 E4.70688
G1 X109.295 Y108.85 E4.74145
G1 X109.599 Y108.575 E4.75917
G1 X110.576 Y107.807 E4.81287
G1 X111.08 Y107.36 E4.84202
G1 X112.144 Y107.04 E4.89008
G92 E0
;WIPE_START
G1 F7200
G1 X111.08 Y107.36 E-0.30795
G1 X110.576 Y107.807 E-0.49478
G1 X109.823 Y108.399 E-0.76
;WIPE_END
G1 E-0.8 F2100
G1 Z0.6 F9000
; acceleration to travel
M204 S1500
G1 X103.894 Y100.705
; decel to extrusion
M204 S500
G1 X103.169 Y99.765
; end travel
G1 Z0.2
G1 E0 F2100
G1 F1200
G1 X103.079 Y99.842 E0.00513
G1 X102.665 Y100.242 E0.03002
G1 X102.151 Y100.797 E0.06274
G1 X101.702 Y100.697 E0.08262
G1 X101.843 Y100.452 E0.09483
G1 X102.048 Y99.894 E0.12051
G1 X102.128 Y99.228 E0.14952
G1 X102.089 Y98.739 E0.17073
G1 X101.926 Y98.13 E0.19798
G1 X101.672 Y97.638 E0.22194
G1 X101.146 Y96.931 E0.26002
G1 X106.285 Y96.931 E0.48218
G1 X106.361 Y97.25 E0.49638
G1 X105.66 Y97.606 E0.53034
G1 X104.955 Y98.065 E0.56673
G1 X103.268 Y99.561 E0.66422
G1 X103.35 Y99.61 E0.66833
G1 X103.215 Y99.726 E0.67604
G92 E0
;WIPE_START
G1 F7200
G1 X103.35 Y99.61 E-0.04942
G1 X103.268 Y99.561 E-0.07575
G1 X104.955 Y98.065 E-0.70049
G1 X105.135 Y97.948 E-0.76
;WIPE_END
G1 E-0.8 F2100
G1 Z0.6 F9000
; acceleration to travel
M204 S1500
G1 X100.332 Y101.615
; decel to extrusion
M204 S500
G1 X99.746 Y102.063
; end travel
G1 Z0.2
G1 E0 F2100
G1 F1200
G1 X99.904 Y102.316 E0.01291
G1 X99.463 Y102.857 E0.04307
G1 X98.647 Y103.981 E0.10312
G1 X98.398 Y104.424 E0.1251
G1 X98.167 Y104.977 E0.15105
G1 X97.85 Y105.308 E0.17085
G1 X97.402 Y106.066 E0.20892
G1 X97.24 Y106.383 E0.22431
G1 X96.921 Y106.307 E0.23848
G1 X96.921 Y101.071 E0.46488
G1 X97.509 Y101.591 E0.49881
G1 X97.944 Y101.84 E0.52047
G1 X98.42 Y102.019 E0.54248
G1 X98.878 Y102.111 E0.56264
G1 X99.548 Y102.111 E0.59162
G1 X99.687 Y102.077 E0.59782
G92 E0
;WIPE_START
G1 F7200
G1 X99.548 Y102.111 E-0.03973
G1 X98.878 Y102.111 E-0.2254
G1 X98.42 Y102.019 E-0.35462
G1 X97.944 Y101.84 E-0.49564
G1 X97.509 Y101.591 E-0.63449
G1 X97.17 Y101.291 E-0.76
;WIPE_END
G1 E-0.8 F2100
G1 Z0.6 F9000
; acceleration to travel
M204 S1500
G1 X103.388 Y99.674
; decel to extrusion
M204 S500
G1 X104.148 Y99.476
; end travel
G1 Z0.2
G1 E0 F2100
G1 F1200
G1 X104.271 Y99.549 E0.00616
G1 X103.845 Y99.87 E0.02922
G1 X103.429 Y100.227 E0.05291
G1 X103.037 Y100.606 E0.07651
G1 X102.329 Y101.37 E0.12152
G1 X101.886 Y101.271 E0.14117
G1 X101.309 Y101.599 E0.16988
G1 X100.913 Y101.983 E0.19371
G1 X100.308 Y102.643 E0.23242
G1 X99.875 Y103.174 E0.26207
G1 X99.085 Y104.262 E0.32018
G1 X98.866 Y104.652 E0.33954
G1 X98.609 Y105.267 E0.36836
G1 X98.267 Y105.624 E0.38976
G1 X97.858 Y106.317 E0.42452
G1 X97.451 Y107.115 E0.46324
G1 X97.174 Y107.739 E0.49278
G1 X96.742 Y108.874 E0.54528
G1 X96.401 Y108.811 E0.56027
G1 X96.401 Y99.344 E0.9696
G1 X96.805 Y99.332 E0.98705
G1 X96.816 Y99.517 E0.99506
G1 X96.942 Y100.027 E1.01778
G1 X97.084 Y100.344 E1.03278
G1 X97.406 Y100.805 E1.0571
G1 X97.814 Y101.166 E1.08066
G1 X98.166 Y101.368 E1.0982
G1 X98.564 Y101.517 E1.11657
G1 X98.929 Y101.591 E1.1327
G1 X99.487 Y101.591 E1.15679
G1 X99.98 Y101.473 E1.17872
G1 X100.364 Y101.304 E1.19686
G1 X100.807 Y100.992 E1.22028
G1 X101.167 Y100.585 E1.24379
G1 X101.37 Y100.231 E1.26142
G1 X101.539 Y99.772 E1.28259
G1 X101.606 Y99.218 E1.30671
G1 X101.574 Y98.828 E1.32362
G1 X101.438 Y98.319 E1.3464
G1 X101.229 Y97.914 E1.36609
G1 X100.989 Y97.591 E1.38354
G1 X100.588 Y97.236 E1.40665
G1 X100.293 Y97.058 E1.42155
G1 X99.776 Y96.862 E1.44546
G1 X99.283 Y96.802 E1.46697
G1 X99.306 Y96.411 E1.4839
G1 X108.807 Y96.411 E1.8947
G1 X108.869 Y96.754 E1.90974
G1 X107.741 Y97.173 E1.96178
G1 X107.115 Y97.451 E1.99136
G1 X105.921 Y98.057 E2.04928
G1 X105.272 Y98.48 E2.08278
G1 X104.193 Y99.436 E2.14511
G92 E0
;WIPE_START
G1 F7200
G1 X105.272 Y98.48 E-0.39942
G1 X105.921 Y98.057 E-0.61413
G1 X106.39 Y97.819 E-0.76
;WIPE_END
G1 E-0.8 F2100
G1 Z0.6 F9000
; acceleration to travel
M204 S1500
G1 X98.017 Y121.51
; decel to extrusion
M204 S500
G1 X96.994 Y124.404
; end travel
G1 Z0.2
G1 E0 F2100
G1 F1200
G1 X97.211 Y124.335 E0.00987
G1 X97.383 Y124.577 E0.02269
G1 X97.612 Y125.274 E0.05441
G1 X97.993 Y126.014 E0.09042
G1 X99.567 Y128.318 E0.21105
G1 X99.787 Y128.067 E0.22549
G1 X100.794 Y128.587 E0.27445
G1 X101.708 Y128.988 E0.31765
G1 X102.228 Y129.181 E0.34161
G1 X102.665 Y129.303 E0.36123
G1 X101.724 Y130.475 E0.42622
G1 X101.547 Y130.136 E0.44278
G1 X101.106 Y129.638 E0.47153
G1 X100.794 Y129.394 E0.48866
G1 X100.455 Y129.189 E0.5058
G1 X99.835 Y128.953 E0.53448
G1 X99.176 Y128.873 E0.56316
G1 X98.781 Y128.897 E0.5803
G1 X98.391 Y128.969 E0.59743
G1 X97.772 Y129.203 E0.62606
G1 X96.921 Y129.788 E0.67069
G1 X96.921 Y124.427 E0.90249
G1 X96.936 Y124.423 E0.90317
G92 E0
;WIPE_START
G1 F7200
G1 X96.921 Y124.427 E-0.00437
G1 X96.921 Y127.154 E-0.76
;WIPE_END
G1 E-0.8 F2100
G1 Z0.6 F9000
; acceleration to travel
M204 S1500
G1 X104.324 Y132.488
; decel to extrusion
M204 S500
G1 X105.228 Y133.139
; end travel
G1 Z0.2
G1 E0 F2100
G1 F1200
G1 X106.045 Y133.601 E0.04059
G1 X106.365 Y133.755 E0.05592
G1 X106.291 Y134.079 E0.07026
G1 X101.003 Y134.079 E0.29889
G1 X101.546 Y133.466 E0.33431
G1 X101.854 Y132.878 E0.36299
G1 X101.985 Y132.459 E0.38199
G1 X102.061 Y131.833 E0.40923
G1 X102.026 Y131.369 E0.42936
G1 X101.965 Y131.121 E0.44039
G1 X102.223 Y130.961 E0.45353
G1 X103.024 Y131.647 E0.49911
G1 X103.69 Y132.161 E0.53548
G1 X104.846 Y132.923 E0.59536
G1 X105.176 Y133.11 E0.61175
G92 E0
;WIPE_START
G1 F7200
G1 X104.846 Y132.923 E-0.10504
G1 X103.69 Y132.161 E-0.48875
G1 X103.024 Y131.647 E-0.72184
G1 X102.919 Y131.557 E-0.76
;WIPE_END
G1 E-0.8 F2100
G1 Z0.6 F9000
; acceleration to travel
M204 S1500
G1 X97.412 Y123.163
; decel to extrusion
M204 S500
G1 X96.739 Y122.138
; end travel
G1 Z0.2
G1 E0 F2100
G1 F1200
G1 X97.233 Y123.374 E0.05758
G1 X97.439 Y123.758 E0.07644
G1 X97.852 Y124.34 E0.10727
G1 X98.093 Y125.072 E0.1406
G1 X98.441 Y125.747 E0.17344
G1 X99.619 Y127.472 E0.26375
G1 X99.665 Y127.419 E0.26681
G1 X101.018 Y128.117 E0.3326
G1 X101.904 Y128.506 E0.37444
G1 X102.389 Y128.686 E0.3968
G1 X103.139 Y128.895 E0.4305
G1 X103.277 Y129.218 E0.4457
G1 X103.06 Y129.642 E0.46629
G1 X102.417 Y130.443 E0.51071
G1 X103.352 Y131.243 E0.56393
G1 X103.992 Y131.738 E0.5989
G1 X105.117 Y132.479 E0.65717
G1 X106.286 Y133.14 E0.71524
G1 X106.929 Y133.45 E0.74609
G1 X108.314 Y133.949 E0.80973
G1 X108.995 Y134.274 E0.84236
G1 X108.921 Y134.599 E0.85673
G1 X99.297 Y134.599 E1.27288
G1 X99.252 Y134.233 E1.28881
G1 X99.96 Y134.058 E1.32034
G1 X100.275 Y133.917 E1.33526
G1 X100.73 Y133.602 E1.35917
G1 X101.115 Y133.168 E1.38427
G1 X101.372 Y132.678 E1.40818
G1 X101.475 Y132.349 E1.42309
G1 X101.539 Y131.821 E1.44609
G1 X101.511 Y131.452 E1.46209
G1 X101.386 Y130.95 E1.48447
G1 X101.116 Y130.433 E1.50969
G1 X100.748 Y130.018 E1.53364
G1 X100.498 Y129.822 E1.54737
G1 X100.227 Y129.658 E1.5611
G1 X99.709 Y129.462 E1.58502
G1 X99.161 Y129.395 E1.60893
G1 X98.844 Y129.414 E1.62266
G1 X98.531 Y129.472 E1.63639
G1 X98.015 Y129.667 E1.66026
G1 X97.549 Y129.988 E1.6847
G1 X97.2 Y130.373 E1.70719
G1 X96.994 Y130.698 E1.72383
G1 X96.742 Y131.362 E1.75454
G1 X96.401 Y131.3 E1.76953
G1 X96.401 Y122.202 E2.16289
G1 X96.68 Y122.149 E2.17515
G92 E0
;WIPE_START
G1 F7200
G1 X96.401 Y122.202 E-0.07858
G1 X96.401 Y124.662 E-0.76
;WIPE_END
G1 E-0.8 F2100
G1 Z0.6 F9000
; acceleration to travel
M204 S1500
G1 X96.727 Y131.371
; decel to extrusion
M204 S500
G1 X96.767 Y132.19
; end travel
G1 Z0.2
G1 E0 F2100
G1 F1200
G1 X96.875 Y132.627 E0.01946
G1 X97.017 Y132.942 E0.03437
G1 X97.315 Y133.374 E0.05709
G1 X97.559 Y133.618 E0.07201
G1 X97.991 Y133.917 E0.09473
G1 X98.306 Y134.058 E0.10964
G1 X99.014 Y134.233 E0.14117
G1 X98.97 Y134.599 E0.1571
G1 X98.537 Y134.599 E0.1758
G1 X98.155 Y134.567 E0.19238
G1 X97.82 Y134.482 E0.20734
G1 X97.369 Y134.266 E0.22896
G1 X97.081 Y134.042 E0.24474
