; generated by SuperSlicer 2.5.59 on 2023-10-12 at 17:41:38 UTC


;
;

;
;
; 

; external perimeters extrusion width = 0.44mm
; perimeters extrusion width = 0.46mm
; infill extrusion width = 0.44mm
; solid infill extrusion width = 0.46mm
; top infill extrusion width = 0.44mm
; first layer extrusion width = 0.57mm

; object:{"name":"40mm_fan_cover_relef_-embedded_in","id":"40mm_fan_cover_relef_-embedded_in.stl id:0 copy 0","object_center":[115.500000,115.500000,0.000000],"boundingbox_center":[115.500000,115.500000,0.900000],"boundingbox_size":[40.000000,40.000000,1.800000]}
EXCLUDE_OBJECT_DEFINE NAME=40mm_fan_cover_relef__embedded_in_stl_id_0_copy_0 CENTER=115.500000,115.500000 POLYGON=[[95.500000,98.500000],[95.510248,98.252256],[95.540920,98.006216],[95.591800,97.763544],[95.662552,97.525904],[95.752680,97.294912],[95.861584,97.072160],[95.988504,96.859152],[96.132576,96.657368],[96.292832,96.468152],[96.468152,96.292832],[96.657368,96.132576],[96.859152,95.988504],[97.072160,95.861584],[97.294912,95.752680],[97.525904,95.662552],[97.763544,95.591800],[98.006216,95.540920],[98.252256,95.510248],[98.500000,95.500000],[132.500000,95.500000],[132.747744,95.510248],[132.993776,95.540920],[133.236448,95.591800],[133.474088,95.662552],[133.705080,95.752680],[133.927840,95.861584],[134.140840,95.988504],[134.342640,96.132576],[134.531840,96.292832],[134.707168,96.468152],[134.867424,96.657368],[135.011504,96.859152],[135.138432,97.072160],[135.247312,97.294912],[135.337456,97.525904],[135.408208,97.763544],[135.459072,98.006216],[135.489744,98.252256],[135.500000,98.500000],[135.500000,132.500000],[135.489744,132.747744],[135.459072,132.993776],[135.408208,133.236448],[135.337456,133.474088],[135.247312,133.705080],[135.138432,133.927840],[135.011504,134.140840],[134.867424,134.342640],[134.707168,134.531840],[134.531840,134.707168],[134.342640,134.867424],[134.140840,135.011504],[133.927840,135.138432],[133.705080,135.247312],[133.474088,135.337456],[133.236448,135.408208],[132.993776,135.459072],[132.747744,135.489744],[132.500000,135.500000],[98.500000,135.500000],[98.252256,135.489744],[98.006216,135.459072],[97.763544,135.408208],[97.525904,135.337456],[97.294912,135.247312],[97.072160,135.138432],[96.859152,135.011504],[96.657368,134.867424],[96.468152,134.707168],[96.292832,134.531840],[96.132576,134.342640],[95.988504,134.140840],[95.861584,133.927840],[95.752680,133.705080],[95.662552,133.474088],[95.591800,133.236448],[95.540920,132.993776],[95.510248,132.747744],[95.500000,132.500000],[95.500000,98.500000]]
; plater:{"center":[115.500000,115.500000,0.000000],"boundingbox_center":[115.500000,115.500000,0.900000],"boundingbox_size":[40.000000,40.000000,1.800000]}

;TYPE:Custom
SET_PRINT_STATS_INFO TOTAL_LAYER=9

PRINT_START BED=70 EXTRUDER=240 CHAMBER=0 SIZE=91.8605_91.8605_139.14_139.14 MATERIAL=PETG
; Filament gcode
;_TOOLCHANGE 0
M107
;LAYER_CHANGE
;Z:0.24
;HEIGHT:0.24

G1 E-0.8 F2100
G1 Z0.4 F18000
SET_PRINT_STATS_INFO CURRENT_LAYER=1

G92 E0
G1 Z0.64
M204 S1000
G1 X93.841 Y94.391
G1 Z0.24
G1 E0.8 F2100
;TYPE:Skirt
;WIDTH:0.48
G1 F1200
G1 X93.172 Y95.315 E0.84875
G1 X92.72 Y96.235 E0.89259
G1 X92.426 Y97.217 E0.93643
G1 X92.287 Y98.5 E0.99159
G1 X92.287 Y132.5 E2.44527
G1 X92.422 Y133.765 E2.49968
G1 X92.927 Y135.234 E2.56609
G1 X93.518 Y136.21 E2.61484
G1 X94.495 Y137.243 E2.67564
G1 X95.214 Y137.772 E2.71383
G1 X96.235 Y138.28 E2.76259
G1 X97.217 Y138.574 E2.80642
G1 X98.5 Y138.713 E2.86158
G1 X132.5 Y138.713 E4.31527
G1 X133.783 Y138.574 E4.37043
G1 X134.642 Y138.331 E4.40862
G1 X135.234 Y138.073 E4.43623
G1 X136.505 Y137.243 E4.50115
G1 X137.243 Y136.505 E4.54573
G1 X137.837 Y135.67 E4.58957
G1 X138.331 Y134.642 E4.63832
G1 X138.574 Y133.783 E4.67652
G1 X138.713 Y132.499 E4.73172
G1 X138.678 Y97.855 E6.21295
G1 X138.452 Y96.737 E6.2617
G1 X138.081 Y95.781 E6.30554
G1 X137.557 Y94.9 E6.34937
G1 X136.896 Y94.117 E6.39321
G1 X136.114 Y93.453 E6.43705
G1 X135.234 Y92.927 E6.48088
G1 X134.28 Y92.553 E6.52472
G1 X132.749 Y92.297 E6.59109
G1 X98.119 Y92.3 E8.07168
G1 X96.72 Y92.553 E8.13247
G1 X95.661 Y92.975 E8.18122
G1 X94.9 Y93.443 E8.21942
G1 X93.886 Y94.351 E8.27765
M104 S240 ; set temperature
G92 E0
;WIPE_START
G1 F14400
G1 X94.9 Y93.443 E-0.18868
G1 X95.661 Y92.975 E-0.31244
G1 X96.72 Y92.553 E-0.47042
G1 X98.119 Y92.3 E-0.66742
G1 X98.788 Y92.3 E-0.76
;WIPE_END
G1 E-0.8 F2100
G1 Z0.64 F18000
; printing object 40mm_fan_cover_relef_-embedded_in.stl id:0 copy 0
EXCLUDE_OBJECT_START NAME=40mm_fan_cover_relef__embedded_in_stl_id_0_copy_0
; acceleration to travel
M204 S1500
G1 X109.589 Y104.167
; decel to extrusion
M204 S1000
G1 X112.193 Y107.027
; end travel
G1 Z0.24
G1 E0 F2100
;TYPE:Internal perimeter
;WIDTH:0.571504
G1 F1200
G1 X112.965 Y106.768 E0.04222
G1 X114.33 Y106.238 E0.11821
G1 X114.541 Y106.394 E0.13184
G1 X117.18 Y106.415 E0.26877
G1 X118.685 Y106.978 E0.35214
G1 X119.562 Y107.333 E0.40122
G1 X120.328 Y107.579 E0.44298
G1 X120.846 Y108.106 E0.4813
G1 X121.79 Y108.933 E0.54646
G1 X122.333 Y109.503 E0.58731
G1 X122.906 Y110.066 E0.62897
G1 X123.238 Y110.513 E0.65785
G1 X123.547 Y111.055 E0.69026
G1 X123.651 Y111.4 E0.70892
G1 X124.258 Y112.929 E0.79431
G1 X124.635 Y113.652 E0.83659
G1 X124.57 Y113.836 E0.84671
G1 X124.595 Y114.534 E0.88296
G1 X124.751 Y115.414 E0.92932
G1 X124.614 Y116.088 E0.96503
G1 X124.477 Y116.956 E1.01063
G1 X124.308 Y117.758 E1.05316
G1 X123.923 Y119.005 E1.1209
G1 X123.687 Y119.993 E1.17359
G1 X123.565 Y120.042 E1.18042
G1 X123.455 Y120.706 E1.21535
G1 X123.259 Y120.46 E1.23167
G1 X122.418 Y121.454 E1.29924
G1 X121.476 Y122.355 E1.36684
G1 X120.073 Y123.507 E1.46104
G1 X118.124 Y124.207 E1.5685
G1 X117.739 Y124.314 E1.58923
G1 X116.907 Y124.484 E1.6333
G1 X114.9 Y124.723 E1.73818
G1 X113.095 Y124.27 E1.8347
G1 X111.915 Y123.891 E1.89903
G1 X111.176 Y123.715 E1.93843
G1 X110.639 Y123.223 E1.97626
G1 X109.629 Y122.485 E2.04114
G1 X108.708 Y121.96 E2.09612
G1 X108.721 Y121.655 E2.11197
G1 X108.331 Y121.099 E2.1472
G1 X107.851 Y120.49 E2.18744
G1 X107.401 Y120.013 E2.22146
G1 X107.194 Y119.272 E2.26139
G1 X106.754 Y117.989 E2.33172
G1 X106.453 Y116.668 E2.40206
G1 X106.242 Y115.938 E2.44146
G1 X106.383 Y115.198 E2.48056
G1 X106.456 Y113.608 E2.56316
G1 X107.183 Y111.821 E2.66328
G1 X107.347 Y111.47 E2.68335
G1 X107.55 Y111.091 E2.70568
G1 X107.902 Y110.34 E2.7487
G1 X108.254 Y109.813 E2.78157
G1 X108.674 Y109.353 E2.81392
G1 X109.298 Y108.853 E2.85538
G1 X109.602 Y108.578 E2.87668
G1 X110.577 Y107.81 E2.94104
G1 X111.084 Y107.364 E2.97608
G1 X112.136 Y107.046 E3.03314
G92 E0
;WIPE_START
G1 F14400
G1 X111.084 Y107.364 E-0.15235
G1 X110.577 Y107.81 E-0.24593
G1 X109.602 Y108.578 E-0.41778
G1 X109.298 Y108.853 E-0.47463
G1 X108.674 Y109.353 E-0.58536
G1 X108.254 Y109.813 E-0.67173
G1 X107.902 Y110.34 E-0.75948
G1 X107.9 Y110.343 E-0.76
;WIPE_END
G1 E-0.8 F2100
G1 Z0.64 F18000
; acceleration to travel
M204 S1500
G1 X104.871 Y101.588
; decel to extrusion
M204 S1000
G1 X104.141 Y99.477
; end travel
G1 Z0.24
G1 E0 F2100
G1 F1200
G1 X104.267 Y99.551 E0.0076
G1 X103.846 Y99.866 E0.03488
G1 X103.427 Y100.224 E0.06348
G1 X103.034 Y100.604 E0.09182
G1 X102.328 Y101.365 E0.1457
G1 X101.885 Y101.266 E0.16924
G1 X101.306 Y101.596 E0.2038
G1 X100.91 Y101.98 E0.23244
G1 X100.305 Y102.64 E0.2789
G1 X99.871 Y103.171 E0.31449
G1 X99.082 Y104.26 E0.38424
G1 X98.862 Y104.65 E0.4075
G1 X98.605 Y105.265 E0.44206
G1 X98.263 Y105.622 E0.46771
G1 X97.854 Y106.315 E0.50947
G1 X97.447 Y107.113 E0.55594
G1 X97.17 Y107.737 E0.59141
G1 X96.747 Y108.851 E0.6532
G1 X96.406 Y108.788 E0.67118
G1 X96.406 Y99.399 E1.15833
G1 X96.772 Y99.355 E1.17745
G1 X96.938 Y100.029 E1.21347
G1 X97.08 Y100.346 E1.23152
G1 X97.403 Y100.808 E1.26075
G1 X97.811 Y101.17 E1.28908
G1 X98.164 Y101.372 E1.31016
G1 X98.562 Y101.521 E1.33224
G1 X98.929 Y101.595 E1.35164
G1 X99.487 Y101.595 E1.3806
G1 X99.981 Y101.477 E1.40696
G1 X100.366 Y101.308 E1.42877
G1 X100.81 Y100.995 E1.45692
G1 X101.171 Y100.588 E1.48518
G1 X101.374 Y100.233 E1.50638
G1 X101.543 Y99.773 E1.53183
G1 X101.61 Y99.218 E1.56082
G1 X101.578 Y98.827 E1.58115
G1 X101.442 Y98.317 E1.60854
G1 X101.233 Y97.912 E1.63221
G1 X100.992 Y97.588 E1.65318
G1 X100.591 Y97.233 E1.68096
G1 X100.295 Y97.054 E1.69889
G1 X99.777 Y96.858 E1.72763
G1 X99.354 Y96.806 E1.74977
G1 X99.377 Y96.415 E1.77009
G1 X108.783 Y96.416 E2.25813
G1 X108.845 Y96.758 E2.27618
G1 X107.739 Y97.169 E2.33741
G1 X107.113 Y97.447 E2.37292
G1 X105.919 Y98.053 E2.44243
G1 X105.269 Y98.477 E2.48267
G1 X104.186 Y99.437 E2.55778
G92 E0
;WIPE_START
G1 F14400
G1 X105.269 Y98.477 E-0.20057
G1 X105.919 Y98.053 E-0.308
G1 X107.113 Y97.447 E-0.49362
G1 X107.739 Y97.169 E-0.58844
G1 X108.845 Y96.758 E-0.75192
G1 X108.835 Y96.7 E-0.76
;WIPE_END
G1 E-0.8 F2100
G1 Z0.64 F18000
; acceleration to travel
M204 S1500
G1 X99.092 Y117.214
; decel to extrusion
M204 S1000
G1 X96.743 Y122.16
; end travel
G1 Z0.24
G1 E0 F2100
G1 F1200
G1 X97.229 Y123.376 E0.06795
G1 X97.436 Y123.761 E0.09061
G1 X97.848 Y124.342 E0.12759
G1 X98.089 Y125.074 E0.16757
G1 X98.437 Y125.749 E0.20701
G1 X99.618 Y127.479 E0.31568
G1 X99.671 Y127.419 E0.31983
G1 X101.014 Y128.12 E0.39842
G1 X101.902 Y128.51 E0.44873
G1 X102.387 Y128.69 E0.4756
G1 X103.136 Y128.898 E0.51594
G1 X103.273 Y129.218 E0.53396
G1 X103.056 Y129.639 E0.55854
G1 X102.411 Y130.444 E0.61204
G1 X103.35 Y131.246 E0.67613
G1 X103.99 Y131.741 E0.7181
G1 X105.115 Y132.483 E0.78804
G1 X106.285 Y133.144 E0.85775
G1 X106.93 Y133.455 E0.89493
G1 X108.283 Y133.933 E0.96936
G1 X108.983 Y134.271 E1.00969
G1 X108.909 Y134.594 E1.02689
G1 X99.332 Y134.594 E1.52377
G1 X99.288 Y134.228 E1.54289
G1 X99.962 Y134.062 E1.57891
G1 X100.277 Y133.92 E1.59685
G1 X100.733 Y133.606 E1.62559
G1 X101.119 Y133.17 E1.65576
G1 X101.376 Y132.68 E1.6845
G1 X101.479 Y132.35 E1.70244
G1 X101.543 Y131.821 E1.73007
G1 X101.515 Y131.451 E1.74932
G1 X101.39 Y130.948 E1.77623
G1 X101.119 Y130.43 E1.80654
G1 X100.751 Y130.015 E1.83533
G1 X100.501 Y129.819 E1.85184
G1 X100.228 Y129.654 E1.86835
G1 X99.711 Y129.458 E1.89709
G1 X99.161 Y129.391 E1.92583
G1 X98.843 Y129.41 E1.94234
G1 X98.53 Y129.468 E1.95885
G1 X98.013 Y129.664 E1.98755
G1 X97.546 Y129.984 E2.01693
G1 X97.196 Y130.37 E2.04396
G1 X96.99 Y130.696 E2.06397
G1 X96.747 Y131.339 E2.09962
G1 X96.406 Y131.277 E2.11761
G1 X96.406 Y122.225 E2.58727
G1 X96.684 Y122.171 E2.60198
G92 E0
;WIPE_START
G1 F14400
G1 X96.406 Y122.225 E-0.03929
G1 X96.406 Y127.427 E-0.76
;WIPE_END
G1 E-0.8 F2100
G1 Z0.64 F18000
; acceleration to travel
M204 S1500
G1 X96.701 Y131.294
; decel to extrusion
M204 S1000
G1 X96.772 Y132.226
; end travel
G1 Z0.24
G1 E0 F2100
G1 F1200
G1 X96.871 Y132.629 E0.02153
G1 X97.013 Y132.944 E0.03947
G1 X97.312 Y133.377 E0.06678
G1 X97.556 Y133.621 E0.08472
G1 X97.989 Y133.92 E0.11202
G1 X98.305 Y134.062 E0.12996
G1 X98.979 Y134.228 E0.16598
G1 X98.934 Y134.594 E0.1851
G1 X98.537 Y134.594 E0.20569
G1 X98.156 Y134.563 E0.22556
G1 X97.821 Y134.478 E0.24348
G1 X97.371 Y134.262 E0.26936
G1 X97.084 Y134.038 E0.28826
G1 X96.758 Y133.66 E0.31415
G1 X96.585 Y133.34 E0.33304
G1 X96.473 Y133.013 E0.35096
G1 X96.413 Y132.654 E0.36986
G1 X96.406 Y132.27 E0.38979
G1 X96.712 Y132.233 E0.4058
G92 E0
;WIPE_START
G1 F14400
G1 X96.406 Y132.27 E-0.04275
G1 X96.413 Y132.654 E-0.09596
G1 X96.473 Y133.013 E-0.14642
G1 X96.585 Y133.34 E-0.19427
G1 X96.758 Y133.66 E-0.24472
G1 X97.084 Y134.038 E-0.31384
G1 X97.371 Y134.262 E-0.3643
G1 X97.821 Y134.478 E-0.43342
G1 X98.156 Y134.563 E-0.48127
G1 X98.537 Y134.594 E-0.53432
G1 X98.934 Y134.594 E-0.58929
G1 X98.979 Y134.228 E-0.64035
G1 X98.305 Y134.062 E-0.73653
G1 X98.15 Y133.993 E-0.76
;WIPE_END
G1 E-0.8 F2100
G1 Z0.64 F18000
; acceleration to travel
M204 S1500
G1 X125.388 Y134.183
; decel to extrusion
M204 S1000
G1 X131.955 Y134.228
; end travel
G1 Z0.24
G1 E0 F2100
G1 F1200
G1 X132.629 Y134.062 E0.03602
G1 X132.944 Y133.92 E0.05396
G1 X133.377 Y133.621 E0.08126
G1 X133.621 Y133.377 E0.0992
G1 X133.92 Y132.944 E0.12651
G1 X134.062 Y132.629 E0.14442
G1 X134.229 Y131.956 E0.18041
G1 X134.595 Y132 E0.19953
G1 X134.594 Y132.462 E0.22349
G1 X134.563 Y132.844 E0.24337
G1 X134.473 Y133.197 E0.26227
G1 X134.251 Y133.644 E0.28816
G1 X133.931 Y134.027 E0.31404
G1 X133.644 Y134.251 E0.33294
G1 X133.197 Y134.473 E0.35883
G1 X132.844 Y134.563 E0.37772
G1 X132.463 Y134.594 E0.39759
G1 X131.999 Y134.594 E0.42165
G1 X131.962 Y134.288 E0.43766
G92 E0
;WIPE_START
G1 F14400
G1 X131.999 Y134.594 E-0.04275
G1 X132.463 Y134.594 E-0.10697
G1 X132.844 Y134.563 E-0.16003
G1 X133.197 Y134.473 E-0.21048
G1 X133.644 Y134.251 E-0.2796
G1 X133.931 Y134.027 E-0.33006
G1 X134.251 Y133.644 E-0.39918
G1 X134.473 Y133.197 E-0.4683
G1 X134.563 Y132.844 E-0.51875
G1 X134.594 Y132.462 E-0.57184
G1 X134.595 Y132 E-0.63583
G1 X134.229 Y131.956 E-0.68688
G1 X134.102 Y132.468 E-0.76
;WIPE_END
G1 E-0.8 F2100
G1 Z0.64 F18000
G1 X133.917 Y130.657
G1 Z0.24
G1 E0 F2100
G1 F1200
G1 X133.767 Y130.409 E0.01502
G1 X133.4 Y129.994 E0.04376
G1 X132.921 Y129.664 E0.07394
G1 X132.377 Y129.458 E0.10411
G1 X131.827 Y129.391 E0.13285
G1 X131.482 Y129.412 E0.15079
G1 X130.946 Y129.544 E0.17947
G1 X130.464 Y129.795 E0.20767
G1 X130.159 Y130.038 E0.22788
G1 X129.832 Y130.411 E0.25362
G1 X129.654 Y130.705 E0.27144
G1 X129.458 Y131.223 E0.30018
G1 X129.391 Y131.773 E0.32892
G1 X129.41 Y132.09 E0.34543
G1 X129.468 Y132.403 E0.36194
G1 X129.664 Y132.921 E0.39068
G1 X129.994 Y133.4 E0.42085
G1 X130.43 Y133.785 E0.45103
G1 X130.92 Y134.043 E0.47977
G1 X131.25 Y134.146 E0.49771
G1 X131.726 Y134.203 E0.52256
G1 X131.702 Y134.594 E0.54288
G1 X121.876 Y134.594 E1.05271
G1 X121.804 Y134.267 E1.07008
G1 X122.143 Y134.111 E1.08943
G1 X122.972 Y133.902 E1.1338
G1 X123.865 Y133.563 E1.18335
G1 X125.067 Y132.957 E1.25318
G1 X126.206 Y132.282 E1.32188
G1 X126.786 Y131.895 E1.35806
G1 X127.395 Y131.405 E1.3986
G1 X127.837 Y130.93 E1.43228
G1 X128.598 Y130.43 E1.47956
G1 X129.329 Y129.819 E1.52897
G1 X130.273 Y128.835 E1.59974
G1 X130.806 Y128.141 E1.64515
G1 X130.892 Y127.795 E1.66362
G1 X131.616 Y127.112 E1.71526
G1 X131.889 Y126.779 E1.73761
G1 X132.622 Y125.654 E1.80728
G1 X132.966 Y125.049 E1.84338
G1 X133.356 Y124.197 E1.89202
G1 X133.65 Y123.281 E1.94194
G1 X133.676 Y123.267 E1.94348
G1 X133.998 Y122.712 E1.97674
G1 X134.165 Y122.272 E2.00115
G1 X134.225 Y121.973 E2.01699
G1 X134.6 Y122.011 E2.03652
G1 X134.595 Y131.604 E2.53424
G1 X134.229 Y131.648 E2.55336
G1 X134.062 Y130.971 E2.5895
G1 X133.944 Y130.71 E2.60439
G92 E0
;WIPE_START
G1 F14400
G1 X134.062 Y130.971 E-0.03975
G1 X134.229 Y131.648 E-0.13627
G1 X134.595 Y131.604 E-0.18732
G1 X134.597 Y127.47 E-0.76
;WIPE_END
G1 E-0.8 F2100
G1 Z0.64 F18000
; acceleration to travel
M204 S1500
G1 X130.735 Y103.609
; decel to extrusion
M204 S1000
G1 X129.804 Y97.857
; end travel
G1 Z0.24
G1 E0 F2100
G1 F1200
G1 X129.654 Y98.105 E0.01502
G1 X129.458 Y98.623 E0.04376
G1 X129.391 Y99.173 E0.0725
G1 X129.41 Y99.49 E0.08901
G1 X129.468 Y99.803 E0.10552
G1 X129.664 Y100.321 E0.13426
G1 X129.994 Y100.8 E0.16444
G1 X130.43 Y101.185 E0.19461
G1 X130.92 Y101.443 E0.22335
G1 X131.224 Y101.537 E0.23986
G1 X131.537 Y101.595 E0.25637
G1 X132.091 Y101.595 E0.28511
G1 X132.629 Y101.462 E0.31385
G1 X132.944 Y101.32 E0.33179
G1 X133.4 Y101.006 E0.36053
G1 X133.785 Y100.57 E0.39071
G1 X134.043 Y100.08 E0.41945
G1 X134.146 Y99.75 E0.43739
G1 X134.194 Y99.348 E0.45838
G1 X134.585 Y99.372 E0.47869
G1 X134.595 Y108.784 E0.96705
G1 X134.247 Y108.842 E0.98535
G1 X134.081 Y108.359 E1.01183
G1 X133.548 Y107.114 E1.0821
G1 X133.29 Y106.667 E1.10885
G1 X132.835 Y106.022 E1.14984
G1 X132.533 Y105.283 E1.19126
G1 X132.294 Y104.822 E1.21818
G1 X131.534 Y103.703 E1.2884
G1 X130.698 Y102.644 E1.35836
G1 X130.037 Y101.967 E1.40748
G1 X128.497 Y100.72 E1.51029
G1 X128.27 Y100.471 E1.52774
G1 X126.995 Y99.303 E1.61749
G1 X126.23 Y98.733 E1.66697
G1 X125.072 Y98.046 E1.73684
G1 X123.89 Y97.449 E1.80556
G1 X123.253 Y97.167 E1.84173
G1 X122.453 Y96.895 E1.88555
G1 X121.926 Y96.791 E1.91343
G1 X121.963 Y96.416 E1.93301
G1 X131.56 Y96.416 E2.43096
G1 X131.604 Y96.782 E2.45008
