; generated by SuperSlicer 2.5.59 on 2023-10-12 at 22:21:54 UTC


;
;

;
;
; 

; external perimeters extrusion width = 0.44mm
; perimeters extrusion width = 0.46mm
; infill extrusion width = 0.44mm
; solid infill extrusion width = 0.46mm
; top infill extrusion width = 0.44mm
; support material extrusion width = 0.38mm
; first layer extrusion width = 0.57mm

; object:{"name":"40mm Fan Cover","id":"40mm Fan Cover.stl id:0 copy 0","object_center":[115.500000,115.500000,0.000000],"boundingbox_center":[115.500000,115.500000,2.500000],"boundingbox_size":[40.000000,40.000000,5.000000]}
EXCLUDE_OBJECT_DEFINE NAME=40mm_Fan_Cover_stl_id_0_copy_0 CENTER=115.500000,115.500000 POLYGON=[[95.500000,99.500000],[95.511184,99.201080],[95.544680,98.903832],[95.600296,98.609920],[95.677712,98.320984],[95.776504,98.038632],[95.896128,97.764464],[96.035904,97.500000],[96.195048,97.246720],[96.372680,97.006040],[96.567792,96.779312],[96.779312,96.567792],[97.006040,96.372672],[97.246720,96.195048],[97.500000,96.035904],[97.764464,95.896128],[98.038632,95.776504],[98.320984,95.677704],[98.609920,95.600288],[98.903832,95.544680],[99.201080,95.511184],[99.500000,95.500000],[131.500000,95.500000],[131.798920,95.511184],[132.096160,95.544680],[132.390080,95.600288],[132.679016,95.677704],[132.961368,95.776504],[133.235536,95.896128],[133.500000,96.035904],[133.753280,96.195048],[133.993960,96.372672],[134.220688,96.567792],[134.432208,96.779312],[134.627312,97.006040],[134.804944,97.246720],[134.964096,97.500000],[135.103888,97.764464],[135.223488,98.038632],[135.322304,98.320984],[135.399712,98.609920],[135.455328,98.903832],[135.488816,99.201080],[135.500000,99.500000],[135.500000,131.500000],[135.488816,131.798920],[135.455328,132.096160],[135.399712,132.390080],[135.322304,132.679016],[135.223488,132.961368],[135.103888,133.235536],[134.964096,133.500000],[134.804944,133.753280],[134.627312,133.993960],[134.432208,134.220688],[134.220688,134.432208],[133.993960,134.627312],[133.753280,134.804960],[133.500000,134.964096],[133.235536,135.103888],[132.961368,135.223488],[132.679016,135.322304],[132.390080,135.399712],[132.096160,135.455328],[131.798920,135.488816],[131.500000,135.500000],[99.500000,135.500000],[99.201080,135.488816],[98.903832,135.455328],[98.609920,135.399712],[98.320984,135.322304],[98.038632,135.223488],[97.764464,135.103888],[97.500000,134.964096],[97.246720,134.804960],[97.006040,134.627312],[96.779312,134.432208],[96.567792,134.220688],[96.372680,133.993960],[96.195048,133.753280],[96.035904,133.500000],[95.896128,133.235536],[95.776504,132.961368],[95.677712,132.679016],[95.600296,132.390080],[95.544680,132.096160],[95.511184,131.798920],[95.500000,131.500000],[95.500000,99.500000]]
; plater:{"center":[115.500000,115.500000,0.000000],"boundingbox_center":[115.500000,115.500000,2.500000],"boundingbox_size":[40.000000,40.000000,5.000000]}

;TYPE:Custom
SET_PRINT_STATS_INFO TOTAL_LAYER=33

PRINT_START BED=70 EXTRUDER=240 CHAMBER=0 SIZE=91.8605_91.8605_139.14_139.14 MATERIAL=PETG
; Filament gcode
;_TOOLCHANGE 0
M107
;LAYER_CHANGE
;Z:0.24
;HEIGHT:0.24

G1 E-0.8 F2100
G1 Z0.4 F18000
SET_PRINT_STATS_INFO CURRENT_LAYER=1

G92 E0
G1 Z0.64
M204 S1000
G1 X93.937 Y94.91
G1 Z0.24
G1 E0.8 F2100
;TYPE:Skirt
;WIDTH:0.48
G1 F1200
G1 X93.141 Y96.106 E0.86142
G1 X92.706 Y97.092 E0.90748
G1 X92.388 Y98.306 E0.96118
G1 X92.296 Y99.26 E1.00214
G1 X92.287 Y131.5 E2.38058
G1 X92.443 Y132.987 E2.44453
G1 X92.882 Y134.355 E2.50595
G1 X93.315 Y135.21 E2.5469
G1 X93.787 Y135.902 E2.58273
G1 X94.91 Y137.063 E2.65178
G1 X96.106 Y137.859 E2.7132
G1 X97.092 Y138.294 E2.75927
G1 X98.306 Y138.612 E2.81297
G1 X99.26 Y138.704 E2.85392
G1 X131.5 Y138.713 E4.23236
G1 X132.987 Y138.557 E4.29631
G1 X134.355 Y138.118 E4.35773
G1 X135.21 Y137.685 E4.39868
G1 X135.902 Y137.213 E4.43451
G1 X137.063 Y136.09 E4.50356
G1 X137.859 Y134.894 E4.56498
G1 X138.294 Y133.908 E4.61105
G1 X138.557 Y132.987 E4.652
G1 X138.704 Y131.74 E4.7057
G1 X138.666 Y98.722 E6.1174
G1 X138.47 Y97.663 E6.16346
G1 X137.945 Y96.263 E6.22738
G1 X137.282 Y95.196 E6.28109
G1 X136.317 Y94.132 E6.34251
G1 X135.31 Y93.381 E6.39621
G1 X134.356 Y92.882 E6.44227
G1 X133.337 Y92.53 E6.48833
G1 X131.8 Y92.298 E6.5548
G1 X99.081 Y92.3 E7.95372
G1 X97.663 Y92.53 E8.01514
G1 X96.106 Y93.141 E8.08665
G1 X95.098 Y93.787 E8.13784
G1 X93.98 Y94.868 E8.20433
G92 E0
;WIPE_START
G1 F14400
G1 X95.098 Y93.787 E-0.21543
G1 X96.106 Y93.141 E-0.38131
G1 X97.663 Y92.53 E-0.61303
G1 X98.71 Y92.36 E-0.76
;WIPE_END
G1 E-0.8 F2100
G1 Z0.64 F18000
; printing object 40mm Fan Cover.stl id:0 copy 0
EXCLUDE_OBJECT_START NAME=40mm_Fan_Cover_stl_id_0_copy_0
; acceleration to travel
M204 S1500
G1 X101.874 Y101.117
; decel to extrusion
M204 S1000
G1 X102.637 Y103.228
; end travel
G1 Z0.24
G1 E0 F2100
;TYPE:Support material
;WIDTH:0.571504
G1 F1200
G1 X103.148 Y102.7 E0.03812
G1 X103.593 Y102.285 E0.06969
G1 X104.549 Y101.483 E0.13444
G1 X105.558 Y100.749 E0.19918
G1 X106.068 Y100.418 E0.23075
G1 X107.154 Y99.791 E0.29582
G1 X107.697 Y99.515 E0.32739
G1 X108.842 Y99.005 E0.39245
G1 X109.416 Y98.784 E0.42435
G1 X109.997 Y98.584 E0.45624
G1 X111.197 Y98.24 E0.52098
G1 X112.417 Y97.981 E0.58573
G1 X113.024 Y97.885 E0.61762
G1 X113.634 Y97.81 E0.64951
G1 X114.879 Y97.723 E0.71426
G1 X116.127 Y97.723 E0.779
G1 X116.431 Y97.739 E0.79479
G1 X117.353 Y97.809 E0.84278
G1 X118.589 Y97.982 E0.90752
G1 X119.803 Y98.24 E0.97195
G1 X121.003 Y98.584 E1.03669
G1 X121.584 Y98.784 E1.06858
G1 X122.158 Y99.005 E1.10048
G1 X123.303 Y99.515 E1.16554
G1 X123.846 Y99.791 E1.19711
G1 X124.932 Y100.418 E1.26218
G1 X125.442 Y100.749 E1.29375
G1 X126.456 Y101.486 E1.35882
G1 X126.929 Y101.869 E1.39039
G1 X127.857 Y102.704 E1.45513
G1 X128.723 Y103.602 E1.51987
G1 X129.514 Y104.544 E1.58365
G1 X130.247 Y105.553 E1.64839
G1 X130.908 Y106.611 E1.71314
G1 X131.203 Y107.143 E1.74471
G1 X131.75 Y108.265 E1.80945
G1 X132.218 Y109.422 E1.8742
G1 X132.416 Y109.997 E1.90577
G1 X132.761 Y111.203 E1.97083
G1 X132.898 Y111.796 E2.0024
G1 X133.115 Y113.024 E2.06715
G1 X133.245 Y114.265 E2.13189
G1 X133.277 Y114.873 E2.16346
G1 X133.277 Y116.127 E2.22853
G1 X133.245 Y116.735 E2.2601
G1 X133.115 Y117.976 E2.32484
G1 X132.898 Y119.204 E2.38959
G1 X132.761 Y119.797 E2.42116
G1 X132.416 Y121.003 E2.48622
G1 X132.216 Y121.584 E2.51811
G1 X131.995 Y122.158 E2.55001
G1 X131.488 Y123.298 E2.61475
G1 X130.905 Y124.394 E2.67917
G1 X130.244 Y125.452 E2.74392
G1 X129.895 Y125.951 E2.77549
G1 X129.123 Y126.939 E2.84055
G1 X128.723 Y127.398 E2.87213
G1 X127.857 Y128.296 E2.93687
G1 X126.929 Y129.131 E3.00161
G1 X126.456 Y129.514 E3.03318
G1 X125.442 Y130.251 E3.09825
G1 X124.932 Y130.582 E3.12982
G1 X123.846 Y131.209 E3.19489
G1 X123.298 Y131.488 E3.22678
G1 X122.741 Y131.748 E3.25867
G1 X121.578 Y132.218 E3.32374
G1 X121.003 Y132.416 E3.35531
G1 X119.797 Y132.761 E3.42038
G1 X119.204 Y132.898 E3.45195
G1 X117.976 Y133.115 E3.51669
G1 X116.735 Y133.245 E3.58143
G1 X116.127 Y133.277 E3.61301
G1 X114.873 Y133.277 E3.67807
G1 X114.265 Y133.245 E3.70964
G1 X113.024 Y133.115 E3.77439
G1 X111.796 Y132.898 E3.83913
G1 X111.203 Y132.761 E3.8707
G1 X109.997 Y132.416 E3.93577
G1 X109.422 Y132.218 E3.96734
G1 X108.259 Y131.748 E4.0324
G1 X107.154 Y131.209 E4.09618
G1 X106.068 Y130.582 E4.16125
G1 X105.558 Y130.251 E4.19282
G1 X104.549 Y129.517 E4.25756
G1 X103.597 Y128.719 E4.32198
G1 X102.704 Y127.857 E4.3864
G1 X101.869 Y126.929 E4.45115
G1 X101.486 Y126.456 E4.48272
G1 X100.749 Y125.442 E4.54778
G1 X100.418 Y124.932 E4.57935
G1 X99.791 Y123.846 E4.64442
G1 X99.512 Y123.298 E4.67631
G1 X99.252 Y122.741 E4.70821
G1 X98.782 Y121.578 E4.77327
G1 X98.584 Y121.003 E4.80484
G1 X98.239 Y119.797 E4.86991
G1 X98.102 Y119.204 E4.90148
G1 X97.885 Y117.976 E4.96622
G1 X97.755 Y116.735 E5.03097
G1 X97.723 Y116.127 E5.06254
G1 X97.723 Y114.873 E5.12761
G1 X97.755 Y114.265 E5.15918
G1 X97.885 Y113.024 E5.22392
G1 X98.102 Y111.796 E5.28866
G1 X98.239 Y111.203 E5.32023
G1 X98.584 Y109.997 E5.3853
G1 X98.782 Y109.422 E5.41687
G1 X99.252 Y108.259 E5.48194
G1 X99.512 Y107.702 E5.51383
G1 X99.791 Y107.154 E5.54573
G1 X100.415 Y106.074 E5.61047
G1 X101.109 Y105.044 E5.67489
G1 X101.877 Y104.061 E5.73963
G1 X102.277 Y103.602 E5.7712
G1 X102.596 Y103.272 E5.79503
; acceleration to travel
M204 S1500
G1 X120.738 Y112.603 F18000
; decel to extrusion
M204 S1000
G1 X132.833 Y118.824
; end travel
G1 F1200
G1 X132.833 Y113.728 E6.05948
G1 X132.765 Y113.074 E6.0936
G1 X132.552 Y111.866 E6.15722
G1 X132.419 Y111.291 E6.18783
G1 X132.256 Y110.721 E6.21859
G1 X132.256 Y120.279 E6.71448
G1 X132.078 Y120.896 E6.74782
G1 X131.678 Y121.998 E6.80867
G1 X131.678 Y109.03 E7.48157
G1 X131.427 Y108.409 E7.5163
G1 X131.1 Y107.738 E7.55501
G1 X131.1 Y123.274 E8.36108
G1 X130.522 Y124.339 E8.42396
G1 X130.522 Y106.661 E9.34122
G1 X129.944 Y105.738 E9.3977
G1 X129.944 Y125.263 E10.41077
G1 X129.367 Y126.052 E10.46151
G1 X129.367 Y104.943 E11.55678
G1 X128.789 Y104.216 E11.60495
G1 X128.789 Y126.784 E12.77589
G1 X128.211 Y127.42 E12.82047
G1 X128.211 Y103.58 E14.05738
G1 X127.633 Y102.982 E14.10054
G1 X127.633 Y128.018 E15.39954
G1 X127.056 Y128.541 E15.43998
G1 X127.056 Y102.459 E16.79328
G1 X126.478 Y101.959 E16.83293
G1 X126.478 Y129.041 E18.23813
G1 X125.9 Y129.481 E18.2758
G1 X125.9 Y101.519 E19.7266
G1 X125.322 Y101.099 E19.76366
G1 X125.322 Y129.901 E21.25803
G1 X124.744 Y130.282 E21.29394
G1 X124.744 Y100.718 E22.82787
G1 X124.167 Y100.385 E22.86249
G1 X124.167 Y130.615 E24.43104
G1 X123.589 Y130.943 E24.4655
G1 X123.589 Y100.057 E26.06804
G1 X123.011 Y99.772 E26.10148
G1 X123.011 Y131.232 E27.73381
G1 X122.433 Y131.491 E27.76666
G1 X122.433 Y99.514 E29.42578
G1 X121.856 Y99.267 E29.45839
G1 X121.856 Y131.724 E31.14243
G1 X121.278 Y131.947 E31.17456
G1 X121.278 Y99.053 E32.88131
G1 X120.7 Y98.865 E32.91282
G1 X120.7 Y132.135 E34.63904
G1 X120.122 Y132.3 E34.67022
G1 X120.122 Y98.7 E36.41363
G1 X119.544 Y98.547 E36.44464
G1 X119.544 Y132.457 E38.20409
G1 X118.967 Y132.581 E38.23475
G1 X118.967 Y98.424 E40.00702
G1 X118.527 Y98.331 E40.03032
G1 X118.389 Y98.311 E40.03758
G1 X118.389 Y132.683 E41.821
G1 X117.811 Y132.777 E41.85136
G1 X117.811 Y98.23 E43.64385
G1 X117.233 Y98.153 E43.67409
G1 X117.233 Y132.837 E45.47372
G1 X116.656 Y132.895 E45.50385
G1 X116.656 Y98.105 E47.30901
G1 X116.078 Y98.076 E47.33902
G1 X116.078 Y132.924 E49.1471
G1 X115.5 Y132.924 E49.17708
G1 X115.5 Y98.076 E50.98516
G1 X114.922 Y98.076 E51.01513
G1 X114.922 Y132.924 E52.82321
G1 X114.344 Y132.895 E52.85323
G1 X114.344 Y98.115 E54.65786
G1 X113.767 Y98.155 E54.68791
G1 X113.767 Y132.837 E56.48743
G1 X113.189 Y132.777 E56.51757
G1 X113.189 Y98.221 E58.31054
G1 X112.611 Y98.308 E58.34086
G1 X112.611 Y132.683 E60.12442
G1 X112.033 Y132.581 E60.15486
G1 X112.033 Y98.424 E61.92714
G1 X111.456 Y98.547 E61.95778
G1 X111.456 Y132.457 E63.71724
G1 X110.878 Y132.3 E63.74829
G1 X110.878 Y98.7 E65.4917
G1 X110.3 Y98.865 E65.52288
G1 X110.3 Y132.135 E67.2491
G1 X109.722 Y131.947 E67.28062
G1 X109.722 Y99.053 E68.98736
G1 X109.144 Y99.267 E69.01933
G1 X109.144 Y131.724 E70.70338
G1 X108.567 Y131.491 E70.73571
G1 X108.567 Y99.514 E72.39483
G1 X107.989 Y99.772 E72.42765
G1 X107.989 Y131.232 E74.05998
G1 X107.411 Y130.943 E74.09349
G1 X107.411 Y100.057 E75.69603
G1 X106.833 Y100.385 E75.7305
G1 X106.833 Y130.615 E77.29904
G1 X106.256 Y130.282 E77.33366
G1 X106.256 Y100.718 E78.86759
G1 X105.678 Y101.099 E78.90351
G1 X105.678 Y129.901 E80.39787
G1 X105.1 Y129.481 E80.43493
G1 X105.1 Y101.519 E81.88574
G1 X104.766 Y101.762 E81.90713
G1 X104.522 Y101.967 E81.92367
G1 X104.522 Y129.033 E83.32806
G1 X103.944 Y128.549 E83.3672
G1 X103.944 Y102.451 E84.72128
G1 X103.367 Y102.982 E84.76199
G1 X103.367 Y128.005 E86.0603
G1 X102.789 Y127.422 E86.10288
G1 X102.789 Y103.58 E87.33992
G1 X102.211 Y104.216 E87.38449
G1 X102.211 Y126.78 E88.55526
G1 X101.633 Y126.057 E88.60329
G1 X101.633 Y104.948 E89.69856
G1 X101.395 Y105.252 E89.71861
G1 X101.056 Y105.756 E89.75015
G1 X101.056 Y125.262 E90.76221
G1 X100.72 Y124.747 E90.79411
G1 X100.478 Y124.328 E90.8192
G1 X100.478 Y106.672 E91.7353
G1 X100.102 Y107.323 E91.77432
G1 X99.9 Y107.719 E91.79738
G1 X99.9 Y123.281 E92.60481
G1 X99.577 Y122.6 E92.64392
G1 X99.322 Y121.97 E92.67914
G1 X99.322 Y109.03 E93.35059
G1 X99.114 Y109.546 E93.37948
G1 X98.922 Y110.104 E93.41009
G1 X98.744 Y110.721 E93.44343
G1 X98.744 Y120.279 E93.93932
G1 X98.581 Y119.709 E93.97008
G1 X98.448 Y119.134 E94.00069
G1 X98.235 Y117.926 E94.06432
G1 X98.167 Y117.272 E94.09843
G1 X98.167 Y112.176 E94.36288
G92 E0
;WIPE_START
G1 F14400
G1 X98.167 Y117.272 E-0.7061
G1 X98.207 Y117.659 E-0.76
;WIPE_END
G1 E-0.8 F2100
G1 Z0.64 F18000
; acceleration to travel
M204 S1500
G1 X101.727 Y103.711
; decel to extrusion
M204 S1000
G1 X102.575 Y100.349
; end travel
G1 Z0.24
G1 E0 F2100
;TYPE:Internal perimeter
G1 F1200
G1 X102.627 Y99.45 E0.04671
G1 X102.552 Y98.795 E0.08093
G1 X102.327 Y98.159 E0.11588
G1 X102.103 Y97.763 E0.13951
G1 X101.423 Y96.936 E0.19505
G1 X107.423 Y96.937 E0.50635
G1 X107.493 Y97.266 E0.52383
G1 X106.776 Y97.585 E0.56452
G1 X106.134 Y97.912 E0.6019
G1 X104.951 Y98.595 E0.67277
G1 X104.347 Y98.987 E0.71015
G1 X103.232 Y99.798 E0.78167
G1 X102.621 Y100.31 E0.82303
G92 E0
;WIPE_START
G1 F14400
G1 X103.232 Y99.798 E-0.11044
G1 X104.347 Y98.987 E-0.3014
G1 X104.951 Y98.595 E-0.40121
G1 X106.134 Y97.912 E-0.59045
G1 X106.776 Y97.585 E-0.69025
G1 X107.236 Y97.38 E-0.76
;WIPE_END
G1 E-0.8 F2100
G1 Z0.64 F18000
; acceleration to travel
M204 S1500
G1 X102.797 Y100.17
; decel to extrusion
M204 S1000
G1 X101.727 Y100.843
; end travel
G1 Z0.24
G1 E0 F2100
G1 F1200
G1 X101.958 Y100.367 E0.02747
G1 X102.084 Y99.825 E0.05632
G1 X102.105 Y99.465 E0.07507
G1 X102.042 Y98.912 E0.10392
G1 X101.852 Y98.375 E0.13346
G1 X101.673 Y98.058 E0.15236
G1 X101.31 Y97.617 E0.18198
G1 X100.839 Y97.256 E0.21279
G1 X100.333 Y97.025 E0.24165
G1 X99.982 Y96.933 E0.26047
G1 X99.415 Y96.886 E0.29001
G1 X98.84 Y96.969 E0.32014
G1 X98.286 Y97.183 E0.35095
G1 X97.813 Y97.503 E0.38057
G1 X97.553 Y97.756 E0.39939
G1 X97.226 Y98.206 E0.42825
G1 X96.993 Y98.752 E0.45906
G1 X96.894 Y99.314 E0.48868
G1 X96.894 Y99.679 E0.50758
G1 X96.993 Y100.239 E0.53712
G1 X97.209 Y100.752 E0.56597
G1 X97.405 Y101.055 E0.58472
G1 X97.781 Y101.465 E0.61358
G1 X98.25 Y101.788 E0.64311
G1 X98.581 Y101.939 E0.66202
G1 X99.132 Y102.082 E0.69156
G1 X99.688 Y102.098 E0.72041
G1 X100.047 Y102.047 E0.73924
G1 X100.59 Y101.868 E0.76886
G1 X101.097 Y101.56 E0.79966
G1 X101.496 Y101.172 E0.82852
G1 X101.697 Y100.895 E0.8463
G1 X101.262 Y100.61 F18000
;TYPE:External perimeter
G1 F1200
G1 X101.465 Y100.192 E0.87043
G1 X101.568 Y99.751 E0.89391
G1 X101.583 Y99.48 E0.90803
G1 X101.532 Y99.03 E0.93151
G1 X101.377 Y98.591 E0.95564
G1 X101.243 Y98.353 E0.96982
G1 X100.947 Y97.994 E0.99398
G1 X100.569 Y97.705 E1.01864
G1 X100.157 Y97.517 E1.04213
G1 X99.894 Y97.448 E1.05628
G1 X99.43 Y97.41 E1.0804
G1 X98.972 Y97.475 E1.10443
G1 X98.528 Y97.646 E1.1291
G1 X98.143 Y97.908 E1.15325
G1 X97.948 Y98.098 E1.1674
G1 X97.682 Y98.464 E1.19089
G1 X97.495 Y98.901 E1.21555
G1 X97.414 Y99.36 E1.23971
G1 X97.414 Y99.633 E1.25389
G1 X97.495 Y100.091 E1.27801
G1 X97.671 Y100.508 E1.3015
G1 X97.818 Y100.737 E1.31561
G1 X98.124 Y101.07 E1.3391
G1 X98.507 Y101.334 E1.36323
G1 X98.756 Y101.448 E1.37741
G1 X99.206 Y101.564 E1.40153
G1 X99.658 Y101.577 E1.42502
G1 X99.928 Y101.538 E1.43916
G1 X100.37 Y101.393 E1.46332
G1 X100.777 Y101.146 E1.48799
G1 X101.101 Y100.831 E1.51147
G1 X101.226 Y100.659 E1.52251
;WIPE_START
G1 X101.662 Y100.605 F18000
;WIPE_END
G92 E0
;WIPE_START
G1 F14400
G1 X101.655 Y100.259 E-0.04793
G1 X101.767 Y99.78 E-0.11615
G1 X101.784 Y99.474 E-0.15859
G1 X101.728 Y98.985 E-0.22682
G1 X101.56 Y98.508 E-0.29679
G1 X101.408 Y98.24 E-0.33951
G1 X101.086 Y97.849 E-0.40962
G1 X100.673 Y97.533 E-0.48179
G1 X100.225 Y97.328 E-0.55002
G1 X99.928 Y97.25 E-0.5926
G1 X99.424 Y97.208 E-0.66257
G1 X98.921 Y97.281 E-0.733
G1 X98.739 Y97.351 E-0.76
;WIPE_END
G1 E-0.8 F2100
G1 Z0.64 F18000
; acceleration to travel
M204 S1500
