; generated by SuperSlicer 2.5.59 on 2023-10-12 at 04:21:14 UTC


;
;

;
;
; 

; external perimeters extrusion width = 0.44mm
; perimeters extrusion width = 0.46mm
; infill extrusion width = 0.44mm
; solid infill extrusion width = 0.46mm
; top infill extrusion width = 0.44mm
; support material extrusion width = 0.38mm
; first layer extrusion width = 0.57mm

; object:{"name":"5015_Lightweight_Duct_Standard_Right","id":"5015_Lightweight_Duct_Standard_Right.stl id:0 copy 0","object_center":[115.500000,115.499977,0.000000],"boundingbox_center":[115.500000,115.499977,13.350002],"boundingbox_size":[72.309998,31.660000,26.700005]}
EXCLUDE_OBJECT_DEFINE NAME=5015_Lightweight_Duct_Standard_Right_stl_id_0_copy_0 CENTER=115.500000,115.499977 POLYGON=[[79.345000,111.734976],[79.405800,110.784280],[79.586200,109.862376],[79.880896,108.997472],[80.280800,108.215672],[80.773896,107.540880],[81.345000,106.993480],[81.976896,106.590176],[82.650400,106.343176],[113.940000,99.669976],[130.455000,99.669984],[150.394992,99.759976],[150.894992,99.919984],[151.205008,100.319984],[151.625008,101.299984],[151.654992,102.359984],[151.654992,117.159984],[151.514992,118.219976],[151.205008,119.199984],[149.053440,122.617184],[148.654992,123.249984],[148.285008,123.609984],[140.679504,127.853184],[138.304288,129.156784],[135.878896,130.267384],[133.472592,131.040176],[131.155000,131.329968],[127.155000,131.327976],[113.939992,128.244984],[113.439992,128.110976],[82.650400,117.126776],[81.976896,116.879776],[81.345000,116.476472],[80.773896,115.929080],[80.280800,115.254272],[79.880896,114.472472],[79.586200,113.607576],[79.405800,112.685680],[79.345000,111.734976]]
; plater:{"center":[115.500000,115.499977,0.000000],"boundingbox_center":[115.500000,115.499977,13.350002],"boundingbox_size":[72.309998,31.660000,26.700005]}

;TYPE:Custom
SET_PRINT_STATS_INFO TOTAL_LAYER=212

PRINT_START BED=70 EXTRUDER=240 CHAMBER=0 SIZE=75.7129_93.0713_144.863_137.929 MATERIAL=PETG
; Filament gcode
;_TOOLCHANGE 0
M107
;LAYER_CHANGE
;Z:0.24
;HEIGHT:0.24

G1 E-0.8 F2100
G1 Z0.4 F18000
SET_PRINT_STATS_INFO CURRENT_LAYER=1

G92 E0
G1 Z0.64
M204 S1000
G1 X79.616 Y104.285
G1 Z0.24
G1 E0.8 F2100
;TYPE:Skirt
;WIDTH:0.48
G1 F1200
G1 X78.55 Y105.221 E0.86065
G1 X77.686 Y106.32 E0.92042
G1 X77.02 Y107.534 E0.97963
G1 X76.433 Y109.245 E1.05699
G1 X76.199 Y110.579 E1.11488
G1 X76.138 Y111.94 E1.17313
G1 X76.199 Y112.891 E1.21386
G1 X76.433 Y114.225 E1.27176
G1 X76.839 Y115.509 E1.32935
G1 X77.42 Y116.718 E1.38668
G1 X78.18 Y117.825 E1.44409
G1 X79.122 Y118.796 E1.50194
G1 X79.616 Y119.185 E1.52885
G1 X106.667 Y134.764 E2.86352
G1 X107.952 Y135.175 E2.92119
G1 X131.377 Y137.487 E3.92759
G1 X138.912 Y137.502 E4.24975
G1 X140.744 Y136.928 E4.33185
G1 X141.786 Y135.726 E4.39986
G1 X144.097 Y131.103 E4.62084
G1 X144.436 Y129.666 E4.68396
G1 X144.436 Y101.334 E5.89535
G1 X144.069 Y99.843 E5.961
G1 X143.005 Y98.66 E6.02901
G1 X136.071 Y94.037 E6.38532
G1 X134.289 Y93.498 E6.46494
G1 X108.268 Y93.498 E7.5775
G1 X107.137 Y93.703 E7.62662
G1 X80.847 Y103.582 E8.82743
G1 X79.668 Y104.255 E8.88544
G92 E0
;WIPE_START
G1 F14400
G1 X80.847 Y103.582 E-0.18797
G1 X84.712 Y102.13 E-0.76
;WIPE_END
G1 E-0.8 F2100
G1 Z0.64 F18000
; printing object 5015_Lightweight_Duct_Standard_Right.stl id:0 copy 0
EXCLUDE_OBJECT_START NAME=5015_Lightweight_Duct_Standard_Right_stl_id_0_copy_0
; acceleration to travel
M204 S1500
G1 X122.64 Y103.842
; decel to extrusion
M204 S1000
G1 X131.784 Y104.255
; end travel
G1 Z0.24
G1 E0 F2100
;TYPE:Support material interface
;WIDTH:0.571504
G1 F1200
G1 X131.784 Y104.048 E0.01077
G1 X133.886 Y104.048 E0.11987
G1 X133.886 Y105.689 E0.20503
G1 X133.531 Y105.698 E0.22345
G1 X132.842 Y105.716 E0.25921
G1 X132.815 Y105.691 E0.26115
G1 X131.784 Y105.718 E0.3147
G1 X131.784 Y104.315 E0.38747
G92 E0
;WIPE_START
G1 F14400
G1 X131.784 Y105.718 E-0.19429
G1 X132.815 Y105.691 E-0.33727
G1 X132.842 Y105.716 E-0.34246
G1 X133.531 Y105.698 E-0.43794
G1 X133.531 Y105.698 E-0.43795
G1 X133.886 Y105.689 E-0.48713
G1 X133.886 Y104.048 E-0.71452
G1 X133.558 Y104.048 E-0.76
;WIPE_END
G1 E-0.8 F2100
G1 Z0.64 F18000
G1 X133.756 Y104.522
G1 Z0.24
G1 E0 F2100
G1 F1200
G1 X132.137 Y104.522 E0.08401
G1 X132.137 Y105.1 E0.11399
G1 X133.756 Y105.1 E0.198
G1 X134.692 Y105.1 F18000
;TYPE:Support material
G1 F1200
G1 X134.692 Y103.242 E0.29441
G1 X130.978 Y103.242 E0.48713
G1 X130.978 Y105.548 E0.60682
G1 X119.701 Y105.548 E1.19194
G1 X119.203 Y105.548 E1.21778
G1 X108.268 Y105.548 E1.78515
G1 X108.268 Y96.711 E2.2437
G1 X134.289 Y96.711 E3.59385
G1 X134.289 Y101.334 E3.8337
G1 X141.223 Y101.334 E4.19347
G1 X141.223 Y129.666 E5.66355
G1 X138.912 Y129.666 E5.78347
G1 X138.912 Y134.289 E6.02332
G1 X131.692 Y134.289 E6.39791
G1 X131.692 Y132.381 E6.49693
G1 X134.692 Y132.381 E6.65258
G1 X134.692 Y105.16 E8.06495
; acceleration to travel
M204 S1500
G1 X138.084 Y119.786 F18000
; decel to extrusion
M204 S1000
G1 X140.344 Y129.536
; end travel
G1 F1200
G1 X140.344 Y101.687 E9.50993
G1 X139.767 Y101.687 E9.53991
G1 X139.767 Y129.313 E10.97329
G1 X139.189 Y129.313 E11.00327
G1 X139.189 Y101.687 E12.43665
G1 X138.611 Y101.687 E12.46663
G1 X138.611 Y129.313 E13.90001
G1 X138.558 Y129.313 E13.90276
G1 X138.558 Y133.935 E14.14261
G1 X138.033 Y133.935 E14.16984
G1 X138.033 Y101.687 E15.84307
G1 X137.456 Y101.687 E15.87305
G1 X137.456 Y133.935 E17.54627
G1 X136.878 Y133.935 E17.57625
G1 X136.878 Y101.687 E19.24948
G1 X136.3 Y101.687 E19.27946
G1 X136.3 Y133.935 E20.95269
G1 X135.722 Y133.935 E20.98267
G1 X135.722 Y101.687 E22.6559
G1 X135.144 Y101.687 E22.68588
G1 X135.144 Y133.935 E24.35911
G1 X134.567 Y133.935 E24.38908
G1 X134.567 Y132.734 E24.4514
G1 X133.989 Y132.734 E24.48138
G1 X133.989 Y133.935 E24.5437
G1 X133.411 Y133.935 E24.57368
G1 X133.411 Y132.734 E24.636
G1 X132.833 Y132.734 E24.66598
G1 X132.833 Y133.935 E24.7283
G1 X132.256 Y133.935 E24.75828
G1 X132.256 Y132.511 E24.8322
G92 E0
;WIPE_START
G1 F14400
G1 X132.256 Y133.935 E-0.19738
G1 X132.833 Y133.935 E-0.27743
G1 X132.833 Y132.734 E-0.44383
G1 X133.411 Y132.734 E-0.52387
G1 X133.411 Y133.935 E-0.69028
G1 X133.914 Y133.935 E-0.76
;WIPE_END
G1 E-0.8 F2100
G1 Z0.64 F18000
; acceleration to travel
M204 S1500
G1 X134.44 Y109.099
; decel to extrusion
M204 S1000
G1 X134.567 Y103.112
; end travel
G1 Z0.24
G1 E0 F2100
G1 F1200
G1 X134.567 Y101.687 E0.07392
G1 X133.989 Y101.687 E0.1039
G1 X133.989 Y102.888 E0.16622
G1 X133.411 Y102.888 E0.1962
G1 X133.411 Y97.064 E0.49837
G1 X132.833 Y97.064 E0.52835
G1 X132.833 Y102.888 E0.83052
G1 X132.256 Y102.888 E0.86049
G1 X132.256 Y97.064 E1.16266
G1 X131.678 Y97.064 E1.19264
G1 X131.678 Y102.888 E1.49481
G1 X131.1 Y102.888 E1.52479
G1 X131.1 Y97.064 E1.82696
G1 X130.522 Y97.064 E1.85694
G1 X130.522 Y105.195 E2.27879
G1 X129.944 Y105.195 E2.30877
G1 X129.944 Y97.064 E2.73062
G1 X129.367 Y97.064 E2.7606
G1 X129.367 Y105.195 E3.18245
G1 X128.789 Y105.195 E3.21243
G1 X128.789 Y97.064 E3.63429
G1 X128.211 Y97.064 E3.66426
G1 X128.211 Y105.195 E4.08612
G1 X127.633 Y105.195 E4.11609
G1 X127.633 Y97.064 E4.53795
G1 X127.056 Y97.064 E4.56793
G1 X127.056 Y105.195 E4.98978
G1 X126.478 Y105.195 E5.01976
G1 X126.478 Y97.064 E5.44161
G1 X125.9 Y97.064 E5.47159
G1 X125.9 Y105.195 E5.89344
G1 X125.322 Y105.195 E5.92342
G1 X125.322 Y97.064 E6.34527
G1 X124.744 Y97.064 E6.37525
G1 X124.744 Y105.195 E6.7971
G1 X124.167 Y105.195 E6.82708
G1 X124.167 Y97.064 E7.24893
G1 X123.589 Y97.064 E7.27891
G1 X123.589 Y105.195 E7.70077
G1 X123.011 Y105.195 E7.73074
G1 X123.011 Y97.064 E8.1526
G1 X122.433 Y97.064 E8.18258
G1 X122.433 Y105.195 E8.60443
G1 X121.856 Y105.195 E8.63441
G1 X121.856 Y97.064 E9.05626
G1 X121.278 Y97.064 E9.08624
G1 X121.278 Y105.195 E9.50809
G1 X120.7 Y105.195 E9.53807
G1 X120.7 Y97.064 E9.95992
G1 X120.122 Y97.064 E9.9899
G1 X120.122 Y105.195 E10.41175
G1 X119.544 Y105.195 E10.44173
G1 X119.544 Y97.064 E10.86358
G1 X118.967 Y97.064 E10.89356
G1 X118.967 Y105.195 E11.31542
G1 X118.389 Y105.195 E11.34539
G1 X118.389 Y97.064 E11.76725
G1 X117.811 Y97.064 E11.79722
G1 X117.811 Y105.195 E12.21908
G1 X117.233 Y105.195 E12.24906
G1 X117.233 Y97.064 E12.67091
G1 X116.656 Y97.064 E12.70089
G1 X116.656 Y105.195 E13.12274
G1 X116.078 Y105.195 E13.15272
G1 X116.078 Y97.064 E13.57457
G1 X115.5 Y97.064 E13.60455
G1 X115.5 Y105.195 E14.0264
G1 X114.922 Y105.195 E14.05638
G1 X114.922 Y97.064 E14.47823
G1 X114.344 Y97.064 E14.50821
G1 X114.344 Y105.195 E14.93006
G1 X113.767 Y105.195 E14.96004
G1 X113.767 Y97.064 E15.3819
G1 X113.189 Y97.064 E15.41187
G1 X113.189 Y105.195 E15.83373
G1 X112.611 Y105.195 E15.8637
G1 X112.611 Y97.064 E16.28556
G1 X112.033 Y97.064 E16.31554
G1 X112.033 Y105.195 E16.73739
G1 X111.456 Y105.195 E16.76737
G1 X111.456 Y97.064 E17.18922
G1 X110.878 Y97.064 E17.2192
G1 X110.878 Y105.195 E17.64105
G1 X110.3 Y105.195 E17.67103
G1 X110.3 Y97.064 E18.09288
G1 X109.722 Y97.064 E18.12286
G1 X109.722 Y105.195 E18.54471
G1 X109.144 Y105.195 E18.57469
G1 X109.144 Y96.841 E19.00815
G92 E0
;WIPE_START
G1 F14400
G1 X109.144 Y102.327 E-0.76
;WIPE_END
G1 E-0.8 F2100
G1 Z0.64 F18000
; acceleration to travel
M204 S1500
G1 X108.438 Y118.534
; decel to extrusion
M204 S1000
G1 X108.268 Y122.441
; end travel
G1 Z0.24
G1 E0 F2100
G1 F1200
G1 X108.852 Y122.546 E0.03079
G1 X109.339 Y122.633 E0.05649
G1 X109.827 Y122.72 E0.08219
G1 X110.802 Y122.895 E0.13359
G1 X111.289 Y122.983 E0.15928
G1 X111.777 Y123.07 E0.18498
G1 X112.264 Y123.157 E0.21068
G1 X112.752 Y123.245 E0.23638
G1 X113.239 Y123.332 E0.26208
G1 X113.727 Y123.419 E0.28778
G1 X114.214 Y123.507 E0.31348
G1 X114.702 Y123.594 E0.33918
G1 X114.946 Y123.638 E0.35203
G1 X115.19 Y123.682 E0.36488
G1 X115.677 Y123.769 E0.39058
G1 X116.165 Y123.856 E0.41627
G1 X116.652 Y123.944 E0.44197
G1 X117.627 Y124.119 E0.49337
G1 X118.115 Y124.206 E0.51907
G1 X118.602 Y124.293 E0.54477
G1 X119.09 Y124.381 E0.57047
G1 X119.577 Y124.468 E0.59617
G1 X120.065 Y124.555 E0.62187
G1 X120.552 Y124.643 E0.64757
G1 X121.04 Y124.73 E0.67327
G1 X121.527 Y124.818 E0.69896
G1 X122.015 Y124.905 E0.72466
G1 X122.503 Y124.992 E0.75036
G1 X122.99 Y125.08 E0.77606
G1 X123.478 Y125.167 E0.80176
G1 X124.551 Y125.359 E0.85834
G1 X125.964 Y128.91 E1.05662
G1 X125.836 Y129.038 E1.066
G1 X125.644 Y129.502 E1.09208
G1 X125.513 Y129.819 E1.10985
G1 X125.475 Y129.911 E1.11505
G1 X125.443 Y130.068 E1.12335
G1 X125.443 Y130.388 E1.13995
G1 X125.475 Y130.545 E1.14825
G1 X125.836 Y131.418 E1.1973
G1 X126.396 Y131.978 E1.23835
G1 X108.268 Y131.978 E2.17896
G1 X108.268 Y122.501 E2.67067
; acceleration to travel
M204 S1500
G1 X118.5 Y128.109 F18000
; decel to extrusion
M204 S1000
G1 X125.322 Y131.848
; end travel
G1 F1200
G1 X125.322 Y131.101 E2.70943
G1 X125.135 Y130.648 E2.73485
G1 X125.09 Y130.423 E2.74676
G1 X125.09 Y130.033 E2.76698
G1 X125.135 Y129.808 E2.77889
G1 X125.186 Y129.683 E2.7859
G1 X125.322 Y129.355 E2.80432
G1 X125.322 Y128.253 E2.86152
G1 X124.744 Y126.801 E2.94257
G1 X124.744 Y131.624 E3.1928
G1 X124.167 Y131.624 E3.22278
G1 X124.167 Y125.65 E3.53276
G1 X123.589 Y125.546 E3.56321
G1 X123.589 Y131.624 E3.87856
G1 X123.011 Y131.624 E3.90854
G1 X123.011 Y125.443 E4.22927
G1 X122.928 Y125.428 E4.23367
G1 X122.433 Y125.339 E4.25973
G1 X122.433 Y131.624 E4.58583
G1 X121.856 Y131.624 E4.6158
G1 X121.856 Y125.236 E4.94728
G1 X121.465 Y125.166 E4.96786
G1 X121.278 Y125.132 E4.97773
G1 X121.278 Y131.624 E5.31458
G1 X120.7 Y131.624 E5.34456
G1 X120.7 Y125.028 E5.68677
G1 X120.49 Y124.991 E5.69784
G1 X120.122 Y124.925 E5.71723
G1 X120.122 Y131.624 E6.06482
G1 X119.544 Y131.624 E6.0948
G1 X119.544 Y124.821 E6.44777
G1 X119.515 Y124.816 E6.44932
G1 X119.027 Y124.729 E6.47502
G1 X118.967 Y124.718 E6.47822
G1 X118.967 Y131.624 E6.83656
G1 X118.389 Y131.624 E6.86654
G1 X118.389 Y124.614 E7.23025
G1 X118.052 Y124.554 E7.24799
G1 X117.811 Y124.511 E7.2607
G1 X117.811 Y131.624 E7.62979
G1 X117.233 Y131.624 E7.65977
G1 X117.233 Y124.407 E8.03422
G1 X116.656 Y124.304 E8.06468
G1 X116.656 Y131.624 E8.44451
G1 X116.078 Y131.624 E8.47449
G1 X116.078 Y124.2 E8.85969
G1 X115.615 Y124.117 E8.8841
G1 X115.5 Y124.096 E8.89015
G1 X115.5 Y131.624 E9.28072
G1 X114.922 Y131.624 E9.3107
G1 X114.922 Y123.993 E9.70665
G1 X114.883 Y123.986 E9.7087
G1 X114.64 Y123.942 E9.72155
G1 X114.344 Y123.889 E9.73711
G1 X114.344 Y131.624 E10.13843
G1 X113.767 Y131.624 E10.16841
G1 X113.767 Y123.786 E10.5751
G1 X113.665 Y123.768 E10.58048
G1 X113.189 Y123.682 E10.60556
G1 X113.189 Y131.624 E11.01762
G1 X112.611 Y131.624 E11.0476
G1 X112.611 Y123.579 E11.46504
G1 X112.202 Y123.505 E11.48661
G1 X112.033 Y123.475 E11.4955
G1 X112.033 Y131.624 E11.91831
G1 X111.456 Y131.624 E11.94829
G1 X111.456 Y123.372 E12.37648
G1 X111.227 Y123.331 E12.38853
G1 X110.878 Y123.268 E12.40694
G1 X110.878 Y131.624 E12.8405
G1 X110.3 Y131.624 E12.87048
G1 X110.3 Y123.164 E13.30941
G1 X109.722 Y123.061 E13.33986
G1 X109.722 Y131.624 E13.78417
G1 X109.144 Y131.624 E13.81415
G1 X109.144 Y122.73 E14.27562
G92 E0
;WIPE_START
G1 F14400
G1 X109.144 Y128.216 E-0.76
;WIPE_END
G1 E-0.8 F2100
G1 Z0.64 F18000
; acceleration to travel
M204 S1500
G1 X127.784 Y123.796
; decel to extrusion
M204 S1000
G1 X132.278 Y122.73
; end travel
G1 Z0.24
G1 E0 F2100
G1 F1200
G1 X132.278 Y120.578 E0.11168
G1 X132.278 Y120.081 E0.13744
G1 X132.278 Y113.13 E0.49814
G1 X132.278 Y112.645 E0.52331
G1 X132.293 Y112.194 E0.54671
G1 X132.382 Y109.416 E0.69092
G1 X132.385 Y108.384 E0.74448
G1 X132.741 Y108.391 E0.76291
G1 X133.189 Y108.401 E0.78618
G1 X133.169 Y109.309 E0.83332
G1 X132.476 Y130.848 E1.95146
G1 X132.278 Y130.874 E1.96182
G1 X132.278 Y122.79 E2.38124
; acceleration to travel
M204 S1500
G1 X132.344 Y113.515 F18000
; decel to extrusion
M204 S1000
G1 X132.388 Y107.332
; end travel
G1 F1200
G1 X132.391 Y106.534 E2.42265
G1 X132.529 Y106.531 E2.42983
G1 X133.168 Y106.514 E2.463
G1 X133.187 Y107.313 E2.50448
G1 X132.448 Y107.331 E2.54284
G92 E0
;WIPE_START
G1 F14400
G1 X133.187 Y107.313 E-0.10242
G1 X133.168 Y106.514 E-0.21317
G1 X132.529 Y106.531 E-0.30173
G1 X132.529 Y106.531 E-0.30173
G1 X132.391 Y106.534 E-0.32092
G1 X132.388 Y107.332 E-0.43147
;WIPE_END
G1 E-0.8 F2100
G1 Z0.64 F18000
; acceleration to travel
M204 S1500
G1 X128.881 Y125.387
; decel to extrusion
M204 S1000
G1 X128.036 Y129.74
; end travel
G1 Z0.24
G1 E0 F2100
;TYPE:Internal perimeter
G1 F1200
G1 X125.721 Y123.926 E0.32468
G1 X82.888 Y116.249 E2.58251
G1 X82.381 Y116.063 E2.61052
G1 X81.907 Y115.761 E2.63969
G1 X81.458 Y115.33 E2.67197
G1 X81.268 Y115.07 E2.68868
G1 X81.561 Y114.82 E2.70866
G1 X81.796 Y115.056 E2.72596
G1 X82.141 Y115.296 E2.74775
G1 X82.521 Y115.474 E2.76953
G1 X82.927 Y115.583 E2.79131
G1 X83.345 Y115.619 E2.81311
G1 X83.763 Y115.583 E2.83491
G1 X84.169 Y115.474 E2.85669
G1 X84.549 Y115.296 E2.87847
G1 X84.894 Y115.056 E2.90026
G1 X85.191 Y114.759 E2.92207
G1 X85.431 Y114.414 E2.94385
G1 X85.609 Y114.034 E2.96564
G1 X85.718 Y113.628 E2.98742
G1 X85.754 Y113.21 E3.00922
G1 X85.718 Y112.792 E3.03101
G1 X85.609 Y112.386 E3.0528
G1 X85.431 Y112.006 E3.07458
G1 X85.191 Y111.661 E3.09637
G1 X84.894 Y111.364 E3.11817
G1 X84.549 Y111.124 E3.13996
G1 X84.169 Y110.946 E3.16174
G1 X83.763 Y110.837 E3.18353
G1 X83.345 Y110.801 E3.20532
G1 X82.927 Y110.837 E3.22712
G1 X82.521 Y110.946 E3.2489
G1 X82.141 Y111.124 E3.27068
G1 X81.796 Y111.364 E3.29247
G1 X81.499 Y111.661 E3.31428
G1 X81.259 Y112.005 E3.33607
G1 X81.081 Y112.386 E3.35785
G1 X80.972 Y112.792 E3.37963
G1 X80.936 Y113.21 E3.40143
G1 X80.985 Y113.769 E3.43054
G1 X80.624 Y113.845 E3.44967
G1 X80.463 Y113.373 E3.47552
G1 X80.306 Y112.569 E3.51803
G1 X80.253 Y111.735 E3.56141
G1 X80.306 Y110.901 E3.60479
G1 X80.463 Y110.096 E3.64731
G1 X80.717 Y109.352 E3.68814
G1 X81.054 Y108.692 E3.72657
G1 X81.458 Y108.14 E3.76208
G1 X81.907 Y107.709 E3.79436
G1 X82.381 Y107.407 E3.82353
G1 X82.863 Y107.23 E3.85016
G1 X83.399 Y107.166 E3.87817
G1 X130.772 Y107.155 E6.33614
G1 X130.765 Y109.381 E6.45165
G1 X130.661 Y112.618 E6.6197
G1 X130.661 Y128.023 E7.41897
G1 X130.643 Y130.424 E7.54356
G1 X127.272 Y130.422 E7.71848
G1 X127.205 Y130.088 E7.73619
