; generated by SuperSlicer 2.5.59 on 2023-10-13 at 00:39:30 UTC


;
;

;
;
; 

; external perimeters extrusion width = 0.44mm
; perimeters extrusion width = 0.46mm
; infill extrusion width = 0.44mm
; solid infill extrusion width = 0.46mm
; top infill extrusion width = 0.44mm
; support material extrusion width = 0.38mm
; first layer extrusion width = 0.57mm

; object:{"name":"5020_Lightweight_Duct_Standard_Left","id":"5020_Lightweight_Duct_Standard_Left.stl id:0 copy 0","object_center":[115.500000,115.500000,0.000000],"boundingbox_center":[115.500000,115.500000,15.350002],"boundingbox_size":[72.309998,37.490002,30.700005]}
EXCLUDE_OBJECT_DEFINE NAME=5020_Lightweight_Duct_Standard_Left_stl_id_0_copy_0 CENTER=115.500000,115.500000 POLYGON=[[79.345000,122.180000],[79.405800,121.229304],[79.586200,120.307400],[79.880896,119.442496],[80.280800,118.660696],[80.773896,117.985904],[81.345000,117.438496],[81.976896,117.035200],[127.047896,97.047896],[127.755008,96.755000],[131.155000,96.755000],[133.472592,97.295304],[135.878912,98.728504],[138.304304,100.772904],[148.285008,110.305000],[148.654992,110.665000],[149.053440,111.297800],[151.205008,114.715000],[151.514992,115.695000],[151.654992,116.755000],[151.654992,131.554992],[151.625008,132.615008],[151.205008,133.595000],[150.895008,133.994992],[150.395008,134.155000],[130.455000,134.244992],[113.940000,134.244992],[82.650400,127.571800],[81.976896,127.324800],[81.345000,126.921504],[80.773896,126.374104],[80.280800,125.699304],[79.880896,124.917496],[79.586200,124.052600],[79.405800,123.130696],[79.345000,122.180000]]
; plater:{"center":[115.500000,115.500000,0.000000],"boundingbox_center":[115.500000,115.500000,15.350002],"boundingbox_size":[72.309998,37.490002,30.700005]}

;TYPE:Custom
SET_PRINT_STATS_INFO TOTAL_LAYER=243

PRINT_START BED=70 EXTRUDER=240 CHAMBER=0 SIZE=75.7129_88.4487_142.551_142.551 MATERIAL=PETG
; Filament gcode
;_TOOLCHANGE 0
M107
;LAYER_CHANGE
;Z:0.24
;HEIGHT:0.24

G1 E-0.8 F2100
G1 Z0.4 F18000
SET_PRINT_STATS_INFO CURRENT_LAYER=1

G92 E0
G1 Z0.64
M204 S1000
G1 X80.248 Y114.327
G1 Z0.24
G1 E0.8 F2100
;TYPE:Skirt
;WIDTH:0.48
G1 F1200
G1 X79.122 Y115.119 E0.85888
G1 X78.18 Y116.09 E0.91674
G1 X77.686 Y116.765 E0.95247
G1 X76.839 Y118.406 E1.03144
G1 X76.433 Y119.69 E1.08903
G1 X76.252 Y120.612 E1.12919
G1 X76.138 Y122.385 E1.20515
G1 X76.199 Y123.336 E1.24588
G1 X76.433 Y124.67 E1.30378
G1 X77.02 Y126.381 E1.38113
G1 X77.686 Y127.595 E1.44034
G1 X78.18 Y128.27 E1.47608
G1 X79.122 Y129.241 E1.53393
G1 X79.616 Y129.63 E1.56083
G1 X80.77 Y130.303 E1.61795
G1 X109.372 Y141.89 E2.93738
G1 X110.579 Y142.125 E2.98993
G1 X129.666 Y142.125 E3.80603
G1 X131.103 Y141.786 E3.86916
G1 X135.726 Y139.474 E4.09013
G1 X136.561 Y138.872 E4.13414
G1 X141.184 Y134.25 E4.41365
G1 X141.731 Y133.519 E4.45269
G1 X142.125 Y131.978 E4.5207
G1 X142.125 Y99.022 E5.92973
G1 X141.96 Y98.006 E5.97374
G1 X139.649 Y91.072 E6.28624
G1 X138.142 Y89.269 E6.38672
G1 X136.6 Y88.875 E6.45474
G1 X129.069 Y88.875 E6.77673
G1 X127.764 Y89.152 E6.83376
G1 X106.62 Y98.575 E7.82351
G1 X80.3 Y114.296 E9.13431
M104 S240 ; set temperature
G92 E0
;WIPE_START
G1 F14400
G1 X85.009 Y111.483 E-0.76
;WIPE_END
G1 E-0.8 F2100
G1 Z0.64 F18000
; printing object 5020_Lightweight_Duct_Standard_Left.stl id:0 copy 0
EXCLUDE_OBJECT_START NAME=5020_Lightweight_Duct_Standard_Left_stl_id_0_copy_0
; acceleration to travel
M204 S1500
G1 X123.846 Y112.896
; decel to extrusion
M204 S1000
G1 X133.208 Y113.236
; end travel
G1 Z0.24
G1 E0 F2100
;TYPE:Support material interface
;WIDTH:0.571504
G1 F1200
G1 X133.136 Y109.603 E0.18856
G1 X133.136 Y101.069 E0.63137
G1 X133.064 Y98.063 E0.78739
G1 X133.064 Y97.114 E0.83662
G1 X133.886 Y97.114 E0.87929
G1 X133.886 Y101.476 E1.10564
G1 X133.886 Y129.264 E2.54741
G1 X131.784 Y129.264 E2.65651
G1 X131.784 Y128.197 E2.71183
G1 X132.467 Y128.215 E2.74731
G1 X132.494 Y128.19 E2.74924
G1 X132.977 Y128.202 E2.77429
G1 X133.498 Y127.703 E2.81175
G1 X133.21 Y113.296 E3.55939
G92 E0
;WIPE_START
G1 F14400
G1 X133.32 Y118.781 E-0.76
;WIPE_END
G1 E-0.8 F2100
G1 Z0.64 F18000
; acceleration to travel
M204 S1500
G1 X133.671 Y126.379
; decel to extrusion
M204 S1000
G1 X133.756 Y128.211
; end travel
G1 Z0.24
G1 E0 F2100
G1 F1200
G1 X133.479 Y128.211 E0.0144
G1 X133.115 Y128.56 E0.04054
G1 X132.632 Y128.547 E0.06559
G1 X132.605 Y128.573 E0.06753
G1 X132.137 Y128.56 E0.09182
G1 X132.137 Y128.789 E0.10368
G1 X133.756 Y128.789 E0.18768
G92 E0
;WIPE_START
G1 F14400
G1 X132.137 Y128.789 E-0.22431
G1 X132.137 Y128.56 E-0.25596
G1 X132.605 Y128.573 E-0.32083
G1 X132.632 Y128.547 E-0.326
G1 X133.115 Y128.56 E-0.39289
G1 X133.479 Y128.211 E-0.46268
G1 X133.756 Y128.211 E-0.50114
;WIPE_END
G1 E-0.8 F2100
G1 Z0.64 F18000
; acceleration to travel
M204 S1500
G1 X133.756 Y103.537
; decel to extrusion
M204 S1000
G1 X133.756 Y97.589
; end travel
G1 Z0.24
G1 E0 F2100
G1 F1200
G1 X133.418 Y97.589 E0.01757
G1 X133.42 Y98.167 E0.04755
G1 X133.533 Y98.167 E0.05338
G1 X133.533 Y98.744 E0.08336
G1 X133.434 Y98.744 E0.08848
G1 X133.448 Y99.322 E0.11847
G1 X133.533 Y99.322 E0.12287
G1 X133.533 Y99.9 E0.15285
G1 X133.462 Y99.9 E0.15653
G1 X133.475 Y100.478 E0.18652
G1 X133.533 Y100.478 E0.18949
G1 X133.533 Y101.056 E0.21947
G1 X133.489 Y101.056 E0.22173
G1 X133.489 Y101.633 E0.2517
G1 X133.533 Y101.633 E0.25395
G1 X133.533 Y102.211 E0.28393
G1 X133.489 Y102.211 E0.28618
G1 X133.489 Y102.789 E0.31616
G1 X133.533 Y102.789 E0.31841
G1 X133.533 Y103.367 E0.34838
G1 X133.489 Y103.367 E0.35063
G1 X133.489 Y103.944 E0.38061
G1 X133.533 Y103.944 E0.38286
G1 X133.533 Y104.522 E0.41284
G1 X133.489 Y104.522 E0.41509
G1 X133.489 Y105.1 E0.44507
G1 X133.533 Y105.1 E0.44731
G1 X133.533 Y105.678 E0.47729
G1 X133.489 Y105.678 E0.47954
G1 X133.489 Y106.256 E0.50952
G1 X133.533 Y106.256 E0.51177
G1 X133.533 Y106.833 E0.54175
G1 X133.489 Y106.833 E0.54399
G1 X133.489 Y107.411 E0.57397
G1 X133.533 Y107.411 E0.57622
G1 X133.533 Y107.989 E0.6062
G1 X133.489 Y107.989 E0.60845
G1 X133.489 Y108.567 E0.63843
G1 X133.533 Y108.567 E0.64068
G1 X133.533 Y109.144 E0.67065
G1 X133.489 Y109.144 E0.6729
G1 X133.489 Y109.6 E0.69652
G1 X133.492 Y109.722 E0.70288
G1 X133.533 Y109.722 E0.705
G1 X133.533 Y110.3 E0.73498
G1 X133.28 Y110.3 E0.74811
G92 E0
;WIPE_START
G1 F14400
G1 X133.533 Y110.3 E-0.03505
G1 X133.533 Y109.722 E-0.11509
G1 X133.492 Y109.722 E-0.12076
G1 X133.489 Y109.6 E-0.13775
G1 X133.489 Y109.144 E-0.20081
G1 X133.533 Y109.144 E-0.20681
G1 X133.533 Y108.567 E-0.28686
G1 X133.489 Y108.567 E-0.29286
G1 X133.489 Y107.989 E-0.37291
G1 X133.533 Y107.989 E-0.37891
G1 X133.533 Y107.411 E-0.45896
G1 X133.489 Y107.411 E-0.46496
G1 X133.489 Y106.833 E-0.54501
G1 X133.533 Y106.833 E-0.55101
G1 X133.533 Y106.256 E-0.63106
G1 X133.489 Y106.256 E-0.63706
G1 X133.489 Y105.678 E-0.71711
G1 X133.533 Y105.678 E-0.72311
G1 X133.533 Y105.412 E-0.76
;WIPE_END
G1 E-0.8 F2100
G1 Z0.64 F18000
; acceleration to travel
M204 S1500
G1 X134.467 Y109.35
; decel to extrusion
M204 S1000
G1 X134.692 Y110.3
; end travel
G1 Z0.24
G1 E0 F2100
;TYPE:Support material
G1 F1200
G1 X134.692 Y96.308 E0.72599
G1 X131.928 Y96.308 E0.8694
G1 X131.831 Y96.185 E0.87753
G1 X131.19 Y96.043 E0.91159
G1 X129.069 Y96.043 E1.02162
G1 X129.069 Y92.088 E1.22684
G1 X136.6 Y92.088 E1.61759
G1 X136.6 Y99.022 E1.97736
G1 X138.912 Y99.022 E2.09729
G1 X138.912 Y131.978 E3.80721
G1 X134.289 Y131.978 E4.04706
G1 X134.289 Y136.6 E4.28691
G1 X129.666 Y136.6 E4.52676
G1 X129.666 Y138.912 E4.64668
G1 X110.579 Y138.912 E5.63706
G1 X110.579 Y136.6 E5.75698
G1 X108.268 Y136.6 E5.87691
G1 X108.268 Y128.372 E6.30385
G1 X130.978 Y128.377 E7.48219
G1 X130.978 Y130.069 E7.57002
G1 X134.692 Y130.069 E7.76275
G1 X134.692 Y110.36 E8.78539
; acceleration to travel
M204 S1500
G1 X136.697 Y123.253 F18000
; decel to extrusion
M204 S1000
G1 X138.033 Y131.848
; end travel
G1 F1200
G1 X138.033 Y99.376 E10.47022
G1 X137.456 Y99.376 E10.50019
G1 X137.456 Y131.624 E12.17342
G1 X136.878 Y131.624 E12.2034
G1 X136.878 Y99.376 E13.87663
G1 X136.3 Y99.376 E13.90661
G1 X136.3 Y131.624 E15.57984
G1 X135.722 Y131.624 E15.60982
G1 X135.722 Y92.442 E17.64282
G1 X135.144 Y92.442 E17.6728
G1 X135.144 Y131.624 E19.7058
G1 X134.567 Y131.624 E19.73578
G1 X134.567 Y130.423 E19.7981
G1 X133.989 Y130.423 E19.82808
G1 X133.989 Y131.624 E19.8904
G1 X133.935 Y131.624 E19.89317
G1 X133.935 Y136.247 E20.13302
G1 X133.411 Y136.247 E20.16023
G1 X133.411 Y130.423 E20.4624
G1 X132.833 Y130.423 E20.49238
G1 X132.833 Y136.247 E20.79455
G1 X132.256 Y136.247 E20.82452
G1 X132.256 Y130.423 E21.12669
G1 X131.678 Y130.423 E21.15667
G1 X131.678 Y136.247 E21.45884
G1 X131.1 Y136.247 E21.48882
G1 X131.1 Y130.423 E21.79099
G1 X130.624 Y130.423 E21.81568
G1 X130.624 Y128.73 E21.90351
G1 X130.522 Y128.73 E21.9088
G1 X130.522 Y136.247 E22.29881
G1 X129.944 Y136.247 E22.32879
G1 X129.944 Y128.73 E22.7188
G1 X129.367 Y128.73 E22.74878
G1 X129.367 Y136.247 E23.1388
G1 X129.313 Y136.247 E23.14159
G1 X129.313 Y138.558 E23.26152
G1 X128.789 Y138.558 E23.2887
G1 X128.789 Y128.73 E23.79865
G1 X128.211 Y128.73 E23.82863
G1 X128.211 Y138.558 E24.33859
G1 X127.633 Y138.558 E24.36857
G1 X127.633 Y128.73 E24.87853
G1 X127.056 Y128.729 E24.90851
G1 X127.056 Y138.558 E25.41848
G1 X126.478 Y138.558 E25.44846
G1 X126.478 Y128.729 E25.95843
G1 X125.9 Y128.729 E25.98841
G1 X125.9 Y138.558 E26.49839
G1 X125.322 Y138.558 E26.52837
G1 X125.322 Y128.729 E27.03836
G1 X124.744 Y128.729 E27.06834
G1 X124.744 Y138.558 E27.57833
G1 X124.167 Y138.558 E27.60831
G1 X124.167 Y128.729 E28.11831
G1 X123.589 Y128.729 E28.14829
G1 X123.589 Y138.558 E28.6583
G1 X123.011 Y138.558 E28.68828
G1 X123.011 Y128.729 E29.19829
G1 X122.433 Y128.728 E29.22827
G1 X122.433 Y138.558 E29.73829
G1 X121.856 Y138.558 E29.76827
G1 X121.856 Y128.728 E30.2783
G1 X121.278 Y128.728 E30.30827
G1 X121.278 Y138.558 E30.81831
G1 X120.7 Y138.558 E30.84829
G1 X120.7 Y128.728 E31.35833
G1 X120.122 Y128.728 E31.3883
G1 X120.122 Y138.558 E31.89835
G1 X119.544 Y138.558 E31.92833
G1 X119.544 Y128.728 E32.43838
G1 X118.967 Y128.728 E32.46836
G1 X118.967 Y138.558 E32.97842
G1 X118.389 Y138.558 E33.0084
G1 X118.389 Y128.728 E33.51846
G1 X117.811 Y128.727 E33.54844
G1 X117.811 Y138.558 E34.05851
G1 X117.233 Y138.558 E34.08849
G1 X117.233 Y128.727 E34.59857
G1 X116.656 Y128.727 E34.62855
G1 X116.656 Y138.558 E35.13863
G1 X116.078 Y138.558 E35.16861
G1 X116.078 Y128.727 E35.6787
G1 X115.5 Y128.727 E35.70868
G1 X115.5 Y138.558 E36.21878
G1 X114.922 Y138.558 E36.24875
G1 X114.922 Y128.727 E36.75886
G1 X114.344 Y128.727 E36.78884
G1 X114.344 Y138.558 E37.29895
G1 X113.767 Y138.558 E37.32892
G1 X113.767 Y128.727 E37.83904
G1 X113.189 Y128.726 E37.86902
G1 X113.189 Y138.558 E38.37914
G1 X112.611 Y138.558 E38.40912
G1 X112.611 Y128.726 E38.91925
G1 X112.033 Y128.726 E38.94923
G1 X112.033 Y138.558 E39.45936
G1 X111.456 Y138.558 E39.48934
G1 X111.456 Y128.726 E39.99948
G1 X110.878 Y128.726 E40.02946
G1 X110.878 Y136.247 E40.41968
G1 X110.3 Y136.247 E40.44966
G1 X110.3 Y128.726 E40.83989
G1 X109.722 Y128.726 E40.86987
G1 X109.722 Y136.247 E41.26011
G1 X109.144 Y136.247 E41.29008
G1 X109.144 Y128.502 E41.69193
G92 E0
;WIPE_START
G1 F14400
G1 X109.144 Y133.988 E-0.76
;WIPE_END
G1 E-0.8 F2100
G1 Z0.64 F18000
; acceleration to travel
M204 S1500
G1 X129.629 Y103.522
; decel to extrusion
M204 S1000
G1 X134.567 Y96.178
; end travel
G1 Z0.24
G1 E0 F2100
G1 F1200
G1 X134.567 Y92.442 E0.19385
G1 X133.989 Y92.442 E0.22382
G1 X133.989 Y95.954 E0.40607
G1 X133.411 Y95.954 E0.43605
G1 X133.411 Y92.442 E0.61829
G1 X132.833 Y92.442 E0.64827
G1 X132.833 Y95.954 E0.83051
G1 X132.256 Y95.954 E0.86049
G1 X132.256 Y92.442 E1.04274
G1 X131.678 Y92.442 E1.07271
G1 X131.678 Y95.785 E1.24615
G1 X131.343 Y95.705 E1.264
G1 X131.1 Y95.69 E1.27664
G1 X131.1 Y92.442 E1.44517
G1 X130.522 Y92.442 E1.47514
G1 X130.522 Y95.69 E1.64367
G1 X129.944 Y95.69 E1.67365
G1 X129.944 Y92.218 E1.85378
G92 E0
;WIPE_START
G1 F14400
G1 X129.944 Y95.69 E-0.48097
G1 X130.522 Y95.69 E-0.56102
G1 X130.522 Y94.254 E-0.76
;WIPE_END
G1 E-0.8 F2100
G1 Z0.64 F18000
; acceleration to travel
M204 S1500
G1 X126.82 Y99.958
; decel to extrusion
M204 S1000
G1 X125.928 Y101.334
; end travel
G1 Z0.24
G1 E0 F2100
G1 F1200
G1 X125.914 Y101.375 E0.00227
G1 X123.417 Y108.759 E0.40669
G1 X108.268 Y111.474 E1.20528
G1 X108.268 Y101.334 E1.73142
G1 X125.868 Y101.334 E2.64463
G1 X125.322 Y102.719 F18000
G1 F1200
G1 X125.322 Y101.687 E2.69817
G1 X124.744 Y101.687 E2.72815
G1 X124.744 Y103.73 E2.83413
G1 X124.167 Y105.439 E2.92773
G1 X124.167 Y101.687 E3.12239
G1 X123.589 Y101.687 E3.15236
G1 X123.589 Y107.148 E3.43569
G1 X123.149 Y108.448 E3.50688
G1 X123.011 Y108.472 E3.51417
G1 X123.011 Y101.687 E3.86623
G1 X122.433 Y101.687 E3.89621
G1 X122.433 Y108.576 E4.25363
G1 X121.856 Y108.679 E4.28409
G1 X121.856 Y101.687 E4.64689
G1 X121.278 Y101.687 E4.67687
G1 X121.278 Y108.783 E5.04504
G1 X120.7 Y108.887 E5.0755
G1 X120.7 Y101.687 E5.44905
G1 X120.122 Y101.687 E5.47903
G1 X120.122 Y108.99 E5.85795
G1 X119.544 Y109.094 E5.8884
G1 X119.544 Y101.687 E6.27269
G1 X118.967 Y101.687 E6.30267
G1 X118.967 Y109.197 E6.69234
G1 X118.389 Y109.301 E6.72279
G1 X118.389 Y101.687 E7.11783
G1 X117.811 Y101.687 E7.14781
G1 X117.811 Y109.404 E7.54822
G1 X117.233 Y109.508 E7.57868
G1 X117.233 Y101.687 E7.98447
G1 X116.656 Y101.687 E8.01444
G1 X116.656 Y109.611 E8.4256
G1 X116.078 Y109.715 E8.45606
G1 X116.078 Y101.687 E8.87259
G1 X115.5 Y101.687 E8.90257
G1 X115.5 Y109.819 E9.32447
G1 X114.922 Y109.922 E9.35493
G1 X114.922 Y101.687 E9.7822
G1 X114.344 Y101.687 E9.81218
G1 X114.344 Y110.026 E10.24483
G1 X113.767 Y110.129 E10.27529
G1 X113.767 Y101.687 E10.71331
G1 X113.189 Y101.687 E10.74329
G1 X113.189 Y110.233 E11.18669
G1 X112.611 Y110.336 E11.21714
G1 X112.611 Y101.687 E11.66591
G1 X112.033 Y101.687 E11.69589
G1 X112.033 Y110.44 E12.15003
G1 X111.456 Y110.543 E12.18049
G1 X111.456 Y101.687 E12.64
G1 X110.878 Y101.687 E12.66998
G1 X110.878 Y110.647 E13.13487
G1 X110.3 Y110.751 E13.16532
G1 X110.3 Y101.687 E13.63559
G1 X109.722 Y101.687 E13.66556
G1 X109.722 Y110.854 E14.1412
G1 X109.144 Y110.958 E14.17165
G1 X109.144 Y101.464 E14.66426
G92 E0
;WIPE_START
G1 F14400
G1 X109.144 Y106.949 E-0.76
;WIPE_END
G1 E-0.8 F2100
G1 Z0.64 F18000
; acceleration to travel
M204 S1500
G1 X125.345 Y99.884
; decel to extrusion
M204 S1000
G1 X129.25 Y98.181
; end travel
G1 Z0.24
G1 E0 F2100
;TYPE:Internal perimeter
G1 F1200
G1 X130.048 Y98.181 E0.04138
G1 X130.058 Y100.843 E0.17953
G1 X130.058 Y120.633 E1.20636
G1 X130.122 Y123.801 E1.37076
G1 X130.121 Y126.239 E1.49725
G1 X83.43 Y126.229 E3.91982
G1 X82.985 Y126.176 E3.94308
G1 X82.613 Y126.04 E3.96363
G1 X82.23 Y125.795 E3.9872
G1 X81.851 Y125.432 E4.01446
G1 X81.499 Y124.949 E4.04545
G1 X81.197 Y124.36 E4.0798
G1 X80.967 Y123.684 E4.11685
G1 X80.823 Y122.948 E4.15579
G1 X80.779 Y122.269 E4.19107
G1 X81.461 Y122.951 E4.24109
G1 X81.88 Y123.244 E4.2676
G1 X82.342 Y123.459 E4.2941
G1 X82.836 Y123.592 E4.3206
G1 X83.345 Y123.636 E4.34712
G1 X83.854 Y123.592 E4.37364
G1 X84.348 Y123.459 E4.40014
G1 X84.81 Y123.244 E4.42664
G1 X85.229 Y122.951 E4.45315
G1 X85.591 Y122.589 E4.47968
G1 X85.884 Y122.17 E4.50619
G1 X86.099 Y121.708 E4.53269
G1 X86.232 Y121.214 E4.55919
G1 X86.276 Y120.705 E4.58571
G1 X86.232 Y120.196 E4.61223
G1 X86.099 Y119.702 E4.63874
G1 X85.884 Y119.24 E4.66523
G1 X85.591 Y118.821 E4.69175
G1 X85.229 Y118.459 E4.71828
G1 X84.45 Y117.914 E4.76762
G1 X125.038 Y110.64 E6.9071
G1 X129.231 Y98.237 E7.5864
G1 X128.641 Y98.359 F18000
G1 F1200
G1 X128.646 Y98.344 E7.58726
G1 X127.806 Y97.996 E7.63445
G1 X127.872 Y97.661 E7.65216
G1 X130.566 Y97.661 E7.79192
G1 X130.578 Y100.842 E7.957
G1 X130.578 Y120.628 E8.9836
G1 X130.642 Y123.796 E9.14802
G1 X130.64 Y126.759 E9.30175
G1 X83.399 Y126.749 E11.7529
G1 X82.863 Y126.685 E11.78092
G1 X82.381 Y126.508 E11.80755
G1 X81.907 Y126.206 E11.83671
G1 X81.458 Y125.775 E11.869
G1 X81.054 Y125.223 E11.9045
G1 X80.717 Y124.563 E11.94294
G1 X80.463 Y123.818 E11.98377
G1 X80.306 Y123.014 E12.02628
G1 X80.253 Y122.18 E12.06966
