; generated by SuperSlicer 2.5.59 on 2023-10-13 at 10:42:57 UTC


;
;

;
;
; 

; external perimeters extrusion width = 0.46mm
; perimeters extrusion width = 0.48mm
; infill extrusion width = 0.46mm
; solid infill extrusion width = 0.48mm
; top infill extrusion width = 0.46mm
; support material extrusion width = 0.38mm
; first layer extrusion width = 0.56mm

; object:{"name":"BLTouch_Wing_Medium","id":"BLTouch_Wing_Medium.stl id:0 copy 0","object_center":[115.500000,115.500000,0.000000],"boundingbox_center":[115.500000,115.500000,11.383499],"boundingbox_size":[37.083008,10.446991,22.766998]}
EXCLUDE_OBJECT_DEFINE NAME=BLTouch_Wing_Medium_stl_id_0_copy_0 CENTER=115.500000,115.500000 POLYGON=[[96.958496,111.605496],[98.477496,110.276504],[102.957504,110.276504],[107.182504,110.297504],[134.041504,117.723496],[134.041504,120.723496],[107.690496,120.723496],[96.958496,116.325504],[96.958496,111.605496]]
; plater:{"center":[115.500000,115.500000,0.000000],"boundingbox_center":[115.500000,115.500000,11.383499],"boundingbox_size":[37.083008,10.446991,22.766998]}

;TYPE:Custom
SET_PRINT_STATS_INFO TOTAL_LAYER=85

PRINT_START BED=60 EXTRUDER=215 CHAMBER=0 SIZE=93.3029_106.621_142.572_128.704 MATERIAL=PLA
; Filament gcode
SET_PRESSURE_ADVANCE ADVANCE=0.08
;_TOOLCHANGE 0
M107
;LAYER_CHANGE
;Z:0.2
;HEIGHT:0.2

G1 E-0.8 F2100
G1 Z0.4 F18000
SET_PRINT_STATS_INFO CURRENT_LAYER=1

G92 E0
G1 Z0.6
M204 S2000
G1 X95.228 Y108.843
G1 Z0.2
G1 E0.8 F2100
;TYPE:Skirt
;WIDTH:0.48
G1 F1200
G1 X94.839 Y109.183 E0.8184
G1 X94.134 Y110.063 E0.85856
G1 X93.74 Y111.606 E0.91527
G1 X93.74 Y116.326 E1.08338
G1 X94.404 Y118.283 E1.15698
G1 X101.086 Y127.005 E1.54833
G1 X102.098 Y127.873 E1.59581
G1 X103.641 Y128.267 E1.65252
G1 X138.916 Y128.267 E2.9089
G1 X140.656 Y127.756 E2.97348
G1 X141.741 Y126.591 E3.03019
G1 X142.135 Y125.048 E3.08689
G1 X142.135 Y112.886 E3.52007
G1 X141.843 Y111.547 E3.56889
G1 X140.843 Y110.308 E3.62559
G1 X139.371 Y109.7 E3.6823
G1 X123.192 Y107.388 E4.2644
G1 X107.24 Y107.079 E4.83266
G1 X102.973 Y107.058 E4.98461
G1 X98.478 Y107.058 E5.14474
G1 X96.358 Y107.854 E5.22538
G1 X95.273 Y108.804 E5.27673
M104 S215 ; set temperature
G92 E0
;WIPE_START
G1 F14400
G1 X96.358 Y107.854 E-0.19974
G1 X98.478 Y107.058 E-0.51339
G1 X100.258 Y107.058 E-0.76
;WIPE_END
G1 E-0.8 F2100
G1 Z0.6 F18000
; printing object BLTouch_Wing_Medium.stl id:0 copy 0
EXCLUDE_OBJECT_START NAME=BLTouch_Wing_Medium_stl_id_0_copy_0
; acceleration to travel
M204 S3000
G1 X102.983 Y115.1
; decel to extrusion
M204 S2000
G1 X103.641 Y117.039
; end travel
G1 Z0.2
G1 E0 F2100
;TYPE:Support material
;WIDTH:0.56292
G1 F1200
G1 X107.913 Y117.037 E0.18106
G1 X108.392 Y116.558 E0.20974
G1 X108.392 Y110.575 E0.46328
G1 X122.737 Y110.575 E1.07112
G1 X122.737 Y112.886 E1.16906
G1 X138.916 Y112.886 E1.85463
G1 X138.916 Y125.048 E2.36998
G1 X103.641 Y125.048 E3.86472
G1 X103.641 Y117.099 E4.20154
; acceleration to travel
M204 S3000
G1 X124.276 Y121.791 F18000
; decel to extrusion
M204 S2000
G1 X138.033 Y124.918
; end travel
G1 F1200
G1 X138.033 Y113.239 E4.6964
G1 X137.456 Y113.239 E4.72088
G1 X137.456 Y124.694 E5.20627
G1 X136.878 Y124.694 E5.23075
G1 X136.878 Y113.239 E5.71614
G1 X136.3 Y113.239 E5.74062
G1 X136.3 Y124.694 E6.22601
G1 X135.722 Y124.694 E6.25049
G1 X135.722 Y113.239 E6.73587
G1 X135.144 Y113.239 E6.76036
G1 X135.144 Y124.694 E7.24574
G1 X134.567 Y124.694 E7.27023
G1 X134.567 Y113.239 E7.75561
G1 X133.989 Y113.239 E7.78009
G1 X133.989 Y124.694 E8.26548
G1 X133.411 Y124.694 E8.28996
G1 X133.411 Y113.239 E8.77535
G1 X132.833 Y113.239 E8.79983
G1 X132.833 Y124.694 E9.28522
G1 X132.256 Y124.694 E9.3097
G1 X132.256 Y113.239 E9.79509
G1 X131.678 Y113.239 E9.81957
G1 X131.678 Y124.694 E10.30496
G1 X131.1 Y124.694 E10.32944
G1 X131.1 Y113.239 E10.81483
G1 X130.522 Y113.239 E10.83931
G1 X130.522 Y124.694 E11.3247
G1 X129.944 Y124.694 E11.34918
G1 X129.944 Y113.239 E11.83457
G1 X129.367 Y113.239 E11.85905
G1 X129.367 Y124.694 E12.34443
G1 X128.789 Y124.694 E12.36892
G1 X128.789 Y113.239 E12.8543
G1 X128.211 Y113.239 E12.87879
G1 X128.211 Y124.694 E13.36417
G1 X127.633 Y124.694 E13.38865
G1 X127.633 Y113.239 E13.87404
G1 X127.056 Y113.239 E13.89852
G1 X127.056 Y124.694 E14.38391
G1 X126.478 Y124.694 E14.40839
G1 X126.478 Y113.239 E14.89378
G1 X125.9 Y113.239 E14.91826
G1 X125.9 Y124.694 E15.40365
G1 X125.322 Y124.694 E15.42813
G1 X125.322 Y113.239 E15.91352
G1 X124.744 Y113.239 E15.938
G1 X124.744 Y124.694 E16.42339
G1 X124.167 Y124.694 E16.44787
G1 X124.167 Y113.239 E16.93326
G1 X123.589 Y113.239 E16.95774
G1 X123.589 Y124.694 E17.44312
G1 X123.011 Y124.694 E17.46761
G1 X123.011 Y113.239 E17.95299
G1 X122.433 Y113.239 E17.97748
G1 X122.433 Y124.694 E18.46286
G1 X121.856 Y124.694 E18.48735
G1 X121.856 Y110.928 E19.07067
G1 X121.278 Y110.928 E19.09515
G1 X121.278 Y124.694 E19.67848
G1 X120.7 Y124.694 E19.70296
G1 X120.7 Y110.928 E20.28629
G1 X120.122 Y110.928 E20.31077
G1 X120.122 Y124.694 E20.89409
G1 X119.544 Y124.694 E20.91858
G1 X119.544 Y110.928 E21.5019
G1 X118.967 Y110.928 E21.52638
G1 X118.967 Y124.694 E22.10971
G1 X118.389 Y124.694 E22.13419
G1 X118.389 Y110.928 E22.71752
G1 X117.811 Y110.928 E22.742
G1 X117.811 Y124.694 E23.32532
G1 X117.233 Y124.694 E23.34981
G1 X117.233 Y110.928 E23.93313
G1 X116.656 Y110.928 E23.95761
G1 X116.656 Y124.694 E24.54094
G1 X116.078 Y124.694 E24.56542
G1 X116.078 Y110.928 E25.14875
G1 X115.5 Y110.928 E25.17323
G1 X115.5 Y124.694 E25.75656
G1 X114.922 Y124.694 E25.78104
G1 X114.922 Y110.928 E26.36436
G1 X114.344 Y110.928 E26.38885
G1 X114.344 Y124.694 E26.97217
G1 X113.767 Y124.694 E26.99665
G1 X113.767 Y110.928 E27.57998
G1 X113.189 Y110.928 E27.60446
G1 X113.189 Y124.694 E28.18779
G1 X112.611 Y124.694 E28.21227
G1 X112.611 Y110.928 E28.79559
G1 X112.033 Y110.928 E28.82008
G1 X112.033 Y124.694 E29.4034
G1 X111.456 Y124.694 E29.42788
G1 X111.456 Y110.928 E30.01121
G1 X110.878 Y110.928 E30.03569
G1 X110.878 Y124.694 E30.61902
G1 X110.3 Y124.694 E30.6435
G1 X110.3 Y110.928 E31.22682
G1 X109.722 Y110.928 E31.25131
G1 X109.722 Y124.694 E31.83463
G1 X109.144 Y124.694 E31.85911
G1 X109.144 Y110.928 E32.44244
G1 X108.746 Y110.928 E32.45934
G1 X108.746 Y116.704 E32.7041
G1 X108.567 Y116.883 E32.71483
G1 X108.567 Y124.694 E33.04581
G1 X107.989 Y124.694 E33.07029
G1 X107.989 Y117.39 E33.37978
G1 X107.411 Y117.391 E33.40427
G1 X107.411 Y124.694 E33.71375
G1 X106.833 Y124.694 E33.73823
G1 X106.833 Y117.391 E34.0477
G1 X106.256 Y117.391 E34.07218
G1 X106.256 Y124.694 E34.38164
G1 X105.678 Y124.694 E34.40612
G1 X105.678 Y117.392 E34.71556
G1 X105.1 Y117.392 E34.74005
G1 X105.1 Y124.694 E35.04947
G1 X104.522 Y124.694 E35.07396
G1 X104.522 Y117.169 E35.39284
G92 E0
;WIPE_START
G1 F14400
G1 X104.522 Y122.654 E-0.76
;WIPE_END
G1 E-0.8 F2100
G1 Z0.6 F18000
; acceleration to travel
M204 S3000
G1 X102.36 Y115.569
; decel to extrusion
M204 S2000
G1 X101.838 Y113.861
; end travel
G1 Z0.2
G1 E0 F2100
;TYPE:Internal perimeter
G1 F1200
G1 X99.596 Y113.863 E0.09501
G1 X100.088 Y112.738 E0.14702
G1 X101.347 Y112.738 E0.20038
G1 X101.814 Y113.806 E0.24979
G92 E0
;WIPE_START
G1 F14400
G1 X101.347 Y112.738 E-0.16154
G1 X100.088 Y112.738 E-0.33602
G1 X99.596 Y113.863 E-0.50606
G1 X101.429 Y113.862 E-0.76
;WIPE_END
G1 E-0.8 F2100
G1 Z0.6 F18000
; acceleration to travel
M204 S3000
G1 X104.711 Y113.641
; decel to extrusion
M204 S2000
G1 X105.502 Y113.588
; end travel
G1 Z0.2
G1 E0 F2100
G1 F1200
G1 X105.733 Y113.592 E0.0098
G1 X105.733 Y114.379 E0.04315
G1 X98.9 Y114.383 E0.33268
G1 X98.9 Y113.547 E0.36811
G1 X99.167 Y113.547 E0.3794
G1 X99.748 Y112.218 E0.44086
G1 X101.687 Y112.218 E0.52306
G1 X102.258 Y113.523 E0.58342
G1 X105.442 Y113.586 E0.71835
G1 X105.448 Y112.929 F18000
G1 F1200
G1 X105.922 Y111.846 E0.76845
G1 X106.253 Y111.915 E0.78277
G1 X106.253 Y114.899 E0.90921
G1 X98.38 Y114.903 E1.24281
G1 X98.38 Y113.027 E1.32231
G1 X98.826 Y113.027 E1.34123
G1 X99.407 Y111.698 E1.40269
G1 X102.028 Y111.698 E1.51371
G1 X102.601 Y113.01 E1.57439
G1 X105.388 Y113.065 E1.69251
G1 X105.424 Y112.984 E1.69628
G1 X105.081 Y112.47 F18000
G1 F1200
G1 X105.638 Y111.199 E1.75508
G1 X106.773 Y111.199 E1.80319
G1 X106.773 Y115.419 E1.98198
G1 X97.86 Y115.424 E2.35965
G1 X97.86 Y112.507 E2.48324
G1 X98.486 Y112.507 E2.50977
G1 X99.067 Y111.178 E2.57123
G1 X102.368 Y111.178 E2.71109
G1 X102.944 Y112.497 E2.77207
G1 X105.051 Y112.538 E2.86137
G1 X105.057 Y112.525 E2.86198
G1 X104.714 Y112.012 F18000
;TYPE:External perimeter
G1 F1200
G1 X105.298 Y110.679 E2.92363
G1 X107.018 Y110.679 E2.99653
G1 X107.293 Y110.969 E3.01346
G1 X107.293 Y115.938 E3.22402
G1 X97.34 Y115.944 E3.64576
G1 X97.34 Y111.987 E3.81342
G1 X98.146 Y111.987 E3.84758
G1 X98.727 Y110.658 E3.90904
G1 X102.708 Y110.658 E4.07772
G1 X102.747 Y110.747 E4.08185
G1 X103.287 Y111.983 E4.13901
G1 X104.654 Y112.01 E4.19695
;WIPE_START
G1 X105.098 Y112.123 F18000
;WIPE_END
G92 E0
;WIPE_START
G1 F14400
G1 X105.429 Y110.879 E-0.1783
G1 X106.932 Y110.879 E-0.38662
G1 X107.093 Y111.049 E-0.419
G1 X107.093 Y113.51 E-0.76
;WIPE_END
G1 E-0.8 F2100
G1 Z0.6 F18000
G1 X105.493 Y113.984
G1 Z0.2
G1 E0 F2100
;TYPE:Gap fill
;WIDTH:0.358478
G1 F1200
G1 X103.841 Y113.967 E0.0425
;WIDTH:0.419434
G1 X102.24 Y113.946 E0.09162
;WIDTH:0.358263
G1 X102.134 Y113.939 E0.09435
M106 S84.15
;LAYER_CHANGE
;Z:0.48
;HEIGHT:0.28

G92 E0
;WIPE_START
G1 F14400
G1 X102.24 Y113.946 E-0.01469
G1 X103.841 Y113.967 E-0.23649
G1 X105.493 Y113.984 E-0.46548
;WIPE_END
G1 E-0.8 F2100
G1 Z0.6 F18000
; stop printing object BLTouch_Wing_Medium.stl id:0 copy 0
EXCLUDE_OBJECT_END NAME=BLTouch_Wing_Medium_stl_id_0_copy_0
SET_PRINT_STATS_INFO CURRENT_LAYER=2

M104 S210 ; set temperature
M140 S60 ; set bed temperature
G92 E0
G1 Z0.88
; acceleration to travel
M204 S3000
G1 X105.521 Y108.414
; decel to extrusion
M204 S2000
G1 X105.528 Y107.071
; end travel
G1 Z0.48
G1 E0.8 F2100
;TYPE:Skirt
;WIDTH:0.48
G1 F1200
G1 X102.973 Y107.058 E0.92238
G1 X98.478 Y107.058 E1.13776
G1 X96.358 Y107.854 E1.24621
G1 X94.839 Y109.183 E1.3429
G1 X94.134 Y110.063 E1.39692
G1 X93.74 Y111.606 E1.47319
G1 X93.74 Y116.326 E1.6993
G1 X94.404 Y118.283 E1.79829
G1 X101.086 Y127.005 E2.32466
G1 X102.098 Y127.873 E2.38852
G1 X103.641 Y128.267 E2.46479
G1 X138.916 Y128.267 E4.15464
G1 X140.656 Y127.756 E4.2415
G1 X141.741 Y126.591 E4.31777
G1 X142.135 Y125.048 E4.39404
G1 X142.135 Y112.886 E4.97666
G1 X141.843 Y111.547 E5.04233
G1 X140.843 Y110.308 E5.1186
G1 X139.371 Y109.7 E5.19487
G1 X123.192 Y107.388 E5.97779
G1 X107.24 Y107.079 E6.74211
G1 X105.588 Y107.071 E6.82124
G92 E0
;WIPE_START
G1 F14400
G1 X107.24 Y107.079 E-0.22884
G1 X111.073 Y107.154 E-0.76
;WIPE_END
G1 E-0.8 F2100
G1 Z0.88 F18000
; printing object BLTouch_Wing_Medium.stl id:0 copy 0
EXCLUDE_OBJECT_START NAME=BLTouch_Wing_Medium_stl_id_0_copy_0
; acceleration to travel
M204 S3000
G1 X107.354 Y117.701
; decel to extrusion
M204 S2000
G1 X106.445 Y120.278
; end travel
G1 Z0.48
G1 E0 F2100
;TYPE:Support material
;WIDTH:0.38
G1 F2400
G1 X106.445 Y122.244 E0.07174
G1 X136.112 Y122.244 E1.15448
G1 X136.112 Y120.123 E1.2319
G1 X106.445 Y120.123 E2.31464
G1 X106.445 Y117.811 E2.399
G1 X110.687 Y117.811 E2.55384
G1 X110.687 Y118.001 E2.56077
G1 X115.69 Y118.001 E2.74335
G1 X115.69 Y117.811 E2.75028
G1 X136.112 Y117.811 E3.4956
G1 X136.112 Y115.69 E3.57303
G1 X119.933 Y115.69 E4.16351
G1 X119.933 Y115.5 E4.17044
G1 X115.69 Y115.5 E4.32528
G1 X115.69 Y115.31 E4.33222
G1 X110.687 Y115.31 E4.51479
G1 X110.687 Y115.5 E4.52173
G1 X108.296 Y115.5 E4.609
G92 E0
;WIPE_START
G1 F14400
G1 X110.687 Y115.5 E-0.33127
G1 X110.687 Y115.31 E-0.35759
G1 X113.592 Y115.31 E-0.76
;WIPE_END
G1 E-0.8 F2100
G1 Z0.88 F18000
; acceleration to travel
M204 S3000
G1 X104.421 Y113.658
; decel to extrusion
M204 S2000
G1 X102.186 Y113.255
; end travel
G1 Z0.48
G1 E0 F2100
;TYPE:Internal perimeter
;WIDTH:0.480089
G1 F2229.7495
G1 X102.287 Y113.487 E0.01212
G1 X105.774 Y113.547 E0.17922
G1 X105.774 Y114.421 E0.2211
G1 X98.859 Y114.424 E0.55247
G1 X98.859 Y113.506 E0.59649
G1 X99.14 Y113.506 E0.60995
G1 X99.721 Y112.177 E0.67945
G1 X101.714 Y112.177 E0.77499
G1 X102.162 Y113.2 E0.82852
G1 X102.488 Y112.898 F18000
G1 F2400
G1 X102.564 Y113.072 E0.8376
G1 X105.428 Y113.121 E0.97483
G1 X105.927 Y111.98 E1.03448
G1 X106.194 Y112.036 E1.04755
G1 X106.194 Y114.84 E1.18191
G1 X98.439 Y114.845 E1.55352
G1 X98.439 Y113.086 E1.63781
G1 X98.865 Y113.086 E1.65823
G1 X99.446 Y111.757 E1.72773
G1 X101.989 Y111.757 E1.84959
G1 X102.464 Y112.843 E1.90642
G1 X102.791 Y112.541 F18000
G1 F2400
G1 X102.841 Y112.656 E1.91244
G1 X105.155 Y112.696 E2.02335
G1 X105.742 Y111.358 E2.09336
G1 X106.614 Y111.358 E2.13519
G1 X106.614 Y115.26 E2.32217
G1 X98.019 Y115.265 E2.73404
G1 X98.019 Y112.666 E2.85858
G1 X98.59 Y112.666 E2.88596
G1 X99.171 Y111.337 E2.95546
G1 X102.264 Y111.337 E3.10365
G1 X102.767 Y112.486 E3.16377
G1 X103.093 Y112.184 F18000
G1 F2400
G1 X103.118 Y112.241 E3.16675
G1 X104.883 Y112.271 E3.25133
G1 X105.467 Y110.938 E3.32109
G1 X106.907 Y110.938 E3.3901
G1 X107.034 Y111.072 E3.39897
G1 X107.034 Y115.68 E3.61975
G1 X97.599 Y115.685 E4.07186
G1 X97.599 Y112.246 E4.23667
G1 X98.315 Y112.246 E4.27101
G1 X98.896 Y110.917 E4.3405
G1 X102.539 Y110.917 E4.51503
G1 X102.653 Y111.177 E4.52867
G1 X103.069 Y112.129 E4.57844
G1 X103.388 Y111.836 F18000
;TYPE:External perimeter
;WIDTH:0.460089
G1 F1500
G1 X104.617 Y111.857 E4.63453
G1 X105.199 Y110.528 E4.70073
G1 X107.084 Y110.528 E4.78674
G1 X107.444 Y110.909 E4.81069
G1 X107.444 Y116.09 E5.04711
G1 X97.189 Y116.095 E5.51511
G1 X97.189 Y111.836 E5.70949
G1 X98.047 Y111.836 E5.74867
G1 X98.628 Y110.507 E5.81486
G1 X102.807 Y110.507 E6.00556
G1 X103.028 Y111.013 E6.03079
G1 X103.364 Y111.781 E6.06901
;WIPE_START
G1 X103.438 Y112.232 F18000
;WIPE_END
G92 E0
;WIPE_START
G1 F14400
G1 X104.747 Y112.059 E-0.18285
G1 X105.33 Y110.728 E-0.3842
G1 X106.997 Y110.728 E-0.61526
G1 X107.244 Y110.988 E-0.66502
G1 X107.244 Y111.674 E-0.76
;WIPE_END
G1 E-0.8 F2100
G1 Z0.88 F18000
; acceleration to travel
M204 S3000
G1 X102.761 Y113.782
; decel to extrusion
M204 S2000
G1 X101.665 Y114.297
; end travel
G1 Z0.48
G1 E0 F2100
;TYPE:Solid infill
;WIDTH:0.624115
G1 F2400
G1 X102.112 Y113.85 E0.03932
G1 X101.931 Y113.437 E0.06741
G1 X101.252 Y114.116 E0.12725
G1 X100.658 Y114.117 E0.16427
G1 X101.75 Y113.024 E0.26053
G1 X101.57 Y112.611 E0.28863
G1 X100.063 Y114.117 E0.42133
G1 X99.469 Y114.117 E0.45835
G1 X101.103 Y112.483 E0.60232
G1 X100.509 Y112.483 E0.63931
G1 X99.114 Y113.878 E0.76222
G92 E0
;WIPE_START
G1 F14400
G1 X100.509 Y112.483 E-0.27337
G1 X101.103 Y112.483 E-0.35566
G1 X99.469 Y114.117 E-0.67587
G1 X100.063 Y114.117 E-0.7582
G1 X100.072 Y114.108 E-0.76
;WIPE_END
G1 E-0.8 F2100
G1 Z0.88 F18000
; acceleration to travel
M204 S3000
G1 X104.493 Y114.007
; decel to extrusion
M204 S2000
G1 X105.564 Y113.983
; end travel
G1 Z0.48
G1 E0 F2100
;TYPE:Gap fill
;WIDTH:0.521762
G1 F1800
G1 X103.983 Y113.969 E0.08327
;WIDTH:0.578373
G1 X102.566 Y113.947 E0.16707
;WIDTH:0.626631
G1 X102.361 Y113.916 E0.18052
M106 S170.85
;LAYER_CHANGE
;Z:0.76
;HEIGHT:0.28

G92 E0
;WIPE_START
G1 F14400
G1 X102.566 Y113.947 E-0.02884
G1 X103.983 Y113.969 E-0.22518
G1 X105.564 Y113.983 E-0.44423
;WIPE_END
G1 E-0.8 F2100
G1 Z0.88 F18000
; stop printing object BLTouch_Wing_Medium.stl id:0 copy 0
EXCLUDE_OBJECT_END NAME=BLTouch_Wing_Medium_stl_id_0_copy_0
SET_PRINT_STATS_INFO CURRENT_LAYER=3

G92 E0
G1 Z1.16
; printing object BLTouch_Wing_Medium.stl id:0 copy 0
EXCLUDE_OBJECT_START NAME=BLTouch_Wing_Medium_stl_id_0_copy_0
; acceleration to travel
M204 S3000
G1 X106.272 Y119.042
; decel to extrusion
M204 S2000
G1 X106.445 Y120.278
; end travel
G1 Z0.76
G1 E0.8 F2100
;TYPE:Support material
;WIDTH:0.38
G1 F1406
G1 X106.445 Y122.244 E0.87174
G1 X136.112 Y122.244 E1.95448
G1 X136.112 Y120.123 E2.0319
G1 X106.445 Y120.123 E3.11464
G1 X106.445 Y117.811 E3.199
G1 X110.687 Y117.811 E3.35384
G1 X110.687 Y118.001 E3.36077
G1 X115.69 Y118.001 E3.54335
G1 X115.69 Y117.811 E3.55028
G1 X136.112 Y117.811 E4.2956
G1 X136.112 Y115.69 E4.37303
G1 X119.933 Y115.69 E4.96351
