; generated by SuperSlicer 2.5.59 on 2023-10-21 at 03:05:15 UTC


;
;

;
;
; 

; external perimeters extrusion width = 0.44mm
; perimeters extrusion width = 0.46mm
; infill extrusion width = 0.44mm
; solid infill extrusion width = 0.46mm
; top infill extrusion width = 0.44mm
; first layer extrusion width = 0.57mm

; object:{"name":"CableClipExtra","id":"CableClipExtra.stl id:0 copy 0","object_center":[104.750000,100.000000,0.000000],"boundingbox_center":[104.750000,100.000000,5.000000],"boundingbox_size":[9.500000,19.000000,10.000000]}
EXCLUDE_OBJECT_DEFINE NAME=CableClipExtra_stl_id_0_copy_0 CENTER=104.750000,100.000000 POLYGON=[[100.000000,91.500000],[104.100000,90.500000],[104.600000,90.500000],[106.500000,91.500000],[109.500000,94.500000],[109.500000,105.500000],[106.500000,108.500000],[104.600000,109.500000],[104.100000,109.500000],[100.000000,108.500000],[100.000000,91.500000]]
; object:{"name":"CableClipExtra","id":"CableClipExtra.stl id:0 copy 1","object_center":[120.250000,100.000000,0.000000],"boundingbox_center":[120.250000,100.000000,5.000000],"boundingbox_size":[9.500000,19.000000,10.000000]}
EXCLUDE_OBJECT_DEFINE NAME=CableClipExtra_stl_id_0_copy_1 CENTER=120.250000,100.000000 POLYGON=[[115.500000,91.500000],[119.600000,90.500000],[120.100000,90.500000],[122.000000,91.500000],[125.000000,94.500000],[125.000000,105.500000],[122.000000,108.500000],[120.100000,109.500000],[119.600000,109.500000],[115.500000,108.500000],[115.500000,91.500000]]
; object:{"name":"CableClipExtra","id":"CableClipExtra.stl id:0 copy 2","object_center":[104.750000,125.000000,0.000000],"boundingbox_center":[104.750000,125.000000,5.000000],"boundingbox_size":[9.500000,19.000000,10.000000]}
EXCLUDE_OBJECT_DEFINE NAME=CableClipExtra_stl_id_0_copy_2 CENTER=104.750000,125.000000 POLYGON=[[100.000000,116.500000],[104.100000,115.500000],[104.600000,115.500000],[106.500000,116.500000],[109.500000,119.500000],[109.500000,130.500000],[106.500000,133.500000],[104.600000,134.500000],[104.100000,134.500000],[100.000000,133.500000],[100.000000,116.500000]]
; object:{"name":"CableClipExtra","id":"CableClipExtra.stl id:0 copy 3","object_center":[120.250000,125.000000,0.000000],"boundingbox_center":[120.250000,125.000000,5.000000],"boundingbox_size":[9.500000,19.000000,10.000000]}
EXCLUDE_OBJECT_DEFINE NAME=CableClipExtra_stl_id_0_copy_3 CENTER=120.250000,125.000000 POLYGON=[[115.500000,116.500000],[119.600000,115.500000],[120.100000,115.500000],[122.000000,116.500000],[125.000000,119.500000],[125.000000,130.500000],[122.000000,133.500000],[120.100000,134.500000],[119.600000,134.500000],[115.500000,133.500000],[115.500000,116.500000]]
; plater:{"center":[112.500000,112.500000,0.000000],"boundingbox_center":[112.500000,112.500000,5.000000],"boundingbox_size":[25.000000,44.000000,10.000000]}

;TYPE:Custom
SET_PRINT_STATS_INFO TOTAL_LAYER=50

PRINT_START BED=60 EXTRUDER=215 CHAMBER=0 SIZE=96.3605_86.8605_128.64_138.14 MATERIAL=PLA
; Filament gcode
SET_PRESSURE_ADVANCE ADVANCE=0.08
;_TOOLCHANGE 0
M107
;LAYER_CHANGE
;Z:0.24
;HEIGHT:0.24

G1 E-0.8 F2100
G1 Z0.4 F18000
SET_PRINT_STATS_INFO CURRENT_LAYER=1

G92 E0
G1 Z0.64
M204 S1000
G1 X97.181 Y89.959
G1 Z0.24
G1 E0.8 F2100
;TYPE:Skirt
;WIDTH:0.48
G1 F1200
G1 X96.787 Y91.5 E0.86665
G1 X96.787 Y133.5 E2.62647
G1 X96.961 Y134.544 E2.67083
G1 X97.835 Y135.874 E2.73748
G1 X99.239 Y136.622 E2.80414
G1 X103.339 Y137.622 E2.98097
G1 X104.1 Y137.713 E3.0131
G1 X120.1 Y137.713 E3.6835
G1 X121.597 Y137.343 E3.74809
G1 X123.497 Y136.343 E3.83806
G1 X124.272 Y135.772 E3.87842
G1 X127.272 Y132.772 E4.05619
G1 X127.819 Y132.041 E4.09444
G1 X128.213 Y130.5 E4.1611
G1 X128.213 Y94.5 E5.66951
G1 X128.083 Y93.596 E5.70777
G1 X127.272 Y92.228 E5.77442
G1 X124.272 Y89.228 E5.95219
G1 X123.497 Y88.657 E5.99255
G1 X121.597 Y87.657 E6.08251
G1 X120.1 Y87.287 E6.1471
G1 X104.1 Y87.287 E6.81751
G1 X103.339 Y87.378 E6.84964
G1 X99.239 Y88.378 E7.02647
G1 X98.265 Y88.795 E7.07083
G1 X97.222 Y89.915 E7.13497
M104 S215 ; set temperature
G92 E0
;WIPE_START
G1 F14400
G1 X98.265 Y88.795 E-0.21208
G1 X99.239 Y88.378 E-0.35876
G1 X102.052 Y87.692 E-0.76
;WIPE_END
G1 E-0.8 F2100
G1 Z0.64 F18000
; printing object CableClipExtra.stl id:0 copy 0
EXCLUDE_OBJECT_START NAME=CableClipExtra_stl_id_0_copy_0
; acceleration to travel
M204 S1500
G1 X106.376 Y93.121
; decel to extrusion
M204 S1000
G1 X107.419 Y94.43
; end travel
G1 Z0.24
G1 E0 F2100
;TYPE:Internal perimeter
;WIDTH:0.563988
G1 F1200
G1 X108.078 Y95.089 E0.04673
G1 X108.078 Y95.588 E0.07176
G1 X107.837 Y95.423 E0.08638
G1 X107.42 Y95.235 E0.10933
G1 X107.419 Y94.49 E0.14668
G92 E0
;WIPE_START
G1 F14400
G1 X107.42 Y95.235 E-0.10325
G1 X107.837 Y95.423 E-0.1667
G1 X108.078 Y95.588 E-0.20712
G1 X108.078 Y95.089 E-0.2763
G1 X107.419 Y94.43 E-0.4055
;WIPE_END
G1 E-0.8 F2100
G1 Z0.64 F18000
; acceleration to travel
M204 S1500
G1 X102.928 Y92.788
; decel to extrusion
M204 S1000
G1 X101.846 Y92.392
; end travel
G1 Z0.24
G1 E0 F2100
;WIDTH:0.544841
G1 F1200
G1 X101.25 Y92.988 E0.04063
G1 X100.892 Y92.63 E0.06502
G1 X100.892 Y92.392 E0.0765
G1 X101.786 Y92.392 E0.11958
G92 E0
;WIPE_START
G1 F14400
G1 X100.892 Y92.392 E-0.12373
G1 X100.892 Y92.63 E-0.15669
G1 X101.25 Y92.988 E-0.22675
G1 X101.846 Y92.392 E-0.34343
;WIPE_END
G1 E-0.8 F2100
G1 Z0.64 F18000
; acceleration to travel
M204 S1500
G1 X106.867 Y102.075
; decel to extrusion
M204 S1000
G1 X108.078 Y104.409
; end travel
G1 Z0.24
G1 E0 F2100
;WIDTH:0.563995
G1 F1200
G1 X108.078 Y104.911 E0.02517
G1 X107.419 Y105.57 E0.0719
G1 X107.42 Y104.804 E0.11032
G1 X107.75 Y104.631 E0.12899
G1 X108.028 Y104.442 E0.14584
G92 E0
;WIPE_START
G1 F14400
G1 X107.75 Y104.631 E-0.04658
G1 X107.42 Y104.804 E-0.0982
G1 X107.419 Y105.57 E-0.20441
G1 X108.078 Y104.911 E-0.3336
G1 X108.078 Y104.409 E-0.40318
;WIPE_END
G1 E-0.8 F2100
G1 Z0.64 F18000
; acceleration to travel
M204 S1500
G1 X103.056 Y106.986
; decel to extrusion
M204 S1000
G1 X101.846 Y107.608
; end travel
G1 Z0.24
G1 E0 F2100
;WIDTH:0.544841
G1 F1200
G1 X100.892 Y107.608 E0.04598
G1 X100.892 Y107.37 E0.05746
G1 X101.25 Y107.012 E0.08185
G1 X101.803 Y107.565 E0.11958
G92 E0
;WIPE_START
G1 F14400
G1 X101.25 Y107.012 E-0.10836
G1 X100.892 Y107.37 E-0.17842
G1 X100.892 Y107.608 E-0.21139
G1 X101.846 Y107.608 E-0.34343
;WIPE_END
G1 E-0.8 F2100
G1 Z0.64 F18000
; acceleration to travel
M204 S1500
G1 X105.683 Y107.174
; decel to extrusion
M204 S1000
G1 X106.608 Y107.07
; end travel
G1 Z0.24
G1 E0 F2100
;WIDTH:0.629878
G1 F1200
G1 X106.709 Y106.827 E0.01487
;WIDTH:0.571503
G1 X106.81 Y106.585 E0.02823
G1 X106.902 Y106.108 E0.05294
G1 X106.904 Y104.374 E0.14111
G1 X107.39 Y104.233 E0.16684
G1 X107.833 Y103.949 E0.19358
G1 X108.16 Y103.592 E0.21821
G1 X108.349 Y103.247 E0.23819
G1 X108.359 Y103.099 E0.24575
;WIDTH:0.517566
G1 X108.369 Y102.951 E0.25252
;WIDTH:0.463628
G1 X108.378 Y102.802 E0.25851
;WIDTH:0.409691
G1 X108.388 Y102.654 E0.26372
;WIDTH:0.355779
G1 X108.397 Y97.276 E0.42374
;WIDTH:0.467072
G1 X108.397 Y97.059 E0.43256
G1 X108.373 Y96.906 E0.43886
;WIDTH:0.571503
G1 X108.349 Y96.753 E0.44674
G1 X108.232 Y96.53 E0.45951
G1 X107.979 Y96.195 E0.48085
G1 X107.798 Y96.022 E0.49362
G1 X107.392 Y95.768 E0.51798
G1 X106.904 Y95.627 E0.54378
G1 X106.902 Y93.892 E0.63195
G1 X106.811 Y93.418 E0.65651
G1 X106.647 Y93.101 E0.67464
;WIDTH:0.60114
G1 X106.483 Y92.785 E0.69381
G1 X106.652 Y92.943 E0.70627
;WIDTH:0.571503
G1 X108.594 Y94.875 E0.84555
G1 X108.594 Y96.713 E0.93899
G1 X108.615 Y96.813 E0.94418
;WIDTH:0.520379
G1 X108.635 Y96.913 E0.94886
;WIDTH:0.469254
G1 X108.656 Y97.013 E0.95303
;WIDTH:0.418129
G1 X108.676 Y97.113 E0.95669
;WIDTH:0.366989
G1 X108.696 Y97.213 E0.95984
G1 X108.702 Y97.493 E0.96849
G1 X108.702 Y102.506 E1.12313
G1 X108.697 Y102.787 E1.1318
G1 X108.676 Y102.887 E1.13496
;WIDTH:0.418118
G1 X108.656 Y102.987 E1.13862
;WIDTH:0.469246
G1 X108.635 Y103.087 E1.14279
;WIDTH:0.520375
G1 X108.615 Y103.187 E1.14747
;WIDTH:0.571503
G1 X108.594 Y103.287 E1.15267
G1 X108.594 Y105.125 E1.2461
G1 X107.018 Y106.701 E1.35942
G1 X106.813 Y106.885 E1.37346
;WIDTH:0.629878
G1 X106.652 Y107.03 E1.38568
G92 E0
;WIPE_START
G1 F14400
G1 X106.813 Y106.885 E-0.02994
G1 X107.018 Y106.701 E-0.0682
G1 X108.594 Y105.125 E-0.37695
G1 X108.594 Y103.287 E-0.63151
G1 X108.615 Y103.187 E-0.64566
G1 X108.635 Y103.087 E-0.65982
G1 X108.656 Y102.987 E-0.67397
G1 X108.676 Y102.887 E-0.68812
G1 X108.697 Y102.787 E-0.70227
G1 X108.702 Y102.506 E-0.74123
G1 X108.702 Y102.37 E-0.76
;WIPE_END
G1 E-0.8 F2100
G1 Z0.64 F18000
; acceleration to travel
M204 S1500
G1 X105.269 Y107.09
; decel to extrusion
M204 S1000
G1 X104.441 Y108.228
; end travel
G1 Z0.24
G1 E0 F2100
;TYPE:External perimeter
;WIDTH:0.571503
G1 F1200
G1 X104.333 Y108.145 E0.00692
;WIDTH:0.675711
G1 X104.226 Y108.061 E0.01524
G1 X102.448 Y108.062 E0.12375
G1 X102.189 Y108.088 E0.13961
;WIDTH:0.571503
G1 X101.931 Y108.114 E0.15282
G1 X100.386 Y108.114 E0.23139
G1 X100.386 Y107.16 E0.27992
G1 X101.16 Y106.386 E0.33558
G1 X101.34 Y106.386 E0.34476
G1 X102.264 Y107.31 E0.4112
G1 X102.356 Y107.374 E0.41691
;WIDTH:0.677154
G1 X102.449 Y107.438 E0.42378
G1 X104.225 Y107.436 E0.53248
G1 X104.557 Y107.409 E0.55285
;WIDTH:0.571503
G1 X104.889 Y107.382 E0.56978
G1 X105.025 Y107.407 E0.57682
;WIDTH:0.684749
G1 X105.161 Y107.433 E0.5854
G1 X105.266 Y107.421 E0.5919
;WIDTH:0.714849
G1 X105.37 Y107.409 E0.59872
G1 X105.452 Y107.358 E0.60499
;WIDTH:0.672739
G1 X105.534 Y107.307 E0.61087
;WIDTH:0.630629
G1 X105.617 Y107.256 E0.61634
;WIDTH:0.571503
G1 X105.699 Y107.205 E0.62126
G1 X106.076 Y106.869 E0.64697
G1 X106.278 Y106.533 E0.66688
G1 X106.382 Y106.107 E0.68919
G1 X106.385 Y103.883 E0.80225
G1 X106.706 Y103.881 E0.81856
G1 X107.173 Y103.758 E0.84313
G1 X107.418 Y103.618 E0.85747
G1 X107.681 Y103.365 E0.87604
G1 X107.831 Y103.136 E0.88993
G1 X107.953 Y102.793 E0.9085
G1 X107.986 Y102.506 E0.92317
G1 X107.986 Y97.493 E1.17806
G1 X107.966 Y97.266 E1.18965
G1 X107.856 Y96.918 E1.2082
G1 X107.564 Y96.509 E1.23376
G1 X107.252 Y96.278 E1.25351
G1 X106.776 Y96.129 E1.27888
G1 X106.385 Y96.117 E1.29875
G1 X106.382 Y93.893 E1.4118
G1 X106.305 Y93.537 E1.43034
G1 X106.007 Y93.049 E1.45939
G1 X105.876 Y92.944 E1.46793
;WIDTH:0.616197
G1 X105.744 Y92.84 E1.47721
;WIDTH:0.660891
G1 X105.613 Y92.735 E1.48723
;WIDTH:0.718042
G1 X105.481 Y92.631 E1.49818
G1 X105.346 Y92.592 E1.50734
G1 X105.232 Y92.598 E1.5148
;WIDTH:0.669196
G1 X105.118 Y92.605 E1.52172
;WIDTH:0.62035
G1 X105.003 Y92.612 E1.5281
;WIDTH:0.571503
G1 X104.557 Y92.591 E1.55081
;WIDTH:0.680441
G1 X104.225 Y92.564 E1.57128
G1 X102.449 Y92.562 E1.68056
G1 X102.394 Y92.564 E1.68393
G1 X102.329 Y92.627 E1.68949
;WIDTH:0.571503
G1 X101.34 Y93.614 E1.76052
G1 X101.16 Y93.614 E1.76969
G1 X100.386 Y92.84 E1.82535
G1 X100.386 Y91.886 E1.87388
G1 X101.931 Y91.886 E1.95245
G1 X102.19 Y91.912 E1.96569
;WIDTH:0.681894
G1 X102.449 Y91.938 E1.98174
G1 X104.226 Y91.939 E2.09126
G1 X104.28 Y91.936 E2.09459
G1 X104.36 Y91.854 E2.1017
;WIDTH:0.571503
G1 X104.441 Y91.772 E2.10756
G1 X104.486 Y91.628 E2.1152
G1 X104.486 Y90.918 E2.15133
G1 X105.03 Y91.422 E2.18904
G1 X105.372 Y91.8 E2.21498
G1 X105.398 Y91.833 E2.21714
;WIDTH:0.663911
G1 X105.477 Y91.933 E2.22476
;WIDTH:0.710115
G1 X105.618 Y91.919 E2.23387
;WIDTH:0.631362
G1 X106.049 Y91.895 E2.25833
;WIDTH:0.571503
G1 X106.338 Y91.884 E2.27308
G1 X109.114 Y94.66 E2.47269
G1 X109.114 Y105.34 E3.01577
G1 X106.338 Y108.116 E3.21539
G1 X105.986 Y108.104 E3.23334
;WIDTH:0.616942
G1 X105.854 Y108.089 E3.24067
;WIDTH:0.662381
G1 X105.722 Y108.074 E3.24859
;WIDTH:0.719875
G1 X105.59 Y108.059 E3.25726
G1 X105.435 Y108.074 E3.26745
G1 X105.415 Y108.108 E3.27
;WIDTH:0.633461
G1 X105.352 Y108.207 E3.27668
;WIDTH:0.571503
G1 X105.02 Y108.589 E3.30243
G1 X104.486 Y109.083 E3.33941
G1 X104.486 Y108.374 E3.37543
G1 X104.459 Y108.286 E3.38014
;WIPE_START
G1 X104.575 Y107.851 F18000
;WIPE_END
G92 E0
;WIPE_START
G1 F14400
G1 X104.294 Y107.861 E-0.03887
G1 X102.438 Y107.862 E-0.29604
G1 X102.169 Y107.889 E-0.33343
G1 X101.921 Y107.914 E-0.36804
G1 X100.586 Y107.914 E-0.55301
G1 X100.586 Y107.243 E-0.64605
G1 X101.167 Y106.661 E-0.76
;WIPE_END
G1 E-0.8 F2100
G1 Z0.64 F18000
; acceleration to travel
M204 S1500
G1 X104.167 Y94.909
; decel to extrusion
M204 S1000
G1 X104.89 Y92.076
; end travel
G1 Z0.24
G1 E0 F2100
;TYPE:Internal perimeter
;WIDTH:0.570716
G1 F1200
G1 X105.005 Y92.125 E0.00635
;WIDTH:0.48015
G1 X105.043 Y92.142 E0.0081
G92 E0
;WIPE_START
G1 F14400
G1 X105.005 Y92.125 E-0.00578
G1 X104.89 Y92.076 E-0.02312
;WIPE_END
G1 E-0.8 F2100
G1 Z0.64 F18000
G1 X106.483 Y92.785
G1 Z0.24
G1 E0 F2100
;WIDTH:0.60114
G1 F1200
G1 X106.11 Y92.424 E0.0279
G92 E0
;WIPE_START
G1 F14400
G1 X106.483 Y92.785 E-0.07191
;WIPE_END
G1 E-0.8 F2100
G1 Z0.64 F18000
; acceleration to travel
M204 S1500
G1 X106.182 Y104.702
; decel to extrusion
M204 S1000
G1 X106.11 Y107.575
; end travel
G1 Z0.24
G1 E0 F2100
;WIDTH:0.621236
G1 F1200
G1 X106.608 Y107.07 E0.03951
G92 E0
;WIPE_START
G1 F14400
G1 X106.11 Y107.575 E-0.09825
;WIPE_END
G1 E-0.8 F2100
G1 Z0.64 F18000
G1 X104.925 Y107.863
G1 Z0.24
G1 E0 F2100
;WIDTH:0.703325
G1 F1200
G1 X104.819 Y107.924 E0.00779
G1 X104.925 Y107.985 E0.01558
;WIDTH:0.615998
G1 X104.96 Y107.924 E0.01947
G92 E0
;WIPE_START
G1 F14400
G1 X104.925 Y107.985 E-0.00978
G1 X104.819 Y107.924 E-0.02671
G1 X104.925 Y107.863 E-0.04364
;WIPE_END
G1 E-0.8 F2100
G1 Z0.64 F18000
; stop printing object CableClipExtra.stl id:0 copy 0
EXCLUDE_OBJECT_END NAME=CableClipExtra_stl_id_0_copy_0
; printing object CableClipExtra.stl id:0 copy 1
EXCLUDE_OBJECT_START NAME=CableClipExtra_stl_id_0_copy_1
; acceleration to travel
M204 S1500
G1 X119.955 Y97.973
; decel to extrusion
M204 S1000
G1 X123.578 Y95.588
; end travel
G1 Z0.24
G1 E0 F2100
;WIDTH:0.563988
G1 F1200
G1 X123.337 Y95.423 E0.01462
G1 X122.92 Y95.235 E0.03757
G1 X122.919 Y94.43 E0.07793
G1 X123.578 Y95.089 E0.12466
G1 X123.578 Y95.528 E0.14668
G92 E0
;WIPE_START
G1 F14400
G1 X123.578 Y95.089 E-0.06087
G1 X122.919 Y94.43 E-0.19006
G1 X122.92 Y95.235 E-0.30162
G1 X123.337 Y95.423 E-0.36508
G1 X123.578 Y95.588 E-0.4055
;WIPE_END
G1 E-0.8 F2100
G1 Z0.64 F18000
; acceleration to travel
M204 S1500
G1 X118.556 Y93.013
; decel to extrusion
M204 S1000
G1 X117.346 Y92.392
; end travel
G1 Z0.24
G1 E0 F2100
;WIDTH:0.544841
G1 F1200
G1 X116.75 Y92.988 E0.04063
G1 X116.392 Y92.63 E0.06502
G1 X116.392 Y92.392 E0.0765
G1 X117.286 Y92.392 E0.11958
G92 E0
;WIPE_START
G1 F14400
G1 X116.392 Y92.392 E-0.12373
G1 X116.392 Y92.63 E-0.15669
G1 X116.75 Y92.988 E-0.22675
G1 X117.346 Y92.392 E-0.34343
;WIPE_END
G1 E-0.8 F2100
G1 Z0.64 F18000
; acceleration to travel
M204 S1500
G1 X122.367 Y102.075
; decel to extrusion
M204 S1000
G1 X123.578 Y104.409
; end travel
G1 Z0.24
G1 E0 F2100
;WIDTH:0.563995
G1 F1200
G1 X123.578 Y104.911 E0.02517
G1 X122.919 Y105.57 E0.0719
G1 X122.92 Y104.804 E0.11032
G1 X123.25 Y104.631 E0.12899
G1 X123.528 Y104.442 E0.14584
G92 E0
;WIPE_START
G1 F14400
G1 X123.25 Y104.631 E-0.04658
G1 X122.92 Y104.804 E-0.0982
G1 X122.919 Y105.57 E-0.20441
G1 X123.578 Y104.911 E-0.3336
G1 X123.578 Y104.409 E-0.40318
;WIPE_END
G1 E-0.8 F2100
G1 Z0.64 F18000
; acceleration to travel
M204 S1500
G1 X118.556 Y106.986
; decel to extrusion
M204 S1000
G1 X117.346 Y107.608
; end travel
G1 Z0.24
G1 E0 F2100
;WIDTH:0.544841
G1 F1200
G1 X116.392 Y107.608 E0.04598
G1 X116.392 Y107.37 E0.05746
G1 X116.75 Y107.012 E0.08185
G1 X117.303 Y107.565 E0.11958
G92 E0
;WIPE_START
G1 F14400
G1 X116.75 Y107.012 E-0.10836
G1 X116.392 Y107.37 E-0.17842
G1 X116.392 Y107.608 E-0.21139
G1 X117.346 Y107.608 E-0.34343
;WIPE_END
G1 E-0.8 F2100
G1 Z0.64 F18000
; acceleration to travel
M204 S1500
G1 X121.183 Y107.174
; decel to extrusion
M204 S1000
G1 X122.108 Y107.07
; end travel
G1 Z0.24
G1 E0 F2100
;WIDTH:0.629878
G1 F1200
G1 X122.209 Y106.827 E0.01487
;WIDTH:0.571503
G1 X122.31 Y106.585 E0.02823
G1 X122.402 Y106.108 E0.05294
G1 X122.404 Y104.374 E0.14111
G1 X122.89 Y104.233 E0.16684
G1 X123.333 Y103.949 E0.19358
G1 X123.66 Y103.592 E0.21821
G1 X123.849 Y103.247 E0.23819
G1 X123.859 Y103.099 E0.24575
