; generated by SuperSlicer 2.5.59 on 2023-10-08 at 21:28:28 UTC


;
;

;
;
; 

; external perimeters extrusion width = 0.44mm
; perimeters extrusion width = 0.46mm
; infill extrusion width = 0.44mm
; solid infill extrusion width = 0.46mm
; top infill extrusion width = 0.44mm
; first layer extrusion width = 0.56mm

; object:{"name":"Voron_Design_Cube_v7","id":"Voron_Design_Cube_v7 id:0 copy 0","object_center":[115.500000,115.500000,0.000000],"boundingbox_center":[115.500000,115.500000,10.000000],"boundingbox_size":[20.000000,20.000000,20.000000]}
EXCLUDE_OBJECT_DEFINE NAME=Voron_Design_Cube_v7_id_0_copy_0 CENTER=115.500000,115.500000 POLYGON=[[105.500000,105.500000],[125.500000,105.500000],[125.500000,125.500000],[105.500000,125.500000],[105.500000,105.500000]]
; plater:{"center":[115.500000,115.500000,0.000000],"boundingbox_center":[115.500000,115.500000,10.000000],"boundingbox_size":[20.000000,20.000000,20.000000]}

;TYPE:Custom
SET_PRINT_STATS_INFO TOTAL_LAYER=100

PRINT_START BED=60 EXTRUDER=205 CHAMBER=0 SIZE=101.407_101.407_129.593_129.593 MATERIAL=PLA
; Filament gcode
;_TOOLCHANGE 0
M107
;LAYER_CHANGE
;Z:0.2
;HEIGHT:0.2

G1 E-0.8 F2100
G1 Z0.4 F9000
SET_PRINT_STATS_INFO CURRENT_LAYER=1

G92 E0
G1 Z0.6
M204 S500
G1 X104.765 Y104.765
G1 Z0.2
G1 E0.8 F2100
;TYPE:Skirt
;WIDTH:0.48
G1 F1200
G1 X102.915 Y106.615 E0.89508
G1 X102.239 Y107.548 E0.93696
G1 X101.844 Y109.2 E0.99869
G1 X101.844 Y121.8 E1.45661
G1 X102.026 Y122.938 E1.49849
G1 X102.915 Y124.385 E1.56021
G1 X106.615 Y128.085 E1.75038
G1 X107.548 Y128.761 E1.79226
G1 X109.2 Y129.156 E1.85398
G1 X121.8 Y129.156 E2.31191
G1 X122.938 Y128.974 E2.35379
G1 X124.385 Y128.085 E2.41551
G1 X128.085 Y124.385 E2.60568
G1 X128.761 Y123.452 E2.64756
G1 X129.156 Y121.8 E2.70928
G1 X129.156 Y109.2 E3.16721
G1 X128.974 Y108.062 E3.20909
G1 X128.085 Y106.615 E3.27081
G1 X124.385 Y102.915 E3.46098
G1 X123.452 Y102.239 E3.50286
G1 X121.8 Y101.844 E3.56458
G1 X109.2 Y101.844 E4.02251
G1 X108.062 Y102.026 E4.06438
G1 X106.615 Y102.915 E4.12611
G1 X104.808 Y104.723 E4.21901
G1 X105.117 Y105.032 F9000
G1 F1200
G1 X103.224 Y106.924 E4.31628
G1 X102.675 Y107.657 E4.34957
G1 X102.281 Y109.2 E4.40743
G1 X102.281 Y121.8 E4.86535
G1 X102.412 Y122.707 E4.89864
G1 X103.224 Y124.076 E4.9565
G1 X106.924 Y127.776 E5.14667
G1 X107.657 Y128.325 E5.17996
G1 X109.2 Y128.719 E5.23782
G1 X121.8 Y128.719 E5.69575
G1 X122.707 Y128.588 E5.72904
G1 X124.076 Y127.776 E5.7869
G1 X127.776 Y124.076 E5.97707
G1 X128.325 Y123.343 E6.01036
G1 X128.719 Y121.8 E6.06822
G1 X128.719 Y109.2 E6.52614
G1 X128.588 Y108.293 E6.55943
G1 X127.776 Y106.924 E6.61729
G1 X124.076 Y103.224 E6.80746
G1 X123.343 Y102.675 E6.84075
G1 X121.8 Y102.281 E6.89861
G1 X109.2 Y102.281 E7.35654
G1 X108.293 Y102.412 E7.38983
G1 X106.924 Y103.224 E7.44769
G1 X105.159 Y104.989 E7.53841
M104 S205 ; set temperature
G92 E0
;WIPE_START
G1 F7200
G1 X106.924 Y103.224 E-0.69168
G1 X107.136 Y103.098 E-0.76
;WIPE_END
G1 E-0.8 F2100
G1 Z0.6 F9000
; printing object Voron_Design_Cube_v7 id:0 copy 0
EXCLUDE_OBJECT_START NAME=Voron_Design_Cube_v7_id_0_copy_0
; acceleration to travel
M204 S1500
G1 X110.606 Y110.538
; decel to extrusion
M204 S500
G1 X111.03 Y111.447
; end travel
G1 Z0.2
G1 E0 F2100
;TYPE:Internal perimeter
;WIDTH:0.56292
G1 F1200
G1 X110.778 Y111.741 E0.01675
G1 X110.418 Y112.243 E0.04346
G1 X110.109 Y112.786 E0.0705
G1 X109.857 Y113.358 E0.09753
G1 X109.665 Y113.954 E0.12457
G1 X109.537 Y114.565 E0.15161
G1 X109.472 Y115.187 E0.17864
G1 X109.472 Y115.813 E0.20568
G1 X109.537 Y116.435 E0.23271
G1 X109.665 Y117.046 E0.25975
G1 X109.855 Y117.635 E0.28647
G1 X110.012 Y118.008 E0.30399
G1 X110.257 Y118.491 E0.32742
G1 X110.594 Y119.016 E0.35438
G1 X110.984 Y119.505 E0.38141
G1 X111.422 Y119.95 E0.40845
G1 X111.905 Y120.348 E0.43548
G1 X112.426 Y120.694 E0.46252
G1 X112.973 Y120.981 E0.48922
G1 X113.347 Y121.137 E0.50676
G1 X113.861 Y121.309 E0.5302
G1 X114.469 Y121.447 E0.55714
G1 X115.09 Y121.522 E0.58418
G1 X115.715 Y121.532 E0.61122
G1 X116.338 Y121.477 E0.63825
G1 X116.951 Y121.359 E0.66528
G1 X117.542 Y121.18 E0.69197
G1 X117.919 Y121.029 E0.70952
G1 X118.406 Y120.79 E0.73298
G1 X118.936 Y120.462 E0.75991
G1 X119.431 Y120.08 E0.78695
G1 X119.884 Y119.649 E0.81398
G1 X120.289 Y119.173 E0.84102
G1 X120.644 Y118.658 E0.86805
G1 X120.943 Y118.109 E0.89508
G1 X121.183 Y117.532 E0.92212
G1 X121.363 Y116.933 E0.94915
G1 X121.48 Y116.319 E0.97619
G1 X121.532 Y115.705 E1.00284
G1 X121.532 Y115.295 E1.02054
G1 X121.48 Y114.681 E1.0472
G1 X121.363 Y114.067 E1.07423
G1 X121.184 Y113.471 E1.10115
G1 X120.978 Y112.968 E1.12463
G1 X120.796 Y112.605 E1.14219
G1 X120.473 Y112.08 E1.16886
G1 X120.093 Y111.583 E1.19589
G1 X119.663 Y111.129 E1.22293
G1 X119.188 Y110.722 E1.24996
G1 X118.674 Y110.366 E1.277
G1 X118.128 Y110.067 E1.30393
G1 X117.629 Y109.853 E1.32739
G1 X117.245 Y109.722 E1.34493
G1 X116.646 Y109.574 E1.37162
G1 X116.027 Y109.487 E1.39866
G1 X115.402 Y109.465 E1.42569
G1 X115.09 Y109.486 E1.43921
G1 X114.778 Y109.507 E1.45273
G1 X114.162 Y109.614 E1.47976
G1 X113.56 Y109.784 E1.5068
G1 X112.98 Y110.015 E1.53383
G1 X112.426 Y110.306 E1.56087
G1 X111.905 Y110.652 E1.58791
G1 X111.424 Y111.048 E1.61486
G1 X111.072 Y111.403 E1.63647
G1 X111.424 Y111.786 F9000
;TYPE:External perimeter
G1 F1200
G1 X111.188 Y112.062 E1.6522
G1 X110.857 Y112.524 E1.67677
G1 X110.574 Y113.02 E1.70147
G1 X110.344 Y113.543 E1.72617
G1 X110.169 Y114.087 E1.75088
G1 X110.051 Y114.646 E1.77558
G1 X109.992 Y115.214 E1.80028
G1 X109.992 Y115.786 E1.82499
G1 X110.051 Y116.354 E1.84969
G1 X110.169 Y116.913 E1.87439
G1 X110.343 Y117.454 E1.89897
G1 X110.484 Y117.789 E1.91469
G1 X110.709 Y118.232 E1.93619
G1 X111.017 Y118.713 E1.96086
G1 X111.373 Y119.159 E1.98556
G1 X111.774 Y119.567 E2.01026
G1 X112.215 Y119.93 E2.03497
G1 X112.691 Y120.246 E2.05967
G1 X113.194 Y120.51 E2.08424
G1 X113.53 Y120.65 E2.09997
G1 X114.002 Y120.808 E2.12147
G1 X114.558 Y120.934 E2.14614
G1 X115.125 Y121.002 E2.17084
G1 X115.696 Y121.012 E2.19554
G1 X116.265 Y120.962 E2.22024
G1 X116.826 Y120.853 E2.24495
G1 X117.37 Y120.688 E2.2695
G1 X117.708 Y120.553 E2.28524
G1 X118.154 Y120.334 E2.30676
G1 X118.639 Y120.034 E2.33141
G1 X119.092 Y119.685 E2.35611
G1 X119.505 Y119.291 E2.38082
G1 X119.876 Y118.856 E2.40552
G1 X120.2 Y118.386 E2.43022
G1 X120.473 Y117.884 E2.45493
G1 X120.693 Y117.357 E2.47963
G1 X120.857 Y116.81 E2.50433
G1 X120.964 Y116.248 E2.52903
G1 X121.012 Y115.683 E2.55357
G1 X121.012 Y115.317 E2.56938
G1 X120.964 Y114.752 E2.59392
G1 X120.857 Y114.19 E2.61862
G1 X120.693 Y113.644 E2.64327
G1 X120.505 Y113.184 E2.66479
G1 X120.341 Y112.859 E2.68054
G1 X120.044 Y112.375 E2.70509
G1 X119.696 Y111.921 E2.72979
G1 X119.304 Y111.506 E2.75449
G1 X118.87 Y111.134 E2.77919
G1 X118.4 Y110.809 E2.80389
G1 X117.9 Y110.535 E2.82855
G1 X117.443 Y110.339 E2.85007
G1 X117.099 Y110.222 E2.8658
G1 X116.547 Y110.085 E2.89036
G1 X115.981 Y110.006 E2.91506
G1 X115.41 Y109.985 E2.93976
G1 X115.125 Y110.005 E2.95212
G1 X114.84 Y110.024 E2.96447
G1 X114.278 Y110.122 E2.98917
G1 X113.728 Y110.277 E3.01387
G1 X113.197 Y110.489 E3.03858
G1 X112.691 Y110.754 E3.06328
G1 X112.215 Y111.07 E3.08798
G1 X111.775 Y111.433 E3.11265
G1 X111.467 Y111.743 E3.13156
;WIPE_START
G1 X111.033 Y111.703 F9000
;WIPE_END
G92 E0
;WIPE_START
G1 F7200
G1 X110.688 Y112.416 E-0.2195
G1 X110.395 Y112.93 E-0.38354
G1 X110.156 Y113.472 E-0.54761
G1 X109.975 Y114.036 E-0.71166
G1 X109.939 Y114.206 E-0.76
;WIPE_END
G1 E-0.8 F2100
G1 Z0.6 F9000
; acceleration to travel
M204 S1500
G1 X106.816 Y110.24
; decel to extrusion
M204 S500
G1 X106.435 Y109.755
; end travel
G1 Z0.2
G1 E0 F2100
;TYPE:Internal perimeter
G1 F1200
G1 X109.755 Y106.435 E0.20305
G1 X121.245 Y106.435 E0.69982
G1 X121.33 Y106.521 E0.70507
G1 X124.565 Y109.755 E0.90287
G1 X124.565 Y121.245 E1.39964
G1 X121.245 Y124.565 E1.60269
G1 X109.755 Y124.565 E2.09946
G1 X106.435 Y121.245 E2.30251
G1 X106.435 Y109.815 E2.79669
G1 X105.915 Y109.54 F9000
;TYPE:External perimeter
G1 F1200
G1 X109.54 Y105.915 E3.01836
G1 X121.46 Y105.915 E3.53376
G1 X121.698 Y106.153 E3.54832
G1 X125.085 Y109.54 E3.75544
G1 X125.085 Y121.46 E4.27083
G1 X121.46 Y125.085 E4.49251
G1 X109.54 Y125.085 E5.0079
G1 X105.915 Y121.46 E5.22958
G1 X105.915 Y109.6 E5.74238
;WIPE_START
G1 X106.315 Y109.54 F9000
;WIPE_END
G92 E0
;WIPE_START
G1 F7200
G1 X108.22 Y107.567 E-0.76
;WIPE_END
G1 E-0.8 F2100
G1 Z0.6 F9000
; acceleration to travel
M204 S1500
G1 X119.474 Y106.697
; decel to extrusion
M204 S500
G1 X120.849 Y106.591
; end travel
G1 Z0.2
G1 E0 F2100
;TYPE:Solid infill
;WIDTH:0.5518
G1 F1200
G1 X124.186 Y109.927 E0.2
G1 X124.186 Y110.663 E0.23117
G1 X120.337 Y106.814 E0.46184
G1 X119.602 Y106.814 E0.49301
G1 X124.186 Y111.398 E0.76777
G1 X124.186 Y112.134 E0.79894
G1 X118.866 Y106.814 E1.11777
G1 X118.131 Y106.814 E1.14894
G1 X124.186 Y112.869 E1.51186
G1 X124.186 Y113.604 E1.54302
G1 X117.396 Y106.814 E1.95002
G1 X116.66 Y106.814 E1.98119
G1 X124.186 Y114.34 E2.43226
G1 X124.186 Y115.075 E2.46343
G1 X115.925 Y106.814 E2.95858
G1 X115.189 Y106.814 E2.98975
G1 X117.955 Y109.58 E3.1555
G1 X118.295 Y109.725 E3.17116
G1 X118.874 Y110.043 E3.19918
G1 X119.421 Y110.421 E3.22736
G1 X119.925 Y110.854 E3.25553
G1 X120.382 Y111.337 E3.28369
G1 X120.79 Y111.869 E3.31213
G1 X121.32 Y112.802 E3.35759
G1 X121.42 Y113.045 E3.36873
G1 X124.409 Y116.034 E3.54791
G92 E0
;WIPE_START
G1 F7200
G1 X122.47 Y114.095 E-0.76
;WIPE_END
G1 E-0.8 F2100
G1 Z0.6 F9000
G1 X121.449 Y113.809
G1 Z0.2
G1 E0 F2100
G1 F1200
G1 X124.186 Y116.546 E0.16406
G1 X124.186 Y117.281 E0.19523
G1 X121.886 Y114.982 E0.33306
G1 X121.912 Y115.289 E0.34612
G1 X121.89 Y115.721 E0.36447
G1 X124.186 Y118.017 E0.50205
G1 X124.186 Y118.752 E0.53322
G1 X121.848 Y116.415 E0.67333
G1 X121.73 Y117.032 E0.69997
G1 X124.186 Y119.487 E0.84717
G1 X124.186 Y120.223 E0.87834
G1 X121.56 Y117.597 E1.03571
G1 X121.349 Y118.121 E1.05966
G1 X124.186 Y120.958 E1.2297
G1 X124.186 Y121.087 E1.23517
G1 X123.882 Y121.391 E1.25334
G1 X121.102 Y118.61 E1.42
G1 X120.968 Y118.857 E1.43192
G1 X120.823 Y119.067 E1.44271
G1 X123.515 Y121.758 E1.60403
G1 X123.147 Y122.126 E1.62607
G1 X120.515 Y119.494 E1.78385
G1 X120.176 Y119.891 E1.80595
G1 X122.779 Y122.494 E1.96197
G1 X122.412 Y122.861 E1.98401
G1 X119.802 Y120.251 E2.14046
G1 X119.399 Y120.584 E2.16259
G1 X122.044 Y123.229 E2.32112
G1 X121.676 Y123.597 E2.34316
G1 X118.968 Y120.889 E2.50547
G1 X118.507 Y121.163 E2.52821
G1 X121.309 Y123.964 E2.69612
G1 X121.087 Y124.186 E2.70938
G1 X120.794 Y124.186 E2.72179
G1 X118.008 Y121.399 E2.8888
G1 X117.46 Y121.586 E2.91336
G1 X120.059 Y124.186 E3.06916
G1 X119.324 Y124.186 E3.10032
G1 X116.894 Y121.756 E3.24593
G1 X116.267 Y121.865 E3.27291
G1 X118.588 Y124.186 E3.41202
G1 X117.853 Y124.186 E3.44319
G1 X115.577 Y121.909 E3.57962
G1 X115.064 Y121.901 E3.60137
G1 X114.801 Y121.87 E3.61257
G1 X117.118 Y124.186 E3.75139
G1 X116.382 Y124.186 E3.78256
G1 X113.574 Y121.378 E3.95087
G92 E0
;WIPE_START
G1 F7200
G1 X115.514 Y123.317 E-0.76
;WIPE_END
G1 E-0.8 F2100
G1 Z0.6 F9000
; acceleration to travel
M204 S1500
G1 X117.027 Y111.069
; decel to extrusion
M204 S500
G1 X117.212 Y109.573
; end travel
G1 Z0.2
G1 E0 F2100
G1 F1200
G1 X114.454 Y106.814 E0.16533
G1 X113.719 Y106.814 E0.1965
G1 X116.012 Y109.108 E0.33396
G1 X115.276 Y109.107 E0.36516
G1 X112.983 Y106.814 E0.50256
G1 X112.248 Y106.814 E0.53373
G1 X114.604 Y109.17 E0.67493
G1 X114.084 Y109.242 E0.69716
G1 X113.972 Y109.274 E0.70211
G1 X111.513 Y106.814 E0.84952
G1 X110.777 Y106.814 E0.88069
G1 X113.402 Y109.439 E1.038
G1 X112.876 Y109.648 E1.06199
G1 X110.042 Y106.814 E1.23186
G1 X109.913 Y106.814 E1.23733
G1 X109.609 Y107.118 E1.2555
G1 X112.389 Y109.897 E1.42207
G1 X111.933 Y110.177 E1.44473
G1 X109.242 Y107.485 E1.60607
G1 X108.874 Y107.853 E1.62811
G1 X111.508 Y110.487 E1.78598
G1 X111.111 Y110.825 E1.80809
G1 X108.506 Y108.221 E1.9642
G1 X108.139 Y108.588 E1.98624
G1 X110.746 Y111.195 E2.14252
G1 X110.426 Y111.611 E2.16474
G1 X107.771 Y108.956 E2.32387
G1 X107.403 Y109.324 E2.34591
G1 X110.106 Y112.026 E2.50791
G1 X109.838 Y112.494 E2.53075
G1 X107.036 Y109.691 E2.69873
G1 X106.814 Y109.913 E2.71199
G1 X106.814 Y110.206 E2.72441
G1 X109.602 Y112.994 E2.89153
G1 X109.501 Y113.223 E2.90216
G1 X109.403 Y113.53 E2.91579
G1 X106.814 Y110.941 E3.07096
G1 X106.814 Y111.676 E3.10213
G1 X109.245 Y114.107 E3.24784
G1 X109.161 Y114.507 E3.26513
G1 X109.138 Y114.735 E3.27486
G1 X106.814 Y112.412 E3.41411
G1 X106.814 Y113.147 E3.44528
G1 X109.093 Y115.425 E3.58183
G1 X109.093 Y115.832 E3.59909
G1 X109.131 Y116.199 E3.6147
G1 X106.814 Y113.882 E3.75354
G1 X106.814 Y114.618 E3.78471
G1 X109.644 Y117.448 E3.95432
G92 E0
;WIPE_START
G1 F7200
G1 X107.705 Y115.508 E-0.76
;WIPE_END
G1 E-0.8 F2100
G1 Z0.6 F9000
G1 X106.591 Y115.13
G1 Z0.2
G1 E0 F2100
G1 F1200
G1 X109.707 Y118.245 E0.18676
G1 X109.928 Y118.68 E0.20743
G1 X110.285 Y119.238 E0.23549
G1 X110.7 Y119.757 E0.26366
G1 X111.166 Y120.231 E0.29183
G1 X111.678 Y120.654 E0.32
G1 X112.237 Y121.025 E0.34845
G1 X112.717 Y121.255 E0.37098
G1 X115.647 Y124.186 E0.54662
G1 X114.911 Y124.186 E0.57779
G1 X106.814 Y116.089 E1.06312
G1 X106.814 Y116.824 E1.09429
G1 X114.176 Y124.186 E1.53555
G1 X113.441 Y124.186 E1.56671
G1 X106.814 Y117.559 E1.96389
G1 X106.814 Y118.295 E1.99506
G1 X112.705 Y124.186 E2.34816
G1 X111.97 Y124.186 E2.37933
G1 X106.814 Y119.03 E2.68834
G1 X106.814 Y119.766 E2.71951
G1 X111.234 Y124.186 E2.98445
G1 X110.499 Y124.186 E3.01562
G1 X106.591 Y120.277 E3.24988
G1 X106.695 Y120.898 F9000
;TYPE:Gap fill
;WIDTH:0.244821
G1 F1200
G1 X106.765 Y120.989 E3.2518
;WIDTH:0.322688
G1 X106.835 Y121.079 E3.25446
G1 X109.921 Y124.165 E3.356
G1 X110.011 Y124.235 E3.35866
;WIDTH:0.24482
G1 X110.102 Y124.305 E3.36058
M106 S84.15
;LAYER_CHANGE
;Z:0.4
;HEIGHT:0.2

G92 E0
;WIPE_START
G1 F7200
G1 X110.011 Y124.235 E-0.03168
G1 X109.921 Y124.165 E-0.06335
G1 X108.143 Y122.388 E-0.76
;WIPE_END
G1 E-0.8 F2100
G1 Z0.6 F9000
; stop printing object Voron_Design_Cube_v7 id:0 copy 0
EXCLUDE_OBJECT_END NAME=Voron_Design_Cube_v7_id_0_copy_0
SET_PRINT_STATS_INFO CURRENT_LAYER=2

M104 S200 ; set temperature
M140 S60 ; set bed temperature
G92 E0
G1 Z0.8
; acceleration to travel
M204 S1500
G1 X104.924 Y125.607
; decel to extrusion
M204 S500
G1 X104.53 Y126
; end travel
G1 Z0.4
G1 E0.8 F2100
;TYPE:Skirt
;WIDTH:0.48
G1 F1200
G1 X106.615 Y128.085 E0.90714
G1 X107.548 Y128.761 E0.94902
G1 X109.2 Y129.156 E1.01075
G1 X121.8 Y129.156 E1.46867
G1 X122.938 Y128.974 E1.51055
G1 X124.385 Y128.085 E1.57227
G1 X128.085 Y124.385 E1.76244
G1 X128.761 Y123.452 E1.80432
G1 X129.156 Y121.8 E1.86604
G1 X129.156 Y109.2 E2.32397
G1 X128.974 Y108.062 E2.36585
G1 X128.085 Y106.615 E2.42757
G1 X124.385 Y102.915 E2.61774
G1 X123.452 Y102.239 E2.65962
G1 X121.8 Y101.844 E2.72134
G1 X109.2 Y101.844 E3.17927
G1 X108.062 Y102.026 E3.22115
G1 X106.615 Y102.915 E3.28287
G1 X102.915 Y106.615 E3.47304
G1 X102.239 Y107.548 E3.51492
G1 X101.844 Y109.2 E3.57664
G1 X101.844 Y121.8 E4.03457
G1 X102.026 Y122.938 E4.07644
G1 X102.915 Y124.385 E4.13817
G1 X104.488 Y125.958 E4.21901
G1 X104.797 Y125.649 F9000
G1 F1200
G1 X106.924 Y127.776 E4.32834
G1 X107.657 Y128.325 E4.36163
G1 X109.2 Y128.719 E4.41949
G1 X121.8 Y128.719 E4.87741
G1 X122.707 Y128.588 E4.9107
G1 X124.076 Y127.776 E4.96856
G1 X127.776 Y124.076 E5.15873
G1 X128.325 Y123.343 E5.19202
G1 X128.719 Y121.8 E5.24988
G1 X128.719 Y109.2 E5.70781
G1 X128.588 Y108.293 E5.7411
G1 X127.776 Y106.924 E5.79896
G1 X124.076 Y103.224 E5.98913
G1 X123.343 Y102.675 E6.02242
G1 X121.8 Y102.281 E6.08028
G1 X109.2 Y102.281 E6.5382
G1 X108.293 Y102.412 E6.57149
G1 X106.924 Y103.224 E6.62935
G1 X103.224 Y106.924 E6.81952
G1 X102.675 Y107.657 E6.85281
G1 X102.281 Y109.2 E6.91067
G1 X102.281 Y121.8 E7.3686
G1 X102.412 Y122.707 E7.40189
G1 X103.224 Y124.076 E7.45975
G1 X104.755 Y125.606 E7.53841
G92 E0
;WIPE_START
G1 F7200
G1 X103.224 Y124.076 E-0.59974
G1 X102.929 Y123.578 E-0.76
;WIPE_END
G1 E-0.8 F2100
G1 Z0.8 F9000
; printing object Voron_Design_Cube_v7 id:0 copy 0
