; generated by SuperSlicer 2.5.59 on 2023-10-11 at 06:19:57 UTC


;
;

;
;
; 

; external perimeters extrusion width = 0.44mm
; perimeters extrusion width = 0.46mm
; infill extrusion width = 0.44mm
; solid infill extrusion width = 0.46mm
; top infill extrusion width = 0.44mm
; first layer extrusion width = 0.56mm

; object:{"name":"Voron_Design_Cube_v7","id":"Voron_Design_Cube_v7 id:0 copy 0","object_center":[115.500000,115.500000,0.000000],"boundingbox_center":[115.500000,115.500000,15.000000],"boundingbox_size":[30.000000,30.000000,30.000000]}
EXCLUDE_OBJECT_DEFINE NAME=Voron_Design_Cube_v7_id_0_copy_0 CENTER=115.500000,115.500000 POLYGON=[[100.500000,100.500000],[130.500000,100.500000],[130.500000,130.500000],[100.500000,130.500000],[100.500000,100.500000]]
; plater:{"center":[115.500000,115.500000,0.000000],"boundingbox_center":[115.500000,115.500000,15.000000],"boundingbox_size":[30.000000,30.000000,30.000000]}

;TYPE:Custom
SET_PRINT_STATS_INFO TOTAL_LAYER=150

PRINT_START BED=60 EXTRUDER=215 CHAMBER=0 SIZE=96.8444_96.8444_134.156_134.156 MATERIAL=PLA
; Filament gcode
SET_PRESSURE_ADVANCE ADVANCE=0.08
;_TOOLCHANGE 0
M107
;LAYER_CHANGE
;Z:0.2
;HEIGHT:0.2

G1 E-0.8 F2100
G1 Z0.4 F18000
SET_PRINT_STATS_INFO CURRENT_LAYER=1

G92 E0
G1 Z0.6
M204 S2000
G1 X101.074 Y101.074
G1 Z0.2
G1 E0.8 F2100
;TYPE:Skirt
;WIDTH:0.48
G1 F1200
G1 X98.224 Y103.924 E0.94648
G1 X97.675 Y104.657 E0.97977
G1 X97.281 Y106.2 E1.03763
G1 X97.281 Y124.8 E1.71362
G1 X97.412 Y125.707 E1.7469
G1 X98.224 Y127.076 E1.80477
G1 X103.924 Y132.776 E2.09773
G1 X104.657 Y133.325 E2.13102
G1 X106.2 Y133.719 E2.18888
G1 X124.8 Y133.719 E2.86487
G1 X125.707 Y133.588 E2.89815
G1 X127.076 Y132.776 E2.95602
G1 X132.776 Y127.076 E3.24898
G1 X133.325 Y126.343 E3.28227
G1 X133.719 Y124.8 E3.34013
G1 X133.719 Y106.2 E4.01612
G1 X133.588 Y105.293 E4.0494
G1 X132.776 Y103.924 E4.10727
G1 X127.076 Y98.224 E4.40023
G1 X126.343 Y97.675 E4.43352
G1 X124.8 Y97.281 E4.49138
G1 X106.2 Y97.281 E5.16737
G1 X105.293 Y97.412 E5.20065
G1 X103.924 Y98.224 E5.25852
G1 X101.117 Y101.032 E5.40282
M104 S215 ; set temperature
G92 E0
;WIPE_START
G1 F14400
G1 X103.924 Y98.224 E-0.55008
G1 X105.227 Y97.451 E-0.76
;WIPE_END
G1 E-0.8 F2100
G1 Z0.6 F18000
; printing object Voron_Design_Cube_v7 id:0 copy 0
EXCLUDE_OBJECT_START NAME=Voron_Design_Cube_v7_id_0_copy_0
; acceleration to travel
M204 S3000
G1 X106.993 Y109.507
; decel to extrusion
M204 S2000
G1 X107.418 Y112.413
; end travel
G1 Z0.2
G1 E0 F2100
;TYPE:Internal perimeter
;WIDTH:0.56292
G1 F1200
G1 X107.408 Y112.436 E0.00108
G1 X107.135 Y113.288 E0.03975
G1 X106.951 Y114.163 E0.07843
G1 X106.859 Y115.053 E0.11711
G1 X106.859 Y115.947 E0.15578
G1 X106.951 Y116.837 E0.19446
G1 X107.135 Y117.712 E0.23314
G1 X107.407 Y118.56 E0.27163
G1 X107.673 Y119.182 E0.30089
G1 X107.981 Y119.781 E0.33001
G1 X108.461 Y120.531 E0.3685
G1 X109.018 Y121.231 E0.40718
G1 X109.644 Y121.87 E0.44585
G1 X110.333 Y122.44 E0.48453
G1 X111.077 Y122.937 E0.5232
G1 X111.864 Y123.351 E0.56168
G1 X112.49 Y123.61 E0.59097
G1 X113.13 Y123.821 E0.6201
G1 X113.997 Y124.021 E0.65857
G1 X114.885 Y124.131 E0.69725
G1 X115.779 Y124.148 E0.73592
G1 X116.67 Y124.073 E0.7746
G1 X117.549 Y123.906 E0.81327
G1 X118.401 Y123.651 E0.85173
G1 X119.03 Y123.398 E0.88104
G1 X119.635 Y123.1 E0.91019
G1 X120.393 Y122.636 E0.94864
G1 X121.104 Y122.092 E0.98731
G1 X121.754 Y121.479 E1.02599
G1 X122.338 Y120.801 E1.06466
G1 X122.849 Y120.067 E1.10334
G1 X123.281 Y119.284 E1.14201
G1 X123.63 Y118.46 E1.18069
G1 X123.892 Y117.605 E1.21936
G1 X124.065 Y116.727 E1.25803
G1 X124.145 Y115.842 E1.29645
G1 X124.145 Y115.158 E1.32605
G1 X124.065 Y114.273 E1.36447
G1 X123.892 Y113.395 E1.40314
G1 X123.632 Y112.545 E1.44157
G1 X123.376 Y111.921 E1.47075
G1 X123.072 Y111.315 E1.50007
G1 X122.603 Y110.56 E1.53851
G1 X122.055 Y109.853 E1.57718
G1 X121.437 Y109.206 E1.61586
G1 X120.756 Y108.627 E1.65453
G1 X120.018 Y108.121 E1.69321
G1 X119.236 Y107.696 E1.73166
G1 X118.617 Y107.43 E1.76081
G1 X117.976 Y107.21 E1.79011
G1 X117.112 Y106.999 E1.82857
G1 X116.226 Y106.878 E1.86725
G1 X115.332 Y106.849 E1.90592
G1 X114.886 Y106.881 E1.92526
G1 X114.44 Y106.913 E1.9446
G1 X113.559 Y107.068 E1.98327
G1 X112.698 Y107.314 E2.02195
G1 X111.868 Y107.646 E2.06062
G1 X111.077 Y108.063 E2.0993
G1 X110.333 Y108.56 E2.13798
G1 X109.647 Y109.127 E2.17646
G1 X109.171 Y109.604 E2.20559
G1 X108.727 Y110.115 E2.23485
G1 X108.21 Y110.839 E2.27334
G1 X107.768 Y111.617 E2.31202
G1 X107.442 Y112.358 E2.34702
G1 X107.895 Y112.62 F18000
;TYPE:External perimeter
G1 F1200
G1 X107.638 Y113.421 E2.38337
G1 X107.466 Y114.244 E2.41972
G1 X107.379 Y115.08 E2.45607
G1 X107.379 Y115.92 E2.49242
G1 X107.466 Y116.756 E2.52876
G1 X107.638 Y117.579 E2.56511
G1 X107.894 Y118.378 E2.60139
G1 X108.144 Y118.961 E2.6288
G1 X108.432 Y119.522 E2.65606
G1 X108.884 Y120.229 E2.69234
G1 X109.408 Y120.886 E2.72868
G1 X109.996 Y121.486 E2.76503
G1 X110.644 Y122.023 E2.80138
G1 X111.343 Y122.489 E2.83773
G1 X112.085 Y122.88 E2.87399
G1 X112.671 Y123.122 E2.90142
G1 X113.27 Y123.32 E2.92869
G1 X114.087 Y123.508 E2.96495
G1 X114.922 Y123.611 E3.0013
G1 X115.762 Y123.628 E3.03765
G1 X116.6 Y123.557 E3.07399
G1 X117.426 Y123.4 E3.11034
G1 X118.229 Y123.16 E3.1466
G1 X118.818 Y122.923 E3.17403
G1 X119.384 Y122.644 E3.20131
G1 X120.099 Y122.206 E3.23756
G1 X120.767 Y121.696 E3.27391
G1 X121.378 Y121.119 E3.31026
G1 X121.927 Y120.482 E3.34661
G1 X122.407 Y119.792 E3.38295
G1 X122.813 Y119.056 E3.4193
G1 X123.141 Y118.282 E3.45565
G1 X123.387 Y117.478 E3.49199
G1 X123.549 Y116.653 E3.52834
G1 X123.625 Y115.819 E3.56458
G1 X123.625 Y115.181 E3.59213
G1 X123.549 Y114.347 E3.62837
G1 X123.387 Y113.522 E3.66472
G1 X123.142 Y112.72 E3.70096
G1 X122.902 Y112.136 E3.72825
G1 X122.618 Y111.569 E3.75569
G1 X122.176 Y110.857 E3.79194
G1 X121.661 Y110.192 E3.82829
G1 X121.08 Y109.585 E3.86463
G1 X120.439 Y109.04 E3.90098
G1 X119.746 Y108.565 E3.93733
G1 X119.009 Y108.165 E3.97358
G1 X118.43 Y107.916 E4.00086
G1 X117.83 Y107.709 E4.02829
G1 X117.015 Y107.511 E4.06455
G1 X116.182 Y107.397 E4.1009
G1 X115.342 Y107.37 E4.13724
G1 X114.923 Y107.4 E4.15542
G1 X114.503 Y107.429 E4.17359
G1 X113.675 Y107.575 E4.20994
G1 X112.867 Y107.806 E4.24629
G1 X112.087 Y108.119 E4.28264
G1 X111.343 Y108.511 E4.31898
G1 X110.644 Y108.977 E4.35533
G1 X109.998 Y109.512 E4.3916
G1 X109.552 Y109.958 E4.41887
G1 X109.136 Y110.437 E4.44628
G1 X108.649 Y111.12 E4.48255
G1 X108.233 Y111.85 E4.5189
G1 X107.919 Y112.565 E4.55266
;WIPE_START
G1 X107.501 Y112.691 F18000
;WIPE_END
G92 E0
;WIPE_START
G1 F14400
G1 X107.445 Y113.37 E-0.09428
G1 X107.268 Y114.213 E-0.21362
G1 X107.179 Y115.069 E-0.33295
G1 X107.179 Y115.931 E-0.45229
G1 X107.268 Y116.787 E-0.57162
G1 X107.445 Y117.63 E-0.69096
G1 X107.597 Y118.105 E-0.76
;WIPE_END
G1 E-0.8 F2100
G1 Z0.6 F18000
; acceleration to travel
M204 S3000
G1 X102.685 Y108.982
; decel to extrusion
M204 S2000
G1 X101.501 Y106.783
; end travel
G1 Z0.2
G1 E0 F2100
;TYPE:Internal perimeter
G1 F1200
G1 X106.783 Y101.501 E0.32296
G1 X124.217 Y101.501 E1.07677
G1 X124.636 Y101.921 E1.10242
G1 X129.499 Y106.783 E1.39973
G1 X129.499 Y124.217 E2.15354
G1 X124.217 Y129.499 E2.4765
G1 X106.783 Y129.499 E3.23031
G1 X101.501 Y124.217 E3.55327
G1 X101.501 Y106.843 E4.30448
G1 X100.981 Y106.568 F18000
;TYPE:External perimeter
G1 F1200
G1 X106.568 Y100.981 E4.64607
G1 X124.432 Y100.981 E5.41851
G1 X125.004 Y101.553 E5.45347
G1 X130.019 Y106.568 E5.76009
G1 X130.019 Y124.432 E6.53253
G1 X124.432 Y130.019 E6.87411
G1 X106.568 Y130.019 E7.64655
G1 X100.981 Y124.432 E7.98813
G1 X100.981 Y106.628 E8.75798
;WIPE_START
G1 X101.381 Y106.568 F18000
;WIPE_END
G92 E0
;WIPE_START
G1 F14400
G1 X105.218 Y102.646 E-0.76
;WIPE_END
G1 E-0.8 F2100
G1 Z0.6 F18000
; acceleration to travel
M204 S3000
G1 X124.656 Y106.298
; decel to extrusion
M204 S2000
G1 X129.343 Y107.179
; end travel
G1 Z0.2
G1 E0 F2100
;TYPE:Solid infill
;WIDTH:0.557839
G1 F1200
G1 X124.045 Y101.881 E0.32101
G1 X123.31 Y101.881 E0.35252
G1 X129.119 Y107.69 E0.70455
G1 X129.119 Y108.426 E0.73606
G1 X122.574 Y101.881 E1.13265
G1 X121.839 Y101.881 E1.16416
G1 X129.119 Y109.161 E1.6053
G1 X129.119 Y109.897 E1.63681
G1 X121.103 Y101.881 E2.12252
G1 X120.368 Y101.881 E2.15403
G1 X129.119 Y110.632 E2.68431
G1 X129.119 Y111.367 E2.71582
G1 X119.633 Y101.881 E3.29065
G1 X118.897 Y101.881 E3.32216
G1 X129.119 Y112.103 E3.94156
G1 X129.119 Y112.838 E3.97307
G1 X118.162 Y101.881 E4.63702
G1 X117.426 Y101.881 E4.66853
G1 X129.119 Y113.574 E5.37705
G1 X129.119 Y114.309 E5.40856
G1 X116.691 Y101.881 E6.16164
G1 X115.956 Y101.881 E6.19315
G1 X129.119 Y115.044 E6.9908
G1 X129.119 Y115.78 E7.02231
G1 X115.22 Y101.881 E7.86451
G1 X114.485 Y101.881 E7.89602
G1 X129.119 Y116.515 E8.78279
G1 X129.119 Y117.25 E8.8143
G1 X123.784 Y111.916 E9.13756
G1 X123.99 Y112.418 E9.1608
G1 X124.184 Y113.05 E9.18916
G1 X129.119 Y117.986 E9.48822
G1 X129.119 Y118.721 E9.51973
G1 X124.398 Y114 E9.80581
G1 X124.441 Y114.219 E9.81537
G1 X124.497 Y114.834 E9.84185
G1 X129.119 Y119.457 E10.12194
G1 X129.119 Y120.192 E10.15345
G1 X124.525 Y115.598 E10.43185
G1 X124.525 Y115.859 E10.44307
G1 X124.485 Y116.294 E10.46175
G1 X129.119 Y120.927 E10.74254
G1 X129.119 Y121.663 E10.77405
G1 X124.407 Y116.951 E11.05955
G1 X124.287 Y117.566 E11.08639
G1 X129.119 Y122.398 E11.37921
G1 X129.119 Y123.134 E11.41072
G1 X124.125 Y118.14 E11.71332
G1 X123.943 Y118.693 E11.73829
G1 X129.119 Y123.869 E12.0519
G1 X129.119 Y124.06 E12.06008
G1 X128.847 Y124.332 E12.07658
G1 X123.725 Y119.21 E12.38696
G1 X123.623 Y119.45 E12.39812
G1 X123.483 Y119.704 E12.41054
G1 X128.479 Y124.7 E12.71329
G1 X128.111 Y125.067 E12.73557
G1 X123.221 Y120.177 E13.03189
G1 X122.927 Y120.619 E13.05461
G1 X127.744 Y125.435 E13.34646
G1 X127.376 Y125.803 E13.36874
G1 X122.624 Y121.051 E13.65669
G1 X122.284 Y121.446 E13.67903
G1 X127.008 Y126.171 E13.96532
G1 X126.64 Y126.538 E13.9876
G1 X121.934 Y121.831 E14.27282
G1 X121.555 Y122.188 E14.29511
G1 X126.273 Y126.906 E14.58097
G1 X125.905 Y127.274 E14.60325
G1 X121.159 Y122.528 E14.89083
G1 X120.743 Y122.847 E14.91331
G1 X125.537 Y127.641 E15.20385
G1 X125.17 Y128.009 E15.22614
G1 X120.299 Y123.138 E15.52127
G1 X119.843 Y123.418 E15.54419
G1 X124.802 Y128.377 E15.84468
G1 X124.434 Y128.744 E15.86696
G1 X119.352 Y123.662 E16.17492
G1 X118.839 Y123.884 E16.19889
G1 X124.067 Y129.112 E16.51568
G1 X123.338 Y129.119 E16.54689
G1 X118.298 Y124.078 E16.85233
G1 X117.732 Y124.248 E16.87764
G1 X122.603 Y129.119 E17.17281
G1 X121.867 Y129.119 E17.20432
G1 X117.122 Y124.374 E17.49187
G1 X116.722 Y124.45 E17.50932
G1 X116.483 Y124.47 E17.5196
G1 X121.132 Y129.119 E17.80133
G1 X120.397 Y129.119 E17.83284
G1 X115.804 Y124.527 E18.11111
G1 X115.056 Y124.514 E18.14319
G1 X119.661 Y129.119 E18.42226
G1 X118.926 Y129.119 E18.45377
G1 X114.24 Y124.433 E18.73769
G1 X113.931 Y124.395 E18.75104
G1 X113.328 Y124.256 E18.77756
G1 X118.19 Y129.119 E19.07221
G1 X117.455 Y129.119 E19.10372
G1 X111.85 Y123.514 E19.44333
G92 E0
;WIPE_START
G1 F14400
G1 X115.729 Y127.393 E-0.76
;WIPE_END
G1 E-0.8 F2100
G1 Z0.6 F18000
; acceleration to travel
M204 S3000
G1 X118.821 Y111.524
; decel to extrusion
M204 S2000
G1 X119.567 Y107.698
; end travel
G1 Z0.2
G1 E0 F2100
G1 F1200
G1 X113.75 Y101.881 E0.35249
G1 X113.014 Y101.881 E0.384
G1 X117.944 Y106.811 E0.68276
G1 X117.183 Y106.626 E0.71634
G1 X116.998 Y106.6 E0.72433
G1 X112.279 Y101.881 E1.0103
G1 X111.543 Y101.881 E1.04181
G1 X116.158 Y106.496 E1.32146
G1 X115.398 Y106.472 E1.35404
G1 X110.808 Y101.881 E1.63221
G1 X110.073 Y101.881 E1.66372
G1 X114.705 Y106.513 E1.94441
G1 X114.393 Y106.535 E1.95781
G1 X114.052 Y106.596 E1.97265
G1 X109.337 Y101.881 E2.25834
G1 X108.602 Y101.881 E2.28985
G1 X113.431 Y106.71 E2.58246
G1 X112.858 Y106.873 E2.60795
G1 X107.866 Y101.881 E2.91045
G1 X107.131 Y101.881 E2.94196
G1 X112.31 Y107.06 E3.2558
G1 X111.785 Y107.271 E3.28003
G1 X106.668 Y102.153 E3.59013
G1 X106.3 Y102.521 E3.61241
G1 X111.297 Y107.518 E3.91522
G1 X110.821 Y107.778 E3.93844
G1 X105.933 Y102.889 E4.23469
G1 X105.565 Y103.256 E4.25697
G1 X110.38 Y108.072 E4.54876
G1 X110.106 Y108.255 E4.56289
G1 X109.954 Y108.381 E4.57135
G1 X105.197 Y103.624 E4.85958
G1 X104.829 Y103.992 E4.88186
G1 X109.552 Y108.714 E5.168
G1 X109.17 Y109.068 E5.1903
G1 X104.462 Y104.36 E5.4756
G1 X104.094 Y104.727 E5.49789
G1 X108.809 Y109.442 E5.78358
G1 X108.467 Y109.836 E5.80592
G1 X103.726 Y105.095 E6.0932
G1 X103.359 Y105.463 E6.11548
G1 X108.157 Y110.261 E6.40622
G1 X107.855 Y110.695 E6.42886
G1 X102.991 Y105.83 E6.72363
G1 X102.623 Y106.198 E6.74591
G1 X107.589 Y111.163 E7.0468
G1 X107.428 Y111.446 E7.06073
G1 X107.339 Y111.649 E7.07023
G1 X102.256 Y106.566 E7.37826
G1 X101.888 Y106.933 E7.40054
G1 X107.115 Y112.16 E7.71725
G1 X106.923 Y112.704 E7.74197
G1 X101.881 Y107.662 E8.04751
G1 X101.881 Y108.397 E8.07902
G1 X106.751 Y113.268 E8.37414
G1 X106.624 Y113.875 E8.40076
G1 X101.881 Y109.133 E8.68815
G1 X101.881 Y109.868 E8.71966
G1 X106.533 Y114.52 E9.00152
G1 X106.479 Y115.033 E9.02364
G1 X106.479 Y115.202 E9.03087
G1 X101.881 Y110.603 E9.30951
G1 X101.881 Y111.339 E9.34102
G1 X106.479 Y115.937 E9.61965
G1 X106.561 Y116.754 E9.65484
G1 X101.881 Y112.074 E9.93843
G1 X101.881 Y112.81 E9.96994
G1 X106.737 Y117.666 E10.26422
G1 X106.767 Y117.81 E10.2705
G1 X107.067 Y118.731 E10.31202
G1 X101.881 Y113.545 E10.62627
G1 X101.881 Y114.28 E10.65778
G1 X107.794 Y120.193 E11.01607
G1 X108.151 Y120.752 E11.0445
G1 X108.733 Y121.483 E11.08451
G1 X109.387 Y122.15 E11.12452
G1 X110.106 Y122.745 E11.16453
G1 X110.826 Y123.226 E11.20165
G1 X116.72 Y129.119 E11.55875
G1 X115.984 Y129.119 E11.59026
G1 X101.881 Y115.016 E12.44486
G1 X101.881 Y115.751 E12.47637
G1 X115.249 Y129.119 E13.2864
G1 X114.513 Y129.119 E13.31791
G1 X101.881 Y116.487 E14.08338
G1 X101.881 Y117.222 E14.11489
G1 X113.778 Y129.119 E14.83581
G1 X113.043 Y129.119 E14.86732
G1 X101.881 Y117.957 E15.54366
G1 X101.881 Y118.693 E15.57517
G1 X112.307 Y129.119 E16.20696
G1 X111.572 Y129.119 E16.23847
G1 X101.881 Y119.428 E16.8257
G1 X101.881 Y120.164 E16.85721
G1 X110.836 Y129.119 E17.39987
G1 X110.101 Y129.119 E17.43138
G1 X101.881 Y120.899 E17.92949
G1 X101.881 Y121.634 E17.96099
G1 X109.366 Y129.119 E18.41454
G1 X108.63 Y129.119 E18.44605
G1 X101.881 Y122.37 E18.85502
G1 X101.881 Y123.105 E18.88653
G1 X107.895 Y129.119 E19.25095
G1 X107.16 Y129.119 E19.28246
G1 X101.657 Y123.617 E19.61587
M106 S84.15
;LAYER_CHANGE
;Z:0.4
;HEIGHT:0.2

G92 E0
;WIPE_START
G1 F14400
G1 X105.536 Y127.496 E-0.76
;WIPE_END
G1 E-0.8 F2100
G1 Z0.6 F18000
; stop printing object Voron_Design_Cube_v7 id:0 copy 0
EXCLUDE_OBJECT_END NAME=Voron_Design_Cube_v7_id_0_copy_0
SET_PRINT_STATS_INFO CURRENT_LAYER=2

M104 S210 ; set temperature
M140 S60 ; set bed temperature
G92 E0
G1 Z0.8
; acceleration to travel
M204 S3000
G1 X102.76 Y130.273
; decel to extrusion
M204 S2000
G1 X102.09 Y130.942
; end travel
G1 Z0.4
G1 E0.8 F2100
;TYPE:Skirt
;WIDTH:0.48
G1 F1200
G1 X103.924 Y132.776 E0.89426
G1 X104.657 Y133.325 E0.92754
G1 X106.2 Y133.719 E0.98541
G1 X124.8 Y133.719 E1.66139
G1 X125.707 Y133.588 E1.69468
G1 X127.076 Y132.776 E1.75254
G1 X132.776 Y127.076 E2.0455
G1 X133.325 Y126.343 E2.07879
G1 X133.719 Y124.8 E2.13665
G1 X133.719 Y106.2 E2.81264
G1 X133.588 Y105.293 E2.84593
G1 X132.776 Y103.924 E2.90379
G1 X127.076 Y98.224 E3.19675
G1 X126.343 Y97.675 E3.23004
G1 X124.8 Y97.281 E3.2879
G1 X106.2 Y97.281 E3.96389
G1 X105.293 Y97.412 E3.99718
G1 X103.924 Y98.224 E4.05504
G1 X98.224 Y103.924 E4.348
G1 X97.675 Y104.657 E4.38129
G1 X97.281 Y106.2 E4.43915
G1 X97.281 Y124.8 E5.11514
G1 X97.412 Y125.707 E5.14843
G1 X98.224 Y127.076 E5.20629
G1 X102.048 Y130.9 E5.40282
G92 E0
;WIPE_START
G1 F14400
G1 X98.224 Y127.076 E-0.74917
G1 X98.184 Y127.009 E-0.76
;WIPE_END
G1 E-0.8 F2100
G1 Z0.8 F18000
; printing object Voron_Design_Cube_v7 id:0 copy 0
EXCLUDE_OBJECT_START NAME=Voron_Design_Cube_v7_id_0_copy_0
; acceleration to travel
M204 S3000
G1 X111.662 Y111.119
; decel to extrusion
M204 S2000
G1 X114.955 Y107.236
; end travel
G1 Z0.4
G1 E0 F2100
