; generated by SuperSlicer 2.5.59 on 2023-10-12 at 10:41:23 UTC


;
;

;
;
; 

; external perimeters extrusion width = 0.44mm
; perimeters extrusion width = 0.46mm
; infill extrusion width = 0.44mm
; solid infill extrusion width = 0.46mm
; top infill extrusion width = 0.44mm
; first layer extrusion width = 0.57mm

; object:{"name":"Voron_Design_Cube_v7","id":"Voron_Design_Cube_v7 id:0 copy 0","object_center":[115.500000,115.500000,0.000000],"boundingbox_center":[115.500000,115.500000,15.000000],"boundingbox_size":[30.000000,30.000000,30.000000]}
EXCLUDE_OBJECT_DEFINE NAME=Voron_Design_Cube_v7_id_0_copy_0 CENTER=115.500000,115.500000 POLYGON=[[100.500000,100.500000],[130.500000,100.500000],[130.500000,130.500000],[100.500000,130.500000],[100.500000,100.500000]]
; plater:{"center":[115.500000,115.500000,0.000000],"boundingbox_center":[115.500000,115.500000,15.000000],"boundingbox_size":[30.000000,30.000000,30.000000]}

;TYPE:Custom
SET_PRINT_STATS_INFO TOTAL_LAYER=150

PRINT_START BED=60 EXTRUDER=215 CHAMBER=0 SIZE=96.8605_96.8605_134.14_134.14 MATERIAL=PLA
; Filament gcode
SET_PRESSURE_ADVANCE ADVANCE=0.08
;_TOOLCHANGE 0
M107
;LAYER_CHANGE
;Z:0.24
;HEIGHT:0.24

G1 E-0.8 F2100
G1 Z0.4 F18000
SET_PRINT_STATS_INFO CURRENT_LAYER=1

G92 E0
G1 Z0.64
M204 S1000
G1 X101.058 Y101.058
G1 Z0.24
G1 E0.8 F2100
;TYPE:Skirt
;WIDTH:0.48
G1 F1200
G1 X98.228 Y103.888 E0.96769
G1 X97.681 Y104.619 E1.00595
G1 X97.287 Y106.16 E1.07261
G1 X97.287 Y124.84 E1.8553
G1 X97.417 Y125.744 E1.89356
G1 X98.228 Y127.112 E1.96021
G1 X103.888 Y132.772 E2.2956
G1 X104.619 Y133.319 E2.33386
G1 X106.16 Y133.713 E2.40051
G1 X124.84 Y133.713 E3.18321
G1 X125.744 Y133.583 E3.22147
G1 X127.112 Y132.772 E3.28812
G1 X132.772 Y127.112 E3.62351
G1 X133.319 Y126.381 E3.66177
G1 X133.713 Y124.84 E3.72842
G1 X133.713 Y106.16 E4.51112
G1 X133.583 Y105.256 E4.54938
G1 X132.772 Y103.888 E4.61603
G1 X127.112 Y98.228 E4.95142
G1 X126.381 Y97.681 E4.98968
G1 X124.84 Y97.287 E5.05633
G1 X106.16 Y97.287 E5.83903
G1 X105.256 Y97.417 E5.87729
G1 X103.888 Y98.228 E5.94394
G1 X101.1 Y101.016 E6.10912
M104 S215 ; set temperature
G92 E0
;WIPE_START
G1 F14400
G1 X103.888 Y98.228 E-0.54616
G1 X105.216 Y97.441 E-0.76
;WIPE_END
G1 E-0.8 F2100
G1 Z0.64 F18000
; printing object Voron_Design_Cube_v7 id:0 copy 0
EXCLUDE_OBJECT_START NAME=Voron_Design_Cube_v7_id_0_copy_0
; acceleration to travel
M204 S1500
G1 X106.989 Y109.545
; decel to extrusion
M204 S1000
G1 X107.416 Y112.463
; end travel
G1 Z0.24
G1 E0 F2100
;TYPE:Internal perimeter
;WIDTH:0.571504
G1 F1200
G1 X107.151 Y113.29 E0.04417
G1 X106.967 Y114.164 E0.08961
G1 X106.875 Y115.053 E0.13504
G1 X106.875 Y115.947 E0.18048
G1 X106.967 Y116.836 E0.22592
G1 X107.151 Y117.71 E0.27136
G1 X107.422 Y118.556 E0.31653
G1 X107.671 Y119.14 E0.34882
G1 X107.996 Y119.776 E0.38512
G1 X108.476 Y120.526 E0.43039
G1 X109.033 Y121.225 E0.47583
G1 X109.659 Y121.862 E0.52127
G1 X110.348 Y122.432 E0.56671
G1 X111.091 Y122.927 E0.61214
G1 X111.877 Y123.34 E0.65729
G1 X112.464 Y123.583 E0.6896
G1 X113.142 Y123.809 E0.72593
G1 X114.01 Y124.007 E0.77118
G1 X114.897 Y124.116 E0.81661
G1 X115.79 Y124.132 E0.86205
G1 X116.68 Y124.056 E0.90749
G1 X117.558 Y123.888 E0.95292
G1 X118.408 Y123.632 E0.99804
G1 X118.998 Y123.395 E1.03039
G1 X119.639 Y123.08 E1.06673
G1 X120.397 Y122.614 E1.11195
G1 X121.106 Y122.07 E1.1574
G1 X121.755 Y121.456 E1.20283
G1 X122.337 Y120.777 E1.24827
G1 X122.845 Y120.043 E1.2937
G1 X123.275 Y119.259 E1.33914
G1 X123.622 Y118.436 E1.38457
G1 X123.882 Y117.581 E1.43001
G1 X124.052 Y116.704 E1.47544
G1 X124.13 Y115.821 E1.52052
G1 X124.13 Y115.179 E1.55314
G1 X124.052 Y114.296 E1.59821
G1 X123.882 Y113.419 E1.64365
G1 X123.623 Y112.568 E1.68885
G1 X123.352 Y111.906 E1.72523
G1 X123.067 Y111.338 E1.75759
G1 X122.6 Y110.583 E1.80268
G1 X122.054 Y109.876 E1.84812
G1 X121.438 Y109.229 E1.89355
G1 X120.759 Y108.649 E1.93899
G1 X120.023 Y108.142 E1.98443
G1 X119.242 Y107.716 E2.02965
G1 X118.585 Y107.435 E2.066
G1 X117.983 Y107.228 E2.09834
G1 X117.121 Y107.017 E2.14346
G1 X116.236 Y106.895 E2.1889
G1 X115.343 Y106.865 E2.23433
G1 X114.897 Y106.896 E2.25705
G1 X114.452 Y106.927 E2.27977
G1 X113.572 Y107.081 E2.32521
G1 X112.712 Y107.326 E2.37065
G1 X111.882 Y107.657 E2.41608
G1 X111.091 Y108.073 E2.46152
G1 X110.348 Y108.568 E2.50696
G1 X109.661 Y109.136 E2.55222
G1 X109.157 Y109.641 E2.58853
G1 X108.742 Y110.122 E2.62083
G1 X108.225 Y110.844 E2.66599
G1 X107.783 Y111.621 E2.71143
G1 X107.438 Y112.407 E2.75508
G1 X107.911 Y112.624 F18000
;TYPE:External perimeter
G1 F1200
G1 X107.654 Y113.423 E2.79778
G1 X107.481 Y114.245 E2.84048
G1 X107.395 Y115.08 E2.88318
G1 X107.395 Y115.92 E2.92588
G1 X107.481 Y116.755 E2.96858
G1 X107.654 Y117.577 E3.01128
G1 X107.91 Y118.374 E3.05386
G1 X108.142 Y118.92 E3.084
G1 X108.447 Y119.517 E3.11809
G1 X108.899 Y120.223 E3.16073
G1 X109.423 Y120.879 E3.20342
G1 X110.011 Y121.479 E3.24612
G1 X110.658 Y122.014 E3.28882
G1 X111.357 Y122.479 E3.33152
G1 X112.098 Y122.869 E3.37409
G1 X112.646 Y123.096 E3.40424
G1 X113.282 Y123.307 E3.43835
G1 X114.099 Y123.494 E3.48096
G1 X114.933 Y123.596 E3.52366
G1 X115.773 Y123.612 E3.56636
G1 X116.609 Y123.54 E3.60906
G1 X117.434 Y123.382 E3.65175
G1 X118.235 Y123.141 E3.69432
G1 X118.786 Y122.92 E3.72449
G1 X119.388 Y122.624 E3.7586
G1 X120.102 Y122.185 E3.8012
G1 X120.768 Y121.674 E3.8439
G1 X121.378 Y121.096 E3.8866
G1 X121.924 Y120.459 E3.9293
G1 X122.402 Y119.769 E3.97199
G1 X122.807 Y119.033 E4.01469
G1 X123.132 Y118.259 E4.05738
G1 X123.377 Y117.456 E4.10008
G1 X123.536 Y116.631 E4.14278
G1 X123.61 Y115.798 E4.18532
G1 X123.61 Y115.202 E4.2156
G1 X123.536 Y114.369 E4.25815
G1 X123.377 Y113.544 E4.30084
G1 X123.133 Y112.743 E4.34344
G1 X122.879 Y112.122 E4.37756
G1 X122.613 Y111.592 E4.40774
G1 X122.172 Y110.88 E4.45029
G1 X121.659 Y110.215 E4.49298
G1 X121.08 Y109.607 E4.53568
G1 X120.442 Y109.062 E4.57838
G1 X119.75 Y108.586 E4.62107
G1 X119.014 Y108.184 E4.66368
G1 X118.398 Y107.92 E4.69779
G1 X117.837 Y107.728 E4.72796
G1 X117.024 Y107.528 E4.77052
G1 X116.192 Y107.413 E4.81322
G1 X115.353 Y107.385 E4.85592
G1 X114.934 Y107.415 E4.87727
G1 X114.515 Y107.444 E4.89862
G1 X113.688 Y107.589 E4.94131
G1 X112.88 Y107.818 E4.98401
G1 X112.1 Y108.13 E5.02671
G1 X111.357 Y108.521 E5.06941
G1 X110.658 Y108.986 E5.11211
G1 X110.012 Y109.52 E5.15473
G1 X109.539 Y109.995 E5.18883
G1 X109.151 Y110.444 E5.21897
G1 X108.664 Y111.125 E5.26155
G1 X108.248 Y111.855 E5.30425
G1 X107.935 Y112.569 E5.3439
;WIPE_START
G1 X107.517 Y112.695 F18000
;WIPE_END
G92 E0
;WIPE_START
G1 F14400
G1 X107.46 Y113.372 E-0.09415
G1 X107.284 Y114.214 E-0.21337
G1 X107.195 Y115.07 E-0.33257
G1 X107.195 Y115.93 E-0.45179
G1 X107.284 Y116.786 E-0.57099
G1 X107.46 Y117.628 E-0.6902
G1 X107.614 Y118.108 E-0.76
;WIPE_END
G1 E-0.8 F2100
G1 Z0.64 F18000
; acceleration to travel
M204 S1500
G1 X102.676 Y108.956
; decel to extrusion
M204 S1000
G1 X101.486 Y106.75
; end travel
G1 Z0.24
G1 E0 F2100
;TYPE:Internal perimeter
G1 F1200
G1 X106.75 Y101.486 E0.37856
G1 X124.25 Y101.486 E1.26839
G1 X124.666 Y101.902 E1.29834
G1 X129.514 Y106.75 E1.64695
G1 X129.514 Y124.25 E2.53678
G1 X124.25 Y129.514 E2.91534
G1 X106.75 Y129.514 E3.80517
G1 X101.486 Y124.25 E4.18373
G1 X101.486 Y106.81 E5.07051
G1 X100.966 Y106.535 F18000
;TYPE:External perimeter
G1 F1200
G1 X106.535 Y100.966 E5.47098
G1 X124.465 Y100.966 E6.3827
G1 X125.034 Y101.535 E6.42361
G1 X130.034 Y106.535 E6.78317
G1 X130.034 Y124.465 E7.6949
G1 X124.465 Y130.034 E8.09537
G1 X106.535 Y130.034 E9.0071
G1 X100.966 Y124.465 E9.40757
G1 X100.966 Y106.595 E10.31625
;WIPE_START
G1 X101.366 Y106.535 F18000
;WIPE_END
G92 E0
;WIPE_START
G1 F14400
G1 X105.202 Y102.613 E-0.76
;WIPE_END
G1 E-0.8 F2100
G1 Z0.64 F18000
; acceleration to travel
M204 S1500
G1 X124.666 Y106.265
; decel to extrusion
M204 S1000
G1 X129.358 Y107.146
; end travel
G1 Z0.24
G1 E0 F2100
;TYPE:Solid infill
;WIDTH:0.567127
G1 F1200
G1 X124.078 Y101.865 E0.37681
G1 X123.342 Y101.865 E0.41392
G1 X129.135 Y107.658 E0.82724
G1 X129.135 Y108.393 E0.86435
G1 X122.607 Y101.865 E1.33016
G1 X121.872 Y101.865 E1.36726
G1 X129.135 Y109.128 E1.88555
G1 X129.135 Y109.864 E1.92266
G1 X121.136 Y101.865 E2.49342
G1 X120.401 Y101.865 E2.53052
G1 X129.135 Y110.599 E3.15376
G1 X129.135 Y111.335 E3.19087
G1 X119.665 Y101.865 E3.86658
G1 X118.93 Y101.865 E3.90369
G1 X129.135 Y112.07 E4.63188
G1 X129.135 Y112.805 E4.66898
G1 X118.195 Y101.865 E5.44965
G1 X117.459 Y101.865 E5.48676
G1 X129.135 Y113.541 E6.3199
G1 X129.135 Y114.276 E6.35701
G1 X116.724 Y101.865 E7.24263
G1 X115.989 Y101.865 E7.27974
G1 X129.135 Y115.011 E8.21784
G1 X129.135 Y115.747 E8.25495
G1 X115.253 Y101.865 E9.24552
G1 X114.518 Y101.865 E9.28263
G1 X129.135 Y116.482 E10.32568
G1 X129.135 Y117.218 E10.36279
G1 X123.72 Y111.803 E10.74915
G1 X123.981 Y112.441 E10.78393
G1 X124.138 Y112.956 E10.81111
G1 X129.135 Y117.953 E11.16766
G1 X129.135 Y118.688 E11.20477
G1 X124.366 Y113.919 E11.54508
G1 X124.428 Y114.243 E11.56173
G1 X124.474 Y114.763 E11.58808
G1 X129.135 Y119.424 E11.92064
G1 X129.135 Y120.159 E11.95774
G1 X124.51 Y115.534 E12.28779
G1 X124.51 Y115.837 E12.30309
G1 X124.475 Y116.234 E12.3232
G1 X129.135 Y120.895 E12.65574
G1 X129.135 Y121.63 E12.69285
G1 X124.401 Y116.897 E13.03062
G1 X124.282 Y117.513 E13.06228
G1 X129.135 Y122.365 E13.40857
G1 X129.135 Y123.101 E13.44568
G1 X124.124 Y118.09 E13.80323
G1 X123.945 Y118.647 E13.83273
G1 X129.135 Y123.836 E14.20305
G1 X129.135 Y124.093 E14.21599
G1 X128.895 Y124.332 E14.23308
G1 X123.727 Y119.164 E14.60186
G1 X123.617 Y119.425 E14.61613
G1 X123.488 Y119.66 E14.62969
G1 X128.528 Y124.7 E14.98929
G1 X128.16 Y125.067 E15.01553
G1 X123.228 Y120.135 E15.3675
G1 X122.936 Y120.579 E15.39429
G1 X127.792 Y125.435 E15.74083
G1 X127.424 Y125.803 E15.76707
G1 X122.635 Y121.013 E16.10887
G1 X122.295 Y121.409 E16.13518
G1 X127.057 Y126.171 E16.47498
G1 X126.689 Y126.538 E16.50122
G1 X121.947 Y121.796 E16.8396
G1 X121.569 Y122.154 E16.86585
G1 X126.321 Y126.906 E17.20495
G1 X125.954 Y127.274 E17.23119
G1 X121.175 Y122.495 E17.57217
G1 X120.759 Y122.815 E17.59863
G1 X125.586 Y127.641 E17.94306
G1 X125.218 Y128.009 E17.9693
G1 X120.318 Y123.108 E18.319
G1 X119.862 Y123.388 E18.34597
G1 X124.851 Y128.377 E18.70194
G1 X124.483 Y128.744 E18.72817
G1 X119.372 Y123.634 E19.09285
G1 X118.862 Y123.859 E19.121
G1 X124.115 Y129.112 E19.49588
G1 X124.093 Y129.135 E19.49749
G1 X123.402 Y129.135 E19.53231
G1 X118.322 Y124.054 E19.89484
G1 X117.757 Y124.225 E19.92463
G1 X122.667 Y129.135 E20.27501
G1 X121.932 Y129.135 E20.31212
G1 X117.149 Y124.353 E20.65337
G1 X116.732 Y124.432 E20.6748
G1 X116.513 Y124.451 E20.68593
G1 X121.196 Y129.135 E21.02015
G1 X120.461 Y129.135 E21.05725
G1 X115.835 Y124.509 E21.38734
G1 X115.09 Y124.499 E21.42496
G1 X119.725 Y129.135 E21.75577
G1 X118.99 Y129.135 E21.79287
G1 X114.278 Y124.422 E22.12913
G1 X113.944 Y124.382 E22.1461
G1 X113.37 Y124.25 E22.1758
G1 X118.255 Y129.135 E22.52435
G1 X117.519 Y129.135 E22.56146
G1 X111.905 Y123.52 E22.96209
G92 E0
;WIPE_START
G1 F14400
G1 X115.784 Y127.399 E-0.76
;WIPE_END
G1 E-0.8 F2100
G1 Z0.64 F18000
; acceleration to travel
M204 S1500
G1 X118.949 Y111.603
; decel to extrusion
M204 S1000
G1 X119.712 Y107.795
; end travel
G1 Z0.24
G1 E0 F2100
G1 F1200
G1 X113.782 Y101.865 E0.42314
G1 X113.047 Y101.865 E0.46025
G1 X118.031 Y106.849 E0.81589
G1 X117.073 Y106.627 E0.86548
G1 X112.312 Y101.865 E1.20527
G1 X111.576 Y101.865 E1.24238
G1 X116.225 Y106.514 E1.57414
G1 X115.464 Y106.489 E1.61256
G1 X110.841 Y101.865 E1.94249
G1 X110.105 Y101.865 E1.9796
G1 X114.765 Y106.525 E2.31208
G1 X114.406 Y106.55 E2.33025
G1 X114.107 Y106.602 E2.34555
G1 X109.37 Y101.865 E2.68356
G1 X108.635 Y101.865 E2.72067
G1 X113.482 Y106.712 E3.06654
G1 X112.909 Y106.875 E3.09658
G1 X107.899 Y101.865 E3.45406
G1 X107.164 Y101.865 E3.49117
G1 X112.357 Y107.059 E3.86176
G1 X111.832 Y107.269 E3.8903
G1 X106.668 Y102.105 E4.2588
G1 X106.3 Y102.472 E4.28503
G1 X111.341 Y107.513 E4.64473
G1 X110.862 Y107.77 E4.67214
G1 X105.933 Y102.84 E5.0239
G1 X105.565 Y103.208 E5.05014
G1 X110.421 Y108.064 E5.39665
G1 X109.992 Y108.37 E5.42325
G1 X105.197 Y103.576 E5.76538
G1 X104.829 Y103.943 E5.79162
G1 X109.589 Y108.703 E6.13126
G1 X109.206 Y109.055 E6.15753
G1 X104.462 Y104.311 E6.49606
G1 X104.094 Y104.679 E6.5223
G1 X108.842 Y109.426 E6.86108
G1 X108.501 Y109.821 E6.88739
G1 X103.726 Y105.046 E7.22809
G1 X103.359 Y105.414 E7.25433
G1 X108.188 Y110.244 E7.59897
G1 X107.885 Y110.675 E7.6256
G1 X102.991 Y105.782 E7.97481
G1 X102.623 Y106.149 E8.00105
G1 X107.618 Y111.144 E8.35746
G1 X107.444 Y111.45 E8.37523
G1 X107.366 Y111.627 E8.38499
G1 X102.256 Y106.517 E8.74965
G1 X101.888 Y106.885 E8.77589
G1 X107.141 Y112.138 E9.15076
G1 X107.068 Y112.304 E9.15992
G1 X106.948 Y112.68 E9.17983
G1 X101.865 Y107.598 E9.5425
G1 X101.865 Y108.333 E9.57961
G1 X106.773 Y113.241 E9.92982
G1 X106.645 Y113.848 E9.96116
G1 X101.865 Y109.068 E10.30226
G1 X101.865 Y109.804 E10.33937
G1 X106.551 Y114.49 E10.67377
G1 X106.495 Y115.169 E10.70814
G1 X101.865 Y110.539 E11.03852
G1 X101.865 Y111.275 E11.07562
G1 X106.495 Y115.904 E11.40599
G1 X106.573 Y116.718 E11.44723
G1 X101.865 Y112.01 E11.78317
G1 X101.865 Y112.745 E11.82028
G1 X106.745 Y117.625 E12.16847
G1 X106.783 Y117.807 E12.17789
G1 X107.063 Y118.678 E12.22402
G1 X101.865 Y113.481 E12.59489
G1 X101.865 Y114.216 E12.632
G1 X107.759 Y120.11 E13.05256
G1 X108.167 Y120.747 E13.09073
G1 X108.748 Y121.477 E13.13781
G1 X109.402 Y122.142 E13.18488
G1 X110.121 Y122.737 E13.23196
G1 X110.909 Y123.26 E13.2797
G1 X116.784 Y129.135 E13.69892
G1 X116.048 Y129.135 E13.73602
G1 X101.865 Y114.952 E14.74812
G1 X101.865 Y115.687 E14.78523
G1 X115.313 Y129.135 E15.74485
G1 X114.578 Y129.135 E15.78196
G1 X101.865 Y116.422 E16.68911
G1 X101.865 Y117.158 E16.72621
G1 X113.842 Y129.135 E17.58088
G1 X113.107 Y129.135 E17.61799
G1 X101.865 Y117.893 E18.42018
G1 X101.865 Y118.628 E18.45729
G1 X112.372 Y129.135 E19.207
G1 X111.636 Y129.135 E19.24411
G1 X101.865 Y119.364 E19.94135
G1 X101.865 Y120.099 E19.97845
G1 X110.901 Y129.135 E20.62322
G1 X110.165 Y129.135 E20.66032
G1 X101.865 Y120.835 E21.25261
G1 X101.865 Y121.57 E21.28971
G1 X109.43 Y129.135 E21.82952
G1 X108.695 Y129.135 E21.86663
G1 X101.865 Y122.305 E22.35396
G1 X101.865 Y123.041 E22.39107
G1 X107.959 Y129.135 E22.82592
G1 X107.224 Y129.135 E22.86303
G1 X101.642 Y123.553 E23.26136
M106 S84.15
;LAYER_CHANGE
;Z:0.44
;HEIGHT:0.2

G92 E0
;WIPE_START
G1 F14400
G1 X105.521 Y127.432 E-0.76
;WIPE_END
G1 E-0.8 F2100
G1 Z0.64 F18000
; stop printing object Voron_Design_Cube_v7 id:0 copy 0
EXCLUDE_OBJECT_END NAME=Voron_Design_Cube_v7_id_0_copy_0
SET_PRINT_STATS_INFO CURRENT_LAYER=2

M104 S210 ; set temperature
M140 S60 ; set bed temperature
G92 E0
G1 Z0.84
; acceleration to travel
M204 S1500
G1 X102.711 Y130.241
; decel to extrusion
M204 S1000
G1 X102.034 Y130.918
; end travel
G1 Z0.44
G1 E0.8 F2100
;TYPE:Skirt
;WIDTH:0.48
G1 F1200
G1 X103.888 Y132.772 E0.89338
G1 X104.619 Y133.319 E0.9259
G1 X106.16 Y133.713 E0.98255
G1 X124.84 Y133.713 E1.64787
G1 X125.744 Y133.583 E1.68039
G1 X127.112 Y132.772 E1.73705
G1 X132.772 Y127.112 E2.02214
G1 X133.319 Y126.381 E2.05466
G1 X133.713 Y124.84 E2.11131
G1 X133.713 Y106.16 E2.77663
G1 X133.583 Y105.256 E2.80915
G1 X132.772 Y103.888 E2.86581
G1 X127.112 Y98.228 E3.1509
G1 X126.381 Y97.681 E3.18341
G1 X124.84 Y97.287 E3.24007
G1 X106.16 Y97.287 E3.90539
G1 X105.256 Y97.417 E3.93791
G1 X103.888 Y98.228 E3.99456
G1 X98.228 Y103.888 E4.27965
G1 X97.681 Y104.619 E4.31217
G1 X97.287 Y106.16 E4.36883
G1 X97.287 Y124.84 E5.03415
G1 X97.417 Y125.744 E5.06667
G1 X98.228 Y127.112 E5.12332
G1 X101.992 Y130.876 E5.3129
G92 E0
;WIPE_START
G1 F14400
G1 X98.228 Y127.112 E-0.73742
G1 X98.145 Y126.972 E-0.76
;WIPE_END
G1 E-0.8 F2100
G1 Z0.84 F18000
; printing object Voron_Design_Cube_v7 id:0 copy 0
EXCLUDE_OBJECT_START NAME=Voron_Design_Cube_v7_id_0_copy_0
; acceleration to travel
M204 S1500
G1 X111.654 Y111.111
; decel to extrusion
M204 S1000
G1 X114.955 Y107.236
; end travel
G1 Z0.44
G1 E0 F2100
