; generated by SuperSlicer 2.5.59 on 2023-10-11 at 15:29:55 UTC


;
;

;
;
; 

; external perimeters extrusion width = 0.44mm
; perimeters extrusion width = 0.46mm
; infill extrusion width = 0.44mm
; solid infill extrusion width = 0.46mm
; top infill extrusion width = 0.44mm
; first layer extrusion width = 0.57mm

; object:{"name":"Voron_Design_Cube_v7","id":"Voron_Design_Cube_v7 id:0 copy 0","object_center":[115.500000,115.500000,0.000000],"boundingbox_center":[115.500000,115.500000,10.000000],"boundingbox_size":[20.000000,20.000000,20.000000]}
EXCLUDE_OBJECT_DEFINE NAME=Voron_Design_Cube_v7_id_0_copy_0 CENTER=115.500000,115.500000 POLYGON=[[105.500000,105.500000],[125.500000,105.500000],[125.500000,125.500000],[105.500000,125.500000],[105.500000,105.500000]]
; plater:{"center":[115.500000,115.500000,0.000000],"boundingbox_center":[115.500000,115.500000,10.000000],"boundingbox_size":[20.000000,20.000000,20.000000]}

;TYPE:Custom
SET_PRINT_STATS_INFO TOTAL_LAYER=100

PRINT_START BED=60 EXTRUDER=210 CHAMBER=0 SIZE=101.434_101.434_129.566_129.566 MATERIAL=PLA
; Filament gcode
SET_PRESSURE_ADVANCE ADVANCE=0.08
;_TOOLCHANGE 0
M107
;LAYER_CHANGE
;Z:0.24
;HEIGHT:0.24

G1 E-0.8 F2100
G1 Z0.4 F18000
SET_PRINT_STATS_INFO CURRENT_LAYER=1

G92 E0
G1 Z0.64
M204 S1000
G1 X104.756 Y104.756
G1 Z0.24
G1 E0.8 F2100
;TYPE:Skirt
;WIDTH:0.48
G1 F1200
G1 X102.926 Y106.586 E0.90844
G1 X102.255 Y107.512 E0.95635
G1 X101.86 Y109.16 E1.02735
G1 X101.86 Y121.84 E1.55865
G1 X102.04 Y122.969 E1.60656
G1 X102.926 Y124.414 E1.67756
G1 X106.586 Y128.074 E1.89444
G1 X107.512 Y128.745 E1.94235
G1 X109.16 Y129.14 E2.01335
G1 X121.84 Y129.14 E2.54465
G1 X122.969 Y128.96 E2.59256
G1 X124.414 Y128.074 E2.66357
G1 X128.074 Y124.414 E2.88044
G1 X128.745 Y123.488 E2.92835
G1 X129.14 Y121.84 E2.99936
G1 X129.14 Y109.16 E3.53065
G1 X128.96 Y108.031 E3.57856
G1 X128.074 Y106.586 E3.64957
G1 X124.414 Y102.926 E3.86644
G1 X123.488 Y102.255 E3.91436
G1 X121.84 Y101.86 E3.98536
G1 X109.16 Y101.86 E4.51666
G1 X108.031 Y102.04 E4.56457
G1 X106.586 Y102.926 E4.63557
G1 X104.799 Y104.714 E4.74149
G1 X105.1 Y105.016 F18000
G1 F1200
G1 X103.228 Y106.888 E4.85245
G1 X102.681 Y107.619 E4.8907
G1 X102.287 Y109.16 E4.95736
G1 X102.287 Y121.84 E5.48865
G1 X102.417 Y122.744 E5.52691
G1 X103.228 Y124.112 E5.59356
G1 X106.888 Y127.772 E5.81044
G1 X107.619 Y128.319 E5.8487
G1 X109.16 Y128.713 E5.91535
G1 X121.84 Y128.713 E6.44665
G1 X122.744 Y128.583 E6.4849
G1 X124.112 Y127.772 E6.55156
G1 X127.772 Y124.112 E6.76844
G1 X128.319 Y123.381 E6.80669
G1 X128.713 Y121.84 E6.87335
G1 X128.713 Y109.16 E7.40464
G1 X128.583 Y108.256 E7.4429
G1 X127.772 Y106.888 E7.50955
G1 X124.112 Y103.228 E7.72643
G1 X123.381 Y102.681 E7.76469
G1 X121.84 Y102.287 E7.83134
G1 X109.16 Y102.287 E8.36264
G1 X108.256 Y102.417 E8.40089
G1 X106.888 Y103.228 E8.46755
G1 X105.143 Y104.973 E8.57096
M104 S210 ; set temperature
G92 E0
;WIPE_START
G1 F14400
G1 X106.888 Y103.228 E-0.34192
G1 X108.256 Y102.417 E-0.56231
G1 X109.16 Y102.287 E-0.6888
G1 X109.674 Y102.287 E-0.76
;WIPE_END
G1 E-0.8 F2100
G1 Z0.64 F18000
; printing object Voron_Design_Cube_v7 id:0 copy 0
EXCLUDE_OBJECT_START NAME=Voron_Design_Cube_v7_id_0_copy_0
; acceleration to travel
M204 S1500
G1 X111.074 Y109.971
; decel to extrusion
M204 S1000
G1 X111.411 Y111.823
; end travel
G1 Z0.24
G1 E0 F2100
;TYPE:External perimeter
;WIDTH:0.571504
G1 F1200
G1 X111.202 Y112.069 E0.0164
G1 X110.872 Y112.529 E0.04519
G1 X110.589 Y113.024 E0.07419
G1 X110.359 Y113.546 E0.1032
G1 X110.184 Y114.089 E0.1322
G1 X110.067 Y114.647 E0.16121
G1 X110.008 Y115.215 E0.19021
G1 X110.008 Y115.785 E0.21922
G1 X110.067 Y116.353 E0.24822
G1 X110.184 Y116.911 E0.27723
G1 X110.359 Y117.454 E0.30623
G1 X110.589 Y117.976 E0.33524
G1 X110.87 Y118.467 E0.36403
G1 X111.052 Y118.733 E0.38043
G1 X111.389 Y119.153 E0.40777
G1 X111.789 Y119.559 E0.43676
G1 X112.229 Y119.921 E0.46576
G1 X112.705 Y120.236 E0.49477
G1 X113.207 Y120.498 E0.52356
G1 X113.504 Y120.624 E0.53996
G1 X114.014 Y120.795 E0.5673
G1 X114.57 Y120.92 E0.59629
G1 X115.136 Y120.988 E0.62529
G1 X115.707 Y120.996 E0.6543
G1 X116.275 Y120.945 E0.6833
G1 X116.835 Y120.835 E0.71231
G1 X117.376 Y120.669 E0.74109
G1 X117.676 Y120.55 E0.7575
G1 X118.159 Y120.314 E0.78484
G1 X118.643 Y120.013 E0.81382
G1 X119.093 Y119.663 E0.84283
G1 X119.505 Y119.269 E0.87183
G1 X119.874 Y118.833 E0.90084
G1 X120.196 Y118.362 E0.92984
G1 X120.467 Y117.861 E0.95885
G1 X120.685 Y117.333 E0.98785
G1 X120.847 Y116.786 E1.01685
G1 X120.951 Y116.226 E1.04586
G1 X120.997 Y115.662 E1.07463
G1 X120.997 Y115.338 E1.09107
G1 X120.951 Y114.774 E1.11984
G1 X120.847 Y114.214 E1.14885
G1 X120.685 Y113.667 E1.17783
G1 X120.481 Y113.169 E1.20518
G1 X120.336 Y112.881 E1.22159
G1 X120.041 Y112.398 E1.25037
G1 X119.695 Y111.944 E1.27937
G1 X119.305 Y111.529 E1.30838
G1 X118.873 Y111.156 E1.33738
G1 X118.405 Y110.83 E1.36639
G1 X117.906 Y110.555 E1.39537
G1 X117.411 Y110.344 E1.42272
G1 X117.105 Y110.24 E1.43912
G1 X116.556 Y110.103 E1.46791
G1 X115.991 Y110.022 E1.49691
G1 X115.421 Y110.001 E1.52592
G1 X115.137 Y110.02 E1.54042
G1 X114.852 Y110.039 E1.55492
G1 X114.29 Y110.135 E1.58393
G1 X113.741 Y110.289 E1.61293
G1 X113.211 Y110.5 E1.64193
G1 X112.705 Y110.764 E1.67094
G1 X112.229 Y111.079 E1.69994
G1 X111.789 Y111.441 E1.72893
G1 X111.453 Y111.781 E1.75323
;WIPE_START
G1 X111.02 Y111.741 F18000
;WIPE_END
G92 E0
;WIPE_START
G1 F14400
G1 X110.703 Y112.421 E-0.10381
G1 X110.41 Y112.934 E-0.18571
G1 X110.172 Y113.475 E-0.26761
G1 X109.991 Y114.038 E-0.34952
G1 X109.869 Y114.616 E-0.43143
G1 X109.808 Y115.204 E-0.51333
G1 X109.808 Y115.796 E-0.59524
G1 X109.869 Y116.384 E-0.67714
G1 X109.991 Y116.962 E-0.75905
G1 X109.993 Y116.969 E-0.76
;WIPE_END
G1 E-0.8 F2100
G1 Z0.64 F18000
; acceleration to travel
M204 S1500
G1 X106.694 Y110.972
; decel to extrusion
M204 S1000
G1 X105.899 Y109.526
; end travel
G1 Z0.24
G1 E0 F2100
G1 F1200
G1 X109.526 Y105.899 E0.26084
G1 X121.474 Y105.899 E0.86833
G1 X121.711 Y106.136 E0.8854
G1 X125.101 Y109.526 E1.12918
G1 X125.101 Y121.474 E1.73666
G1 X121.474 Y125.101 E1.99751
G1 X109.526 Y125.101 E2.60499
G1 X105.899 Y121.474 E2.86584
G1 X105.899 Y109.586 E3.47027
;WIPE_START
G1 X106.299 Y109.526 F18000
;WIPE_END
G92 E0
;WIPE_START
G1 F14400
G1 X109.609 Y106.099 E-0.66014
G1 X110.33 Y106.099 E-0.76
;WIPE_END
G1 E-0.8 F2100
G1 Z0.64 F18000
; acceleration to travel
M204 S1500
G1 X122.106 Y109.179
; decel to extrusion
M204 S1000
G1 X124.945 Y109.922
; end travel
G1 Z0.24
G1 E0 F2100
;TYPE:Solid infill
;WIDTH:0.564262
G1 F1200
G1 X121.302 Y106.279 E0.25868
G1 X120.566 Y106.279 E0.2956
G1 X124.721 Y110.434 E0.59061
G1 X124.721 Y111.169 E0.62753
G1 X119.831 Y106.279 E0.97475
G1 X119.095 Y106.279 E1.01167
G1 X124.721 Y111.905 E1.41111
G1 X124.721 Y112.64 E1.44803
G1 X118.36 Y106.279 E1.89968
G1 X117.625 Y106.279 E1.9366
G1 X124.721 Y113.375 E2.44046
G1 X124.721 Y114.111 E2.47737
G1 X116.889 Y106.279 E3.03345
G1 X116.154 Y106.279 E3.07037
G1 X124.721 Y114.846 E3.67865
G1 X124.721 Y115.582 E3.71557
G1 X115.418 Y106.279 E4.37606
G1 X114.683 Y106.279 E4.41298
G1 X124.721 Y116.317 E5.12569
G1 X124.721 Y117.052 E5.16261
G1 X120.928 Y113.259 E5.43194
G1 X120.823 Y113.003 E5.44585
G1 X120.358 Y112.188 E5.49292
G1 X119.985 Y111.699 E5.52382
G1 X119.567 Y111.254 E5.55443
G1 X119.106 Y110.856 E5.58505
G1 X118.605 Y110.507 E5.61567
G1 X118.072 Y110.213 E5.64624
G1 X117.741 Y110.072 E5.66435
G1 X113.948 Y106.279 E5.93364
G1 X113.212 Y106.279 E5.97056
G1 X116.676 Y109.742 E6.21646
G1 X116.019 Y109.643 E6.24981
G1 X115.841 Y109.642 E6.25876
G1 X112.477 Y106.279 E6.49758
G1 X111.741 Y106.279 E6.5345
G1 X115.104 Y109.641 E6.77324
G1 X114.457 Y109.729 E6.80603
G1 X111.006 Y106.279 E7.05103
G1 X110.271 Y106.279 E7.08795
G1 X113.855 Y109.863 E7.34243
G1 X113.619 Y109.929 E7.35473
G1 X113.309 Y110.052 E7.37149
G1 X109.609 Y106.353 E7.63414
G1 X109.242 Y106.721 E7.66025
G1 X112.805 Y110.283 E7.91321
G1 X112.512 Y110.436 E7.92979
G1 X112.338 Y110.552 E7.94028
G1 X108.874 Y107.088 E8.18619
G1 X108.506 Y107.456 E8.21229
G1 X111.905 Y110.854 E8.45357
G1 X111.504 Y111.189 E8.47978
G1 X108.139 Y107.824 E8.71873
G1 X107.771 Y108.191 E8.74484
G1 X111.139 Y111.559 E8.98394
G1 X110.818 Y111.974 E9.01026
G1 X107.403 Y108.559 E9.25272
G1 X107.036 Y108.927 E9.27882
G1 X110.509 Y112.4 E9.5254
G1 X110.243 Y112.869 E9.55249
G1 X106.668 Y109.294 E9.80629
G1 X106.3 Y109.662 E9.8324
G1 X110.018 Y113.38 E10.09634
G1 X109.836 Y113.933 E10.12559
G1 X106.279 Y110.376 E10.37815
G1 X106.279 Y111.111 E10.41507
G1 X109.703 Y114.535 E10.65816
G1 X109.628 Y115.196 E10.69156
G1 X106.279 Y111.847 E10.92937
G1 X106.279 Y112.582 E10.96629
G1 X109.643 Y115.946 E11.20515
G1 X109.691 Y116.411 E11.22863
G1 X109.776 Y116.815 E11.24934
G1 X106.055 Y113.094 E11.51355
G92 E0
;WIPE_START
G1 F14400
G1 X109.776 Y116.815 E-0.72911
G1 X109.73 Y116.597 E-0.76
;WIPE_END
G1 E-0.8 F2100
G1 Z0.64 F18000
; acceleration to travel
M204 S1500
G1 X118.772 Y114.519
; decel to extrusion
M204 S1000
G1 X120.952 Y114.018
; end travel
G1 Z0.24
G1 E0 F2100
G1 F1200
G1 X124.721 Y117.788 E0.26764
G1 X124.721 Y118.523 E0.30456
G1 X121.364 Y115.166 E0.54295
G1 X121.377 Y115.333 E0.55137
G1 X121.349 Y115.886 E0.57918
G1 X124.721 Y119.259 E0.81863
G1 X124.721 Y119.994 E0.85555
G1 X121.277 Y116.55 E1.10008
G1 X121.216 Y116.875 E1.11671
G1 X121.137 Y117.145 E1.13081
G1 X124.721 Y120.729 E1.38532
G1 X124.721 Y121.316 E1.41479
G1 X124.647 Y121.391 E1.42006
G1 X120.948 Y117.691 E1.68271
G1 X120.81 Y118.024 E1.70077
G1 X120.717 Y118.196 E1.71061
G1 X124.279 Y121.758 E1.96352
G1 X123.912 Y122.126 E1.98962
G1 X120.45 Y118.664 E2.23543
G1 X120.148 Y119.097 E2.26195
G1 X123.544 Y122.494 E2.50307
G1 X123.176 Y122.861 E2.52918
G1 X119.811 Y119.495 E2.76815
G1 X119.438 Y119.859 E2.79426
G1 X122.809 Y123.229 E3.03355
G1 X122.441 Y123.597 E3.05966
G1 X119.034 Y120.19 E3.30154
G1 X118.86 Y120.325 E3.3126
G1 X118.597 Y120.488 E3.32814
G1 X122.073 Y123.964 E3.57493
G1 X121.706 Y124.332 E3.60104
G1 X118.126 Y120.753 E3.85518
G1 X117.821 Y120.902 E3.87225
G1 X117.611 Y120.973 E3.88336
G1 X121.338 Y124.7 E4.14796
G1 X121.316 Y124.721 E4.14949
G1 X120.624 Y124.721 E4.18424
G1 X117.062 Y121.159 E4.43716
G1 X116.932 Y121.203 E4.44402
G1 X116.462 Y121.295 E4.46807
G1 X119.889 Y124.721 E4.71135
G1 X119.153 Y124.721 E4.74827
G1 X115.8 Y121.368 E4.98633
G1 X115.057 Y121.36 E5.02365
G1 X118.418 Y124.721 E5.26228
G1 X117.683 Y124.721 E5.2992
G1 X113.874 Y120.912 E5.56962
G92 E0
;WIPE_START
G1 F14400
G1 X117.683 Y124.721 E-0.74626
G1 X117.782 Y124.721 E-0.76
;WIPE_END
G1 E-0.8 F2100
G1 Z0.64 F18000
G1 X117.171 Y124.945
G1 Z0.24
G1 E0 F2100
G1 F1200
G1 X113.053 Y120.827 E0.29238
G1 X112.517 Y120.567 E0.32229
G1 X112.003 Y120.227 E0.35319
G1 X111.533 Y119.839 E0.38381
G1 X111.105 Y119.405 E0.4144
G1 X110.741 Y118.952 E0.44358
G1 X110.252 Y118.152 E0.49065
G1 X110.153 Y117.927 E0.50299
G1 X106.279 Y114.053 E0.77806
G1 X106.279 Y114.788 E0.81498
G1 X116.212 Y124.721 E1.52022
G1 X115.476 Y124.721 E1.55714
G1 X106.279 Y115.524 E2.21016
G1 X106.279 Y116.259 E2.24708
G1 X114.741 Y124.721 E2.84789
G1 X114.006 Y124.721 E2.88481
G1 X106.279 Y116.994 E3.43342
G1 X106.279 Y117.73 E3.47033
G1 X113.27 Y124.721 E3.96672
G1 X112.535 Y124.721 E4.00364
G1 X106.279 Y118.465 E4.44782
G1 X106.279 Y119.201 E4.48474
G1 X111.799 Y124.721 E4.87671
G1 X111.064 Y124.721 E4.91363
G1 X106.279 Y119.936 E5.25338
G1 X106.279 Y120.671 E5.2903
G1 X110.552 Y124.945 E5.59372
G92 E0
;WIPE_START
G1 F14400
G1 X106.673 Y121.066 E-0.76
;WIPE_END
G1 E-0.8 F2100
G1 Z0.64 F18000
G1 X106.159 Y121.093
G1 Z0.24
G1 E0 F2100
;TYPE:Gap fill
;WIDTH:0.281892
G1 F1200
G1 X106.239 Y121.197 E0.00294
;WIDTH:0.370746
G1 X106.319 Y121.3 E0.00701
G1 X109.7 Y124.681 E0.1563
G1 X109.803 Y124.761 E0.16037
;WIDTH:0.281892
G1 X109.907 Y124.841 E0.16331
M106 S84.15
;LAYER_CHANGE
;Z:0.44
;HEIGHT:0.2

G92 E0
;WIPE_START
G1 F14400
G1 X109.803 Y124.761 E-0.01807
G1 X109.7 Y124.681 E-0.03615
G1 X106.319 Y121.3 E-0.69869
G1 X106.239 Y121.197 E-0.71676
G1 X106.159 Y121.093 E-0.73483
;WIPE_END
G1 E-0.8 F2100
G1 Z0.64 F18000
; stop printing object Voron_Design_Cube_v7 id:0 copy 0
EXCLUDE_OBJECT_END NAME=Voron_Design_Cube_v7_id_0_copy_0
SET_PRINT_STATS_INFO CURRENT_LAYER=2

M104 S205 ; set temperature
M140 S60 ; set bed temperature
G92 E0
G1 Z0.84
G1 X101.86 Y121.093
G1 Z0.44
G1 E0.8 F2100
;TYPE:Skirt
;WIDTH:0.48
G1 F1200
G1 X101.86 Y121.84 E0.82659
G1 X102.04 Y122.969 E0.86732
G1 X102.926 Y124.414 E0.92767
G1 X106.586 Y128.074 E1.11202
G1 X107.512 Y128.745 E1.15275
G1 X109.16 Y129.14 E1.2131
G1 X121.84 Y129.14 E1.66472
G1 X122.969 Y128.96 E1.70545
G1 X124.414 Y128.074 E1.7658
G1 X128.074 Y124.414 E1.95015
G1 X128.745 Y123.488 E1.99088
G1 X129.14 Y121.84 E2.05123
G1 X129.14 Y109.16 E2.50285
G1 X128.96 Y108.031 E2.54358
G1 X128.074 Y106.586 E2.60393
G1 X124.414 Y102.926 E2.78828
G1 X123.488 Y102.255 E2.82901
G1 X121.84 Y101.86 E2.88936
G1 X109.16 Y101.86 E3.34098
G1 X108.031 Y102.04 E3.3817
G1 X106.586 Y102.926 E3.44206
G1 X102.926 Y106.586 E3.62641
G1 X102.255 Y107.512 E3.66714
G1 X101.86 Y109.16 E3.72749
G1 X101.86 Y121.033 E4.15038
G1 X102.287 Y121.033 F18000
G1 F1200
G1 X102.287 Y121.84 E4.17911
G1 X102.417 Y122.744 E4.21163
G1 X103.228 Y124.112 E4.26829
G1 X106.888 Y127.772 E4.45264
G1 X107.619 Y128.319 E4.48516
G1 X109.16 Y128.713 E4.54181
G1 X121.84 Y128.713 E4.99343
G1 X122.744 Y128.583 E5.02595
G1 X124.112 Y127.772 E5.08261
G1 X127.772 Y124.112 E5.26696
G1 X128.319 Y123.381 E5.29948
G1 X128.713 Y121.84 E5.35614
G1 X128.713 Y109.16 E5.80775
G1 X128.583 Y108.256 E5.84027
G1 X127.772 Y106.888 E5.89693
G1 X124.112 Y103.228 E6.08128
G1 X123.381 Y102.681 E6.1138
G1 X121.84 Y102.287 E6.17046
G1 X109.16 Y102.287 E6.62207
G1 X108.256 Y102.417 E6.65459
G1 X106.888 Y103.228 E6.71125
G1 X103.228 Y106.888 E6.8956
G1 X102.681 Y107.619 E6.92812
G1 X102.287 Y109.16 E6.98478
G1 X102.287 Y120.973 E7.40553
G92 E0
;WIPE_START
G1 F14400
G1 X102.287 Y115.488 E-0.76
;WIPE_END
G1 E-0.8 F2100
G1 Z0.84 F18000
; printing object Voron_Design_Cube_v7 id:0 copy 0
EXCLUDE_OBJECT_START NAME=Voron_Design_Cube_v7_id_0_copy_0
; acceleration to travel
M204 S1500
G1 X109.208 Y117.626
; decel to extrusion
M204 S1000
G1 X110.881 Y118.143
; end travel
G1 Z0.44
G1 E0 F2100
;TYPE:External perimeter
;WIDTH:0.44292
G1 F1500
G1 X111.178 Y118.606 E0.01791
G1 X111.524 Y119.037 E0.03592
G1 X111.91 Y119.428 E0.05383
G1 X112.123 Y119.613 E0.06303
G1 X112.565 Y119.939 E0.08094
G1 X113.041 Y120.22 E0.09895
G1 X113.543 Y120.449 E0.11695
G1 X114.067 Y120.625 E0.13496
G1 X114.606 Y120.746 E0.15297
G1 X115.155 Y120.811 E0.17097
G1 X115.707 Y120.818 E0.18898
G1 X116.257 Y120.768 E0.20699
G1 X116.799 Y120.661 E0.22499
G1 X117.327 Y120.498 E0.243
G1 X117.836 Y120.282 E0.26101
G1 X118.319 Y120.014 E0.27901
G1 X118.772 Y119.697 E0.29702
G1 X119.189 Y119.336 E0.31503
G1 X119.567 Y118.933 E0.33303
G1 X119.901 Y118.492 E0.35104
G1 X120.187 Y118.02 E0.36905
G1 X120.422 Y117.523 E0.38696
G1 X120.522 Y117.26 E0.39615
G1 X120.677 Y116.732 E0.41407
G1 X120.777 Y116.189 E0.43207
G1 X120.82 Y115.638 E0.45008
G1 X120.806 Y115.086 E0.46809
G1 X120.734 Y114.538 E0.48609
G1 X120.606 Y114.001 E0.5041
G1 X120.423 Y113.479 E0.52211
G1 X120.188 Y112.983 E0.54002
G1 X120.049 Y112.738 E0.54921
G1 X119.74 Y112.283 E0.56712
G1 X119.383 Y111.861 E0.58513
G1 X118.985 Y111.478 E0.60314
G1 X118.549 Y111.138 E0.62115
G1 X118.081 Y110.846 E0.63915
G1 X117.584 Y110.603 E0.65716
G1 X117.065 Y110.414 E0.67516
G1 X116.53 Y110.279 E0.69317
G1 X115.983 Y110.2 E0.71118
G1 X115.434 Y110.179 E0.72909
G1 X115.152 Y110.19 E0.73828
G1 X114.606 Y110.254 E0.7562
G1 X114.067 Y110.375 E0.7742
G1 X113.543 Y110.551 E0.79221
G1 X113.041 Y110.78 E0.81022
G1 X112.565 Y111.061 E0.82822
G1 X112.123 Y111.387 E0.84614
G1 X111.91 Y111.572 E0.85533
G1 X111.524 Y111.963 E0.87324
G1 X111.178 Y112.394 E0.89125
G1 X110.88 Y112.859 E0.90926
G1 X110.631 Y113.352 E0.92726
G1 X110.434 Y113.869 E0.94527
G1 X110.293 Y114.403 E0.96328
G1 X110.207 Y114.945 E0.98119
G1 X110.185 Y115.227 E0.99038
G1 X110.185 Y115.776 E1.0083
