; generated by SuperSlicer 2.5.59 on 2023-10-09 at 22:19:02 UTC


;
;

;
;
; 

; external perimeters extrusion width = 0.44mm
; perimeters extrusion width = 0.46mm
; infill extrusion width = 0.44mm
; solid infill extrusion width = 0.46mm
; top infill extrusion width = 0.44mm
; first layer extrusion width = 0.56mm

; object:{"name":"Voron_Design_Cube_v7","id":"Voron_Design_Cube_v7 id:0 copy 0","object_center":[115.500000,115.500000,0.000000],"boundingbox_center":[115.500000,115.500000,10.000000],"boundingbox_size":[20.000000,20.000000,20.000000]}
EXCLUDE_OBJECT_DEFINE NAME=Voron_Design_Cube_v7_id_0_copy_0 CENTER=115.500000,115.500000 POLYGON=[[105.500000,105.500000],[125.500000,105.500000],[125.500000,125.500000],[105.500000,125.500000],[105.500000,105.500000]]
; plater:{"center":[115.500000,115.500000,0.000000],"boundingbox_center":[115.500000,115.500000,10.000000],"boundingbox_size":[20.000000,20.000000,20.000000]}

;TYPE:Custom
SET_PRINT_STATS_INFO TOTAL_LAYER=100

PRINT_START BED=60 EXTRUDER=215 CHAMBER=0 SIZE=101.407_101.407_129.593_129.593 MATERIAL=PLA
; Filament gcode
SET_PRESSURE_ADVANCE ADVANCE=0.08
;_TOOLCHANGE 0
M107
;LAYER_CHANGE
;Z:0.2
;HEIGHT:0.2

G1 E-0.8 F2100
G1 Z0.4 F18000
SET_PRINT_STATS_INFO CURRENT_LAYER=1

G92 E0
G1 Z0.6
M204 S2000
G1 X104.765 Y104.765
G1 Z0.2
G1 E0.8 F2100
;TYPE:Skirt
;WIDTH:0.48
G1 F1200
G1 X102.915 Y106.615 E0.89508
G1 X102.239 Y107.548 E0.93696
G1 X101.844 Y109.2 E0.99869
G1 X101.844 Y121.8 E1.45661
G1 X102.026 Y122.938 E1.49849
G1 X102.915 Y124.385 E1.56021
G1 X106.615 Y128.085 E1.75038
G1 X107.548 Y128.761 E1.79226
G1 X109.2 Y129.156 E1.85398
G1 X121.8 Y129.156 E2.31191
G1 X122.938 Y128.974 E2.35379
G1 X124.385 Y128.085 E2.41551
G1 X128.085 Y124.385 E2.60568
G1 X128.761 Y123.452 E2.64756
G1 X129.156 Y121.8 E2.70928
G1 X129.156 Y109.2 E3.16721
G1 X128.974 Y108.062 E3.20909
G1 X128.085 Y106.615 E3.27081
G1 X124.385 Y102.915 E3.46098
G1 X123.452 Y102.239 E3.50286
G1 X121.8 Y101.844 E3.56458
G1 X109.2 Y101.844 E4.02251
G1 X108.062 Y102.026 E4.06438
G1 X106.615 Y102.915 E4.12611
G1 X104.808 Y104.723 E4.21901
G1 X105.117 Y105.032 F18000
G1 F1200
G1 X103.224 Y106.924 E4.31628
G1 X102.675 Y107.657 E4.34957
G1 X102.281 Y109.2 E4.40743
G1 X102.281 Y121.8 E4.86535
G1 X102.412 Y122.707 E4.89864
G1 X103.224 Y124.076 E4.9565
G1 X106.924 Y127.776 E5.14667
G1 X107.657 Y128.325 E5.17996
G1 X109.2 Y128.719 E5.23782
G1 X121.8 Y128.719 E5.69575
G1 X122.707 Y128.588 E5.72904
G1 X124.076 Y127.776 E5.7869
G1 X127.776 Y124.076 E5.97707
G1 X128.325 Y123.343 E6.01036
G1 X128.719 Y121.8 E6.06822
G1 X128.719 Y109.2 E6.52614
G1 X128.588 Y108.293 E6.55943
G1 X127.776 Y106.924 E6.61729
G1 X124.076 Y103.224 E6.80746
G1 X123.343 Y102.675 E6.84075
G1 X121.8 Y102.281 E6.89861
G1 X109.2 Y102.281 E7.35654
G1 X108.293 Y102.412 E7.38983
G1 X106.924 Y103.224 E7.44769
G1 X105.159 Y104.989 E7.53841
M104 S215 ; set temperature
G92 E0
;WIPE_START
G1 F14400
G1 X106.924 Y103.224 E-0.34584
G1 X108.293 Y102.412 E-0.56642
G1 X109.2 Y102.281 E-0.69331
G1 X109.681 Y102.281 E-0.76
;WIPE_END
G1 E-0.8 F2100
G1 Z0.6 F18000
; printing object Voron_Design_Cube_v7 id:0 copy 0
EXCLUDE_OBJECT_START NAME=Voron_Design_Cube_v7_id_0_copy_0
; acceleration to travel
M204 S3000
G1 X111.086 Y109.94
; decel to extrusion
M204 S2000
G1 X111.424 Y111.786
; end travel
G1 Z0.2
G1 E0 F2100
;TYPE:External perimeter
;WIDTH:0.56292
G1 F1200
G1 X111.188 Y112.062 E0.01572
G1 X110.857 Y112.524 E0.04029
G1 X110.574 Y113.02 E0.06499
G1 X110.344 Y113.543 E0.0897
G1 X110.169 Y114.087 E0.1144
G1 X110.051 Y114.646 E0.13911
G1 X109.992 Y115.214 E0.16381
G1 X109.992 Y115.786 E0.18851
G1 X110.051 Y116.354 E0.21322
G1 X110.169 Y116.913 E0.23792
G1 X110.343 Y117.454 E0.26249
G1 X110.484 Y117.789 E0.27821
G1 X110.709 Y118.232 E0.29971
G1 X111.017 Y118.713 E0.32439
G1 X111.373 Y119.159 E0.34909
G1 X111.774 Y119.567 E0.37379
G1 X112.215 Y119.93 E0.3985
G1 X112.691 Y120.246 E0.4232
G1 X113.194 Y120.51 E0.44776
G1 X113.53 Y120.65 E0.46349
G1 X114.002 Y120.808 E0.485
G1 X114.558 Y120.934 E0.50966
G1 X115.125 Y121.002 E0.53436
G1 X115.696 Y121.012 E0.55907
G1 X116.265 Y120.962 E0.58377
G1 X116.826 Y120.853 E0.60847
G1 X117.37 Y120.688 E0.63303
G1 X117.708 Y120.553 E0.64877
G1 X118.154 Y120.334 E0.67028
G1 X118.639 Y120.034 E0.69494
G1 X119.092 Y119.685 E0.71964
G1 X119.505 Y119.291 E0.74434
G1 X119.876 Y118.856 E0.76905
G1 X120.2 Y118.386 E0.79375
G1 X120.473 Y117.884 E0.81845
G1 X120.693 Y117.357 E0.84315
G1 X120.857 Y116.81 E0.86786
G1 X120.964 Y116.248 E0.89256
G1 X121.012 Y115.683 E0.9171
G1 X121.012 Y115.317 E0.9329
G1 X120.964 Y114.752 E0.95744
G1 X120.857 Y114.19 E0.98215
G1 X120.693 Y113.644 E1.0068
G1 X120.505 Y113.184 E1.02832
G1 X120.341 Y112.859 E1.04406
G1 X120.044 Y112.375 E1.06861
G1 X119.696 Y111.921 E1.09331
G1 X119.304 Y111.506 E1.11801
G1 X118.87 Y111.134 E1.14272
G1 X118.4 Y110.809 E1.16742
G1 X117.9 Y110.535 E1.19208
G1 X117.443 Y110.339 E1.21359
G1 X117.099 Y110.222 E1.22933
G1 X116.547 Y110.085 E1.25388
G1 X115.981 Y110.006 E1.27859
G1 X115.41 Y109.985 E1.30329
G1 X115.125 Y110.005 E1.31564
G1 X114.84 Y110.024 E1.32799
G1 X114.278 Y110.122 E1.3527
G1 X113.728 Y110.277 E1.3774
G1 X113.197 Y110.489 E1.4021
G1 X112.691 Y110.754 E1.42681
G1 X112.215 Y111.07 E1.45151
G1 X111.775 Y111.433 E1.47618
G1 X111.467 Y111.743 E1.49509
;WIPE_START
G1 X111.033 Y111.703 F18000
;WIPE_END
G92 E0
;WIPE_START
G1 F14400
G1 X110.688 Y112.416 E-0.10975
G1 X110.395 Y112.93 E-0.19177
G1 X110.156 Y113.472 E-0.2738
G1 X109.975 Y114.036 E-0.35583
G1 X109.853 Y114.615 E-0.43786
G1 X109.792 Y115.204 E-0.51989
G1 X109.792 Y115.796 E-0.60192
G1 X109.853 Y116.385 E-0.68394
G1 X109.966 Y116.922 E-0.76
;WIPE_END
G1 E-0.8 F2100
G1 Z0.6 F18000
; acceleration to travel
M204 S3000
G1 X106.702 Y110.974
; decel to extrusion
M204 S2000
G1 X105.915 Y109.54
; end travel
G1 Z0.2
G1 E0 F2100
G1 F1200
G1 X109.54 Y105.915 E0.22168
G1 X121.46 Y105.915 E0.73707
G1 X121.698 Y106.153 E0.75164
G1 X125.085 Y109.54 E0.95875
G1 X125.085 Y121.46 E1.47415
G1 X121.46 Y125.085 E1.69582
G1 X109.54 Y125.085 E2.21122
G1 X105.915 Y121.46 E2.43289
G1 X105.915 Y109.6 E2.9457
;WIPE_START
G1 X106.315 Y109.54 F18000
;WIPE_END
G92 E0
;WIPE_START
G1 F14400
G1 X109.623 Y106.115 E-0.65972
G1 X110.347 Y106.115 E-0.76
;WIPE_END
G1 E-0.8 F2100
G1 Z0.6 F18000
; acceleration to travel
M204 S3000
G1 X122.097 Y109.193
; decel to extrusion
M204 S2000
G1 X124.929 Y109.936
; end travel
G1 Z0.2
G1 E0 F2100
;TYPE:Solid infill
;WIDTH:0.554798
G1 F1200
G1 X121.288 Y106.294 E0.21944
G1 X120.553 Y106.294 E0.25078
G1 X124.706 Y110.447 E0.50107
G1 X124.706 Y111.183 E0.53241
G1 X119.817 Y106.294 E0.82701
G1 X119.082 Y106.294 E0.85835
G1 X124.706 Y111.918 E1.19727
G1 X124.706 Y112.654 E1.22861
G1 X118.346 Y106.294 E1.61185
G1 X117.611 Y106.294 E1.64319
G1 X124.706 Y113.389 E2.07075
G1 X124.706 Y114.124 E2.10209
G1 X116.876 Y106.294 E2.57397
G1 X116.14 Y106.294 E2.60531
G1 X124.706 Y114.86 E3.12151
G1 X124.706 Y115.595 E3.15285
G1 X115.405 Y106.294 E3.71337
G1 X114.669 Y106.294 E3.7447
G1 X124.706 Y116.331 E4.34954
G1 X124.706 Y117.066 E4.38088
G1 X120.978 Y113.339 E4.6055
G1 X120.847 Y113.017 E4.62031
G1 X120.361 Y112.164 E4.66213
G1 X119.986 Y111.675 E4.68842
G1 X119.566 Y111.231 E4.71445
G1 X119.102 Y110.833 E4.74047
G1 X118.6 Y110.486 E4.7665
G1 X118.067 Y110.193 E4.79243
G1 X117.658 Y110.018 E4.81137
G1 X113.934 Y106.294 E5.0358
G1 X113.199 Y106.294 E5.06714
G1 X116.616 Y109.711 E5.27307
G1 X116.008 Y109.626 E5.29922
G1 X115.795 Y109.626 E5.3083
G1 X112.463 Y106.294 E5.50909
G1 X111.728 Y106.294 E5.54043
G1 X115.064 Y109.63 E5.74147
G1 X114.418 Y109.719 E5.76926
G1 X110.993 Y106.294 E5.97568
G1 X110.257 Y106.294 E6.00702
G1 X113.82 Y109.857 E6.22171
G1 X113.606 Y109.917 E6.23119
G1 X113.276 Y110.049 E6.24631
G1 X109.609 Y106.382 E6.46727
G1 X109.242 Y106.75 E6.48943
G1 X112.774 Y110.282 E6.70229
G1 X112.497 Y110.427 E6.71559
G1 X112.309 Y110.552 E6.72524
G1 X108.874 Y107.118 E6.93222
G1 X108.506 Y107.485 E6.95438
G1 X111.877 Y110.856 E7.15754
G1 X111.478 Y111.193 E7.17978
G1 X108.139 Y107.853 E7.38105
G1 X107.771 Y108.221 E7.40321
G1 X111.115 Y111.565 E7.60476
G1 X110.796 Y111.981 E7.62711
G1 X107.403 Y108.588 E7.83155
G1 X107.036 Y108.956 E7.85371
G1 X110.486 Y112.407 E8.06168
G1 X110.222 Y112.877 E8.08469
G1 X106.668 Y109.324 E8.29886
G1 X106.3 Y109.691 E8.32102
G1 X109.997 Y113.388 E8.54381
G1 X109.816 Y113.943 E8.56867
G1 X106.294 Y110.421 E8.78092
G1 X106.294 Y111.156 E8.81226
G1 X109.684 Y114.546 E9.01656
G1 X109.613 Y115.21 E9.045
G1 X106.294 Y111.892 E9.24497
G1 X106.294 Y112.627 E9.27631
G1 X109.629 Y115.961 E9.47726
G1 X109.676 Y116.413 E9.4966
G1 X109.764 Y116.832 E9.51485
G1 X106.071 Y113.139 E9.73742
G92 E0
;WIPE_START
G1 F14400
G1 X109.764 Y116.832 E-0.72357
G1 X109.71 Y116.575 E-0.76
;WIPE_END
G1 E-0.8 F2100
G1 Z0.6 F18000
; acceleration to travel
M204 S3000
G1 X118.797 Y114.568
; decel to extrusion
M204 S2000
G1 X120.988 Y114.084
; end travel
G1 Z0.2
G1 E0 F2100
G1 F1200
G1 X124.706 Y117.801 E0.22403
G1 X124.706 Y118.537 E0.25537
G1 X121.384 Y115.215 E0.45555
G1 X121.361 Y115.927 E0.4859
G1 X124.706 Y119.272 E0.68749
G1 X124.706 Y120.007 E0.71883
G1 X121.286 Y116.588 E0.92493
G1 X121.227 Y116.9 E0.93847
G1 X121.143 Y117.18 E0.95092
G1 X124.706 Y120.743 E1.16566
G1 X124.706 Y121.303 E1.18951
G1 X124.618 Y121.391 E1.1948
G1 X120.951 Y117.724 E1.41577
G1 X120.816 Y118.048 E1.43076
G1 X120.719 Y118.227 E1.43941
G1 X124.25 Y121.758 E1.65224
G1 X123.882 Y122.126 E1.6744
G1 X120.449 Y118.693 E1.8813
G1 X120.146 Y119.125 E1.90379
G1 X123.515 Y122.494 E2.10681
G1 X123.147 Y122.861 E2.12897
G1 X119.808 Y119.522 E2.33023
G1 X119.434 Y119.884 E2.35239
G1 X122.779 Y123.229 E2.55401
G1 X122.412 Y123.597 E2.57617
G1 X119.029 Y120.214 E2.78005
G1 X118.856 Y120.347 E2.78935
G1 X118.591 Y120.511 E2.80264
G1 X122.044 Y123.964 E3.01077
G1 X121.676 Y124.332 E3.03293
G1 X118.119 Y120.774 E3.24733
G1 X117.853 Y120.905 E3.25994
G1 X117.6 Y120.991 E3.27134
G1 X121.303 Y124.706 E3.49485
G1 X120.579 Y124.706 E3.52569
G1 X117.051 Y121.178 E3.7383
G1 X116.924 Y121.221 E3.74403
G1 X116.451 Y121.313 E3.76457
G1 X119.844 Y124.706 E3.96905
G1 X119.108 Y124.706 E4.00039
G1 X115.787 Y121.385 E4.20053
G1 X115.042 Y121.375 E4.23229
G1 X118.373 Y124.706 E4.43302
G1 X117.638 Y124.706 E4.46436
G1 X113.855 Y120.923 E4.6923
G92 E0
;WIPE_START
G1 F14400
G1 X117.638 Y124.706 E-0.74105
G1 X117.774 Y124.706 E-0.76
;WIPE_END
G1 E-0.8 F2100
G1 Z0.6 F18000
G1 X117.126 Y124.929
G1 Z0.2
G1 E0 F2100
G1 F1200
G1 X113.025 Y120.828 E0.24714
G1 X112.503 Y120.577 E0.27184
G1 X111.989 Y120.236 E0.29814
G1 X111.517 Y119.847 E0.32417
G1 X111.089 Y119.411 E0.35019
G1 X110.708 Y118.934 E0.37622
G1 X110.379 Y118.421 E0.40218
G1 X110.134 Y117.937 E0.42532
G1 X106.294 Y114.098 E0.65669
G1 X106.294 Y114.833 E0.68803
G1 X116.167 Y124.706 E1.283
G1 X115.431 Y124.706 E1.31433
G1 X106.294 Y115.569 E1.86498
G1 X106.294 Y116.304 E1.89632
G1 X114.696 Y124.706 E2.40265
G1 X113.961 Y124.706 E2.43399
G1 X106.294 Y117.039 E2.896
G1 X106.294 Y117.775 E2.92733
G1 X113.225 Y124.706 E3.34503
G1 X112.49 Y124.706 E3.37636
G1 X106.294 Y118.51 E3.74974
G1 X106.294 Y119.246 E3.78107
G1 X111.754 Y124.706 E4.11013
G1 X111.019 Y124.706 E4.14147
G1 X106.294 Y119.981 E4.4262
G1 X106.294 Y120.716 E4.45754
G1 X110.507 Y124.929 E4.71143
G92 E0
;WIPE_START
G1 F14400
G1 X106.628 Y121.05 E-0.76
;WIPE_END
G1 E-0.8 F2100
G1 Z0.6 F18000
G1 X106.175 Y121.115
G1 Z0.2
G1 E0 F2100
;TYPE:Gap fill
;WIDTH:0.243738
G1 F1200
G1 X106.244 Y121.205 E0.0019
;WIDTH:0.321188
G1 X106.314 Y121.295 E0.00453
G1 X109.705 Y124.686 E0.1155
G1 X109.795 Y124.756 E0.11814
;WIDTH:0.243738
G1 X109.885 Y124.825 E0.12003
M106 S84.15
;LAYER_CHANGE
;Z:0.4
;HEIGHT:0.2

G92 E0
;WIPE_START
G1 F14400
G1 X109.795 Y124.756 E-0.01575
G1 X109.705 Y124.686 E-0.03151
G1 X106.314 Y121.295 E-0.69598
G1 X106.244 Y121.205 E-0.71173
G1 X106.175 Y121.115 E-0.72749
;WIPE_END
G1 E-0.8 F2100
G1 Z0.6 F18000
; stop printing object Voron_Design_Cube_v7 id:0 copy 0
EXCLUDE_OBJECT_END NAME=Voron_Design_Cube_v7_id_0_copy_0
SET_PRINT_STATS_INFO CURRENT_LAYER=2

M104 S210 ; set temperature
M140 S60 ; set bed temperature
G92 E0
G1 Z0.8
; acceleration to travel
M204 S3000
G1 X102.686 Y121.115
; decel to extrusion
M204 S2000
G1 X101.844 Y121.115
; end travel
G1 Z0.4
G1 E0.8 F2100
;TYPE:Skirt
;WIDTH:0.48
G1 F1200
G1 X101.844 Y121.8 E0.8249
G1 X102.026 Y122.938 E0.86678
G1 X102.915 Y124.385 E0.92851
G1 X106.615 Y128.085 E1.11868
G1 X107.548 Y128.761 E1.16055
G1 X109.2 Y129.156 E1.22228
G1 X121.8 Y129.156 E1.6802
G1 X122.938 Y128.974 E1.72208
G1 X124.385 Y128.085 E1.7838
G1 X128.085 Y124.385 E1.97397
G1 X128.761 Y123.452 E2.01585
G1 X129.156 Y121.8 E2.07757
G1 X129.156 Y109.2 E2.5355
G1 X128.974 Y108.062 E2.57738
G1 X128.085 Y106.615 E2.6391
G1 X124.385 Y102.915 E2.82927
G1 X123.452 Y102.239 E2.87115
G1 X121.8 Y101.844 E2.93287
G1 X109.2 Y101.844 E3.3908
G1 X108.062 Y102.026 E3.43268
G1 X106.615 Y102.915 E3.4944
G1 X102.915 Y106.615 E3.68457
G1 X102.239 Y107.548 E3.72645
G1 X101.844 Y109.2 E3.78817
G1 X101.844 Y121.055 E4.21901
G1 X102.281 Y121.055 F18000
G1 F1200
G1 X102.281 Y121.8 E4.2461
G1 X102.412 Y122.707 E4.27938
G1 X103.224 Y124.076 E4.33725
G1 X106.924 Y127.776 E4.52742
G1 X107.657 Y128.325 E4.5607
G1 X109.2 Y128.719 E4.61857
G1 X121.8 Y128.719 E5.07649
G1 X122.707 Y128.588 E5.10978
G1 X124.076 Y127.776 E5.16764
G1 X127.776 Y124.076 E5.35781
G1 X128.325 Y123.343 E5.3911
G1 X128.719 Y121.8 E5.44896
G1 X128.719 Y109.2 E5.90689
G1 X128.588 Y108.293 E5.94017
G1 X127.776 Y106.924 E5.99804
G1 X124.076 Y103.224 E6.18821
G1 X123.343 Y102.675 E6.22149
G1 X121.8 Y102.281 E6.27936
G1 X109.2 Y102.281 E6.73728
G1 X108.293 Y102.412 E6.77057
G1 X106.924 Y103.224 E6.82843
G1 X103.224 Y106.924 E7.0186
G1 X102.675 Y107.657 E7.05189
G1 X102.281 Y109.2 E7.10975
G1 X102.281 Y120.995 E7.53841
G92 E0
;WIPE_START
G1 F14400
G1 X102.281 Y115.509 E-0.76
;WIPE_END
G1 E-0.8 F2100
G1 Z0.8 F18000
; printing object Voron_Design_Cube_v7 id:0 copy 0
EXCLUDE_OBJECT_START NAME=Voron_Design_Cube_v7_id_0_copy_0
; acceleration to travel
M204 S3000
G1 X108.647 Y115.282
; decel to extrusion
M204 S2000
G1 X110.185 Y115.227
; end travel
G1 Z0.4
G1 E0 F2100
;TYPE:External perimeter
;WIDTH:0.44292
G1 F1500
G1 X110.185 Y115.776 E0.01828
G1 X110.243 Y116.326 E0.03665
G1 X110.357 Y116.866 E0.05503
G1 X110.526 Y117.392 E0.0734
G1 X110.748 Y117.895 E0.09168
G1 X110.881 Y118.143 E0.10106
G1 X111.178 Y118.606 E0.11934
G1 X111.524 Y119.037 E0.13771
G1 X111.91 Y119.428 E0.15599
G1 X112.123 Y119.613 E0.16537
G1 X112.565 Y119.939 E0.18365
G1 X113.041 Y120.22 E0.20203
G1 X113.543 Y120.449 E0.2204
G1 X114.067 Y120.625 E0.23878
G1 X114.606 Y120.746 E0.25715
G1 X115.155 Y120.811 E0.27552
G1 X115.707 Y120.818 E0.2939
G1 X116.257 Y120.768 E0.31227
G1 X116.799 Y120.661 E0.33065
G1 X117.327 Y120.498 E0.34902
G1 X117.836 Y120.282 E0.3674
G1 X118.319 Y120.014 E0.38577
G1 X118.772 Y119.697 E0.40414
G1 X119.189 Y119.336 E0.42252
G1 X119.567 Y118.933 E0.44089
G1 X119.901 Y118.492 E0.45926
G1 X120.187 Y118.02 E0.47764
G1 X120.422 Y117.523 E0.49592
G1 X120.522 Y117.26 E0.5053
G1 X120.677 Y116.732 E0.52358
G1 X120.777 Y116.189 E0.54195
G1 X120.82 Y115.638 E0.56033
G1 X120.806 Y115.086 E0.5787
G1 X120.734 Y114.538 E0.59707
G1 X120.606 Y114.001 E0.61545
G1 X120.423 Y113.479 E0.63382
G1 X120.188 Y112.983 E0.6521
G1 X120.049 Y112.738 E0.66148
G1 X119.74 Y112.283 E0.67976
G1 X119.383 Y111.861 E0.69814
G1 X118.985 Y111.478 E0.71651
G1 X118.549 Y111.138 E0.73488
G1 X118.081 Y110.846 E0.75326
G1 X117.584 Y110.603 E0.77163
G1 X117.065 Y110.414 E0.79001
G1 X116.53 Y110.279 E0.80838
G1 X115.983 Y110.2 E0.82675
G1 X115.434 Y110.179 E0.84503
G1 X115.152 Y110.19 E0.85441
G1 X114.606 Y110.254 E0.87269
G1 X114.067 Y110.375 E0.89107
G1 X113.543 Y110.551 E0.90944
G1 X113.041 Y110.78 E0.92781
G1 X112.565 Y111.061 E0.94619
G1 X112.123 Y111.387 E0.96447
G1 X111.91 Y111.572 E0.97385
G1 X111.524 Y111.963 E0.99213
G1 X111.178 Y112.394 E1.0105
G1 X110.88 Y112.859 E1.02888
G1 X110.631 Y113.352 E1.04725
G1 X110.434 Y113.869 E1.06562
