; generated by SuperSlicer 2.5.59 on 2023-10-19 at 20:59:48 UTC


;
;

;
;
; 

; external perimeters extrusion width = 0.46mm
; perimeters extrusion width = 0.48mm
; infill extrusion width = 0.46mm
; solid infill extrusion width = 0.48mm
; top infill extrusion width = 0.46mm
; first layer extrusion width = 0.57mm

; object:{"name":"Voron_Design_Cube_v7","id":"Voron_Design_Cube_v7 id:0 copy 0","object_center":[112.500000,112.500000,0.000000],"boundingbox_center":[112.500000,112.500000,10.000000],"boundingbox_size":[20.000000,20.000000,20.000000]}
EXCLUDE_OBJECT_DEFINE NAME=Voron_Design_Cube_v7_id_0_copy_0 CENTER=112.500000,112.500000 POLYGON=[[102.500000,102.500000],[122.500000,102.500000],[122.500000,122.500000],[102.500000,122.500000],[102.500000,102.500000]]
; plater:{"center":[112.500000,112.500000,0.000000],"boundingbox_center":[112.500000,112.500000,10.000000],"boundingbox_size":[20.000000,20.000000,20.000000]}

;TYPE:Custom
SET_PRINT_STATS_INFO TOTAL_LAYER=72

PRINT_START BED=60 EXTRUDER=215 CHAMBER=0 SIZE=98.4341_98.4341_126.566_126.566 MATERIAL=PLA
; Filament gcode
SET_PRESSURE_ADVANCE ADVANCE=0.08
;_TOOLCHANGE 0
M107
;LAYER_CHANGE
;Z:0.24
;HEIGHT:0.24

G1 E-0.8 F2100
G1 Z0.4 F18000
SET_PRINT_STATS_INFO CURRENT_LAYER=1

G92 E0
G1 Z0.64
M204 S2000
G1 X101.736 Y101.736
G1 Z0.24
G1 E0.8 F2100
;TYPE:Skirt
;WIDTH:0.48
G1 F1200
G1 X99.926 Y103.546 E0.90725
G1 X99.255 Y104.472 E0.95516
G1 X98.86 Y106.12 E1.02617
G1 X98.86 Y118.88 E1.56082
G1 X99.04 Y120.009 E1.60873
G1 X99.926 Y121.454 E1.67973
G1 X103.546 Y125.074 E1.89424
G1 X104.472 Y125.745 E1.94215
G1 X106.12 Y126.14 E2.01315
G1 X118.88 Y126.14 E2.5478
G1 X120.009 Y125.96 E2.59571
G1 X121.454 Y125.074 E2.66671
G1 X125.074 Y121.454 E2.88122
G1 X125.745 Y120.528 E2.92913
G1 X126.14 Y118.88 E3.00014
G1 X126.14 Y106.12 E3.53478
G1 X125.96 Y104.991 E3.58269
G1 X125.074 Y103.546 E3.6537
G1 X121.454 Y99.926 E3.8682
G1 X120.528 Y99.255 E3.91612
G1 X118.88 Y98.86 E3.98712
G1 X106.12 Y98.86 E4.52177
G1 X104.991 Y99.04 E4.56968
G1 X103.546 Y99.926 E4.64068
G1 X101.779 Y101.694 E4.74542
G1 X102.08 Y101.996 F18000
G1 F1200
G1 X100.228 Y103.848 E4.85519
G1 X99.681 Y104.579 E4.89345
G1 X99.287 Y106.12 E4.9601
G1 X99.287 Y118.88 E5.49475
G1 X99.417 Y119.784 E5.533
G1 X100.228 Y121.152 E5.59966
G1 X103.848 Y124.772 E5.81417
G1 X104.579 Y125.319 E5.85242
G1 X106.12 Y125.713 E5.91908
G1 X118.88 Y125.713 E6.45372
G1 X119.784 Y125.583 E6.49198
G1 X121.152 Y124.772 E6.55863
G1 X124.772 Y121.152 E6.77314
G1 X125.319 Y120.421 E6.8114
G1 X125.713 Y118.88 E6.87805
G1 X125.713 Y106.12 E7.4127
G1 X125.583 Y105.216 E7.45096
G1 X124.772 Y103.848 E7.51761
G1 X121.152 Y100.228 E7.73212
G1 X120.421 Y99.681 E7.77037
G1 X118.88 Y99.287 E7.83703
G1 X106.12 Y99.287 E8.37168
G1 X105.216 Y99.417 E8.40993
G1 X103.848 Y100.228 E8.47659
G1 X102.123 Y101.953 E8.57881
M104 S215 ; set temperature
G92 E0
;WIPE_START
G1 F14400
G1 X103.848 Y100.228 E-0.338
G1 X105.216 Y99.417 E-0.55839
G1 X106.12 Y99.287 E-0.68489
G1 X106.662 Y99.287 E-0.76
;WIPE_END
G1 E-0.8 F2100
G1 Z0.64 F18000
; printing object Voron_Design_Cube_v7 id:0 copy 0
EXCLUDE_OBJECT_START NAME=Voron_Design_Cube_v7_id_0_copy_0
; acceleration to travel
M204 S3000
G1 X105.322 Y110.916
; decel to extrusion
M204 S2000
G1 X104.999 Y113.72
; end travel
G1 Z0.24
G1 E0 F2100
;TYPE:Internal perimeter
;WIDTH:0.603863
G1 F1200
G1 X105.114 Y114.179 E0.02556
;WIDTH:0.571503
G1 X105.209 Y114.561 E0.04555
G1 X105.461 Y115.305 E0.08551
G1 X105.79 Y116.019 E0.12548
G1 X106.312 Y116.857 E0.17568
G1 X106.917 Y117.622 E0.22529
G1 X107.477 Y118.173 E0.26526
G1 X108.101 Y118.669 E0.30574
G1 X108.754 Y119.086 E0.34517
G1 X109.512 Y119.46 E0.38812
G1 X110.83 Y119.905 E0.45888
;WIDTH:0.646918
G1 X111.091 Y119.983 E0.47473
G1 X110.819 Y120.002 E0.49059
;WIDTH:0.571503
G1 X110.548 Y120.021 E0.50443
G1 X107.388 Y120.021 E0.66509
G1 X104.979 Y117.612 E0.83832
G1 X104.989 Y114.032 E1.02037
;WIDTH:0.612008
G1 X104.997 Y113.78 E1.03418
G92 E0
;WIPE_START
G1 F14400
G1 X104.989 Y114.032 E-0.0349
G1 X104.979 Y117.612 E-0.53092
G1 X106.148 Y118.781 E-0.76
;WIPE_END
G1 E-0.8 F2100
G1 Z0.64 F18000
; acceleration to travel
M204 S3000
G1 X105.229 Y112.673
; decel to extrusion
M204 S2000
G1 X105.007 Y111.2
; end travel
G1 Z0.24
G1 E0 F2100
;WIDTH:0.627318
G1 F1200
G1 X104.993 Y110.928 E0.01532
;WIDTH:0.571503
G1 X104.979 Y110.656 E0.02916
G1 X104.979 Y107.388 E0.19535
G1 X107.388 Y104.979 E0.36858
G1 X110.15 Y104.979 E0.50901
G1 X110.542 Y105.006 E0.52899
;WIDTH:0.677568
G1 X110.934 Y105.032 E0.55304
G1 X110.822 Y105.074 E0.56038
;WIDTH:0.613355
G1 X110.335 Y105.238 E0.58857
;WIDTH:0.571503
G1 X109.962 Y105.361 E0.60857
G1 X109.236 Y105.662 E0.64853
G1 X108.545 Y106.037 E0.6885
G1 X107.897 Y106.481 E0.72845
G1 X107.301 Y106.988 E0.76821
G1 X106.743 Y107.579 E0.80958
G1 X106.059 Y108.509 E0.86826
G1 X105.68 Y109.198 E0.90822
G1 X105.375 Y109.922 E0.94819
G1 X105.077 Y110.937 E1.00198
;WIDTH:0.627318
G1 X105.022 Y111.142 E1.01392
G92 E0
;WIPE_START
G1 F14400
G1 X105.077 Y110.937 E-0.02938
G1 X105.375 Y109.922 E-0.17594
G1 X105.68 Y109.198 E-0.28482
G1 X106.059 Y108.509 E-0.3937
G1 X106.743 Y107.579 E-0.5536
G1 X107.301 Y106.988 E-0.66631
G1 X107.816 Y106.55 E-0.76
;WIPE_END
G1 E-0.8 F2100
G1 Z0.64 F18000
; acceleration to travel
M204 S3000
G1 X112.513 Y117.392
; decel to extrusion
M204 S2000
G1 X113.645 Y120.006
; end travel
G1 Z0.24
G1 E0 F2100
;WIDTH:0.571503
G1 F1200
G1 X114.456 Y119.82 E0.04232
G1 X115.258 Y119.554 E0.08526
G1 X116.269 Y119.073 E0.14219
G1 X116.929 Y118.648 E0.18214
G1 X117.542 Y118.156 E0.22211
G1 X118.101 Y117.603 E0.26206
G1 X118.672 Y116.889 E0.30855
G1 X119.032 Y116.339 E0.34197
G1 X119.395 Y115.642 E0.38192
G1 X119.683 Y114.911 E0.42189
G1 X119.894 Y114.154 E0.46185
G1 X120.007 Y113.622 E0.4895
G1 X120.021 Y117.612 E0.69236
G1 X117.612 Y120.021 E0.86559
G1 X113.94 Y120.014 E1.05232
;WIDTH:0.600916
G1 X113.705 Y120.008 E1.06493
G92 E0
;WIPE_START
G1 F14400
G1 X113.94 Y120.014 E-0.03253
G1 X117.612 Y120.021 E-0.54129
G1 X118.728 Y118.905 E-0.76
;WIPE_END
G1 E-0.8 F2100
G1 Z0.64 F18000
; acceleration to travel
M204 S3000
G1 X119.759 Y112.84
; decel to extrusion
M204 S2000
G1 X120.007 Y111.378
; end travel
G1 Z0.24
G1 E0 F2100
;WIDTH:0.571503
G1 F1200
G1 X119.837 Y110.61 E0.03999
G1 X119.604 Y109.865 E0.07966
G1 X119.277 Y109.118 E0.12116
G1 X118.687 Y108.126 E0.1798
G1 X118.201 Y107.509 E0.21976
G1 X117.653 Y106.946 E0.25971
G1 X116.883 Y106.325 E0.31
G1 X116.398 Y106.003 E0.33961
G1 X115.709 Y105.636 E0.37931
G1 X114.952 Y105.334 E0.42077
G1 X114.396 Y105.172 E0.4502
;WIDTH:0.634398
G1 X113.84 Y105.011 E0.48319
G1 X113.999 Y104.998 E0.49225
;WIDTH:0.598944
G1 X115.001 Y104.979 E0.5459
G1 X117.612 Y104.979 E0.68568
G1 X120.021 Y107.388 E0.86805
G1 X120.007 Y111.318 E1.07841
G92 E0
;WIPE_START
G1 F14400
G1 X120.021 Y107.388 E-0.54443
G1 X118.921 Y106.288 E-0.76
;WIPE_END
G1 E-0.8 F2100
G1 Z0.64 F18000
; acceleration to travel
M204 S3000
G1 X118.583 Y114.277
; decel to extrusion
M204 S2000
G1 X118.502 Y116.202
; end travel
G1 Z0.24
G1 E0 F2100
;WIDTH:0.571503
G1 F1200
G1 X118.575 Y116.092 E0.00671
G1 X118.914 Y115.444 E0.04392
G1 X119.184 Y114.763 E0.08115
G1 X119.383 Y114.059 E0.11838
G1 X119.507 Y113.338 E0.15559
G1 X119.554 Y112.557 E0.19534
G1 X119.483 Y111.475 E0.25047
G1 X119.339 Y110.758 E0.2877
G1 X119.123 Y110.063 E0.32469
G1 X118.825 Y109.375 E0.36279
G1 X118.274 Y108.442 E0.41793
G1 X117.822 Y107.865 E0.45514
G1 X117.314 Y107.339 E0.49236
G1 X116.586 Y106.752 E0.53991
G1 X116.147 Y106.458 E0.56677
G1 X115.505 Y106.114 E0.60379
G1 X114.811 Y105.835 E0.64185
G1 X113.763 Y105.556 E0.697
G1 X113.037 Y105.463 E0.73422
G1 X112.305 Y105.445 E0.77144
G1 X111.575 Y105.503 E0.80866
G1 X110.855 Y105.637 E0.84588
G1 X110.153 Y105.844 E0.8831
G1 X109.477 Y106.123 E0.92032
G1 X108.832 Y106.471 E0.95754
G1 X108.227 Y106.883 E0.99476
G1 X107.671 Y107.353 E1.03182
G1 X107.156 Y107.895 E1.06981
G1 X106.511 Y108.767 E1.12498
G1 X106.156 Y109.408 E1.16221
G1 X105.87 Y110.081 E1.19943
G1 X105.655 Y110.781 E1.23665
G1 X105.514 Y111.499 E1.27387
G1 X105.448 Y112.228 E1.31109
G1 X105.458 Y112.96 E1.34831
G1 X105.543 Y113.687 E1.38553
G1 X105.704 Y114.401 E1.42276
G1 X105.937 Y115.095 E1.45998
G1 X106.241 Y115.761 E1.4972
G1 X106.727 Y116.543 E1.54399
G1 X107.287 Y117.257 E1.59017
G1 X107.808 Y117.772 E1.62739
G1 X108.388 Y118.235 E1.66513
G1 X108.995 Y118.625 E1.70182
G1 X109.691 Y118.972 E1.74135
G1 X110.684 Y119.32 E1.79485
G1 X111.4 Y119.471 E1.83205
G1 X112.128 Y119.548 E1.86928
G1 X112.86 Y119.548 E1.9065
G1 X113.588 Y119.473 E1.94371
G1 X114.304 Y119.323 E1.98094
G1 X115.043 Y119.081 E2.02046
G1 X115.994 Y118.632 E2.07396
G1 X116.61 Y118.237 E2.11116
G1 X117.182 Y117.78 E2.14839
G1 X117.704 Y117.267 E2.18561
G1 X118.242 Y116.596 E2.22935
G1 X118.469 Y116.253 E2.25027
G1 X118.067 Y115.921 F18000
G1 F1200
G1 X118.117 Y115.845 E2.25491
G1 X118.433 Y115.245 E2.28939
G1 X118.686 Y114.616 E2.32387
G1 X118.872 Y113.964 E2.35835
G1 X118.989 Y113.296 E2.39283
G1 X119.035 Y112.584 E2.4291
G1 X118.971 Y111.571 E2.48073
G1 X118.84 Y110.905 E2.51522
G1 X118.642 Y110.26 E2.54953
G1 X118.373 Y109.633 E2.58422
G1 X117.86 Y108.757 E2.63585
G1 X117.444 Y108.222 E2.67033
G1 X116.974 Y107.733 E2.70481
G1 X116.456 Y107.295 E2.73929
G1 X115.896 Y106.913 E2.77377
G1 X115.301 Y106.593 E2.80811
G1 X114.67 Y106.335 E2.84276
G1 X113.689 Y106.071 E2.89441
G1 X113.017 Y105.983 E2.92889
G1 X112.339 Y105.964 E2.96337
G1 X111.663 Y106.016 E2.99785
G1 X110.996 Y106.138 E3.03233
G1 X110.345 Y106.328 E3.06681
G1 X109.717 Y106.584 E3.10129
G1 X109.119 Y106.904 E3.13578
G1 X108.558 Y107.284 E3.17025
G1 X108.041 Y107.719 E3.20462
G1 X107.569 Y108.21 E3.23923
G1 X106.962 Y109.025 E3.29089
G1 X106.632 Y109.617 E3.32537
G1 X106.365 Y110.241 E3.35985
G1 X106.164 Y110.888 E3.39433
G1 X106.031 Y111.553 E3.42881
G1 X105.968 Y112.228 E3.46329
G1 X105.975 Y112.906 E3.49778
G1 X106.052 Y113.58 E3.53225
G1 X106.199 Y114.242 E3.56674
G1 X106.413 Y114.886 E3.60122
G1 X106.693 Y115.503 E3.6357
G1 X107.141 Y116.229 E3.67907
G1 X107.657 Y116.892 E3.72182
G1 X108.138 Y117.37 E3.7563
G1 X108.675 Y117.802 E3.7913
G1 X109.236 Y118.164 E3.82526
G1 X109.87 Y118.483 E3.86136
G1 X110.798 Y118.812 E3.91143
G1 X111.461 Y118.955 E3.9459
G1 X112.135 Y119.028 E3.98039
G1 X112.813 Y119.03 E4.01487
G1 X113.488 Y118.963 E4.04934
G1 X114.152 Y118.826 E4.08383
G1 X114.828 Y118.608 E4.11992
G1 X115.719 Y118.19 E4.17
G1 X116.291 Y117.826 E4.20446
G1 X116.823 Y117.405 E4.23895
G1 X117.307 Y116.931 E4.27342
G1 X117.813 Y116.303 E4.31443
G1 X118.033 Y115.971 E4.33467
G1 X117.633 Y115.638 F18000
G1 F1200
G1 X117.66 Y115.598 E4.33714
G1 X117.953 Y115.047 E4.36887
G1 X118.187 Y114.468 E4.40062
G1 X118.361 Y113.868 E4.43236
G1 X118.471 Y113.254 E4.4641
G1 X118.516 Y112.611 E4.49688
G1 X118.46 Y111.666 E4.54502
G1 X118.342 Y111.053 E4.57676
G1 X118.161 Y110.457 E4.6084
G1 X117.922 Y109.891 E4.63968
G1 X117.447 Y109.072 E4.68781
G1 X117.065 Y108.578 E4.71955
G1 X116.634 Y108.126 E4.75129
G1 X116.159 Y107.722 E4.78303
G1 X115.644 Y107.368 E4.81477
G1 X115.097 Y107.071 E4.84642
G1 X114.529 Y106.836 E4.87769
G1 X113.616 Y106.586 E4.92583
G1 X112.997 Y106.502 E4.95757
G1 X112.374 Y106.483 E4.98931
G1 X111.751 Y106.528 E5.02105
G1 X111.137 Y106.638 E5.05279
G1 X110.537 Y106.811 E5.08453
G1 X109.958 Y107.045 E5.11627
G1 X109.407 Y107.338 E5.14801
G1 X108.888 Y107.686 E5.17975
G1 X108.41 Y108.085 E5.21142
G1 X107.983 Y108.526 E5.24265
G1 X107.414 Y109.283 E5.2908
G1 X107.108 Y109.827 E5.32254
G1 X106.86 Y110.4 E5.35428
G1 X106.673 Y110.995 E5.38602
G1 X106.548 Y111.607 E5.41777
G1 X106.488 Y112.228 E5.44951
G1 X106.492 Y112.853 E5.48125
G1 X106.561 Y113.473 E5.51299
G1 X106.694 Y114.083 E5.54473
G1 X106.889 Y114.676 E5.57647
G1 X107.144 Y115.245 E5.60821
G1 X107.555 Y115.915 E5.64816
G1 X108.028 Y116.527 E5.68749
G1 X108.469 Y116.969 E5.71923
G1 X108.962 Y117.368 E5.75149
G1 X109.476 Y117.704 E5.78271
G1 X110.049 Y117.995 E5.81539
G1 X110.912 Y118.305 E5.86203
G1 X111.522 Y118.438 E5.89376
G1 X112.142 Y118.508 E5.92551
G1 X112.767 Y118.512 E5.95725
G1 X113.388 Y118.452 E5.98898
G1 X114 Y118.328 E6.02073
G1 X114.612 Y118.134 E6.05341
G1 X115.445 Y117.749 E6.10005
G1 X115.972 Y117.415 E6.13178
G1 X116.463 Y117.029 E6.16353
G1 X116.911 Y116.594 E6.19526
G1 X117.311 Y116.115 E6.22701
G1 X117.599 Y115.688 E6.25323
G1 X117.202 Y115.35 F18000
;TYPE:External perimeter
G1 F1200
G1 X117.472 Y114.848 E6.28223
G1 X117.689 Y114.32 E6.31123
G1 X117.849 Y113.773 E6.34023
G1 X117.952 Y113.212 E6.36923
G1 X117.996 Y112.638 E6.39853
G1 X117.949 Y111.761 E6.44317
G1 X117.843 Y111.201 E6.47217
G1 X117.68 Y110.655 E6.50113
G1 X117.47 Y110.149 E6.52901
G1 X117.033 Y109.387 E6.57364
G1 X116.686 Y108.934 E6.60264
G1 X116.294 Y108.52 E6.63164
G1 X115.862 Y108.148 E6.66064
G1 X115.393 Y107.824 E6.68965
G1 X114.893 Y107.549 E6.71861
G1 X114.388 Y107.336 E6.74648
G1 X113.543 Y107.101 E6.79112
G1 X112.978 Y107.022 E6.82012
G1 X112.408 Y107.002 E6.84912
G1 X111.839 Y107.041 E6.87812
G1 X111.277 Y107.139 E6.90712
G1 X110.728 Y107.294 E6.93612
G1 X110.199 Y107.506 E6.96512
G1 X109.694 Y107.771 E6.99413
G1 X109.219 Y108.087 E7.02313
G1 X108.78 Y108.45 E7.0521
G1 X108.396 Y108.841 E7.07996
G1 X107.865 Y109.541 E7.1246
G1 X107.584 Y110.037 E7.1536
G1 X107.355 Y110.559 E7.1826
G1 X107.182 Y111.102 E7.2116
G1 X107.065 Y111.661 E7.2406
G1 X107.008 Y112.228 E7.2696
G1 X107.009 Y112.799 E7.29861
G1 X107.07 Y113.366 E7.3276
G1 X107.189 Y113.924 E7.35661
G1 X107.365 Y114.466 E7.38561
G1 X107.596 Y114.988 E7.41461
G1 X107.97 Y115.601 E7.45114
G1 X108.398 Y116.162 E7.48704
G1 X108.799 Y116.567 E7.51604
G1 X109.249 Y116.934 E7.54556
G1 X109.717 Y117.243 E7.57404
G1 X110.228 Y117.507 E7.60331
G1 X111.027 Y117.798 E7.64652
G1 X111.583 Y117.922 E7.67552
G1 X112.15 Y117.988 E7.70452
G1 X112.72 Y117.994 E7.73352
G1 X113.288 Y117.942 E7.76252
G1 X113.848 Y117.831 E7.79152
G1 X114.397 Y117.661 E7.82079
G1 X115.17 Y117.307 E7.864
G1 X115.654 Y117.005 E7.893
G1 X116.103 Y116.654 E7.922
G1 X116.514 Y116.258 E7.951
G1 X116.882 Y115.822 E7.98
G1 X117.169 Y115.4 E8.00595
;WIPE_START
G1 X117.602 Y115.352 F18000
;WIPE_END
G92 E0
;WIPE_START
G1 F14400
G1 X117.653 Y114.934 E-0.05841
G1 X117.878 Y114.387 E-0.1403
G1 X118.044 Y113.82 E-0.2222
G1 X118.151 Y113.238 E-0.30411
G1 X118.197 Y112.64 E-0.38721
G1 X118.148 Y111.737 E-0.51249
G1 X118.038 Y111.153 E-0.59479
G1 X117.869 Y110.588 E-0.67656
G1 X117.65 Y110.06 E-0.75571
G1 X117.634 Y110.033 E-0.76
;WIPE_END
G1 E-0.8 F2100
G1 Z0.64 F18000
; acceleration to travel
M204 S3000
G1 X107.454 Y113.004
; decel to extrusion
M204 S2000
G1 X104.999 Y113.72
; end travel
G1 Z0.24
G1 E0 F2100
;TYPE:Internal perimeter
;WIDTH:0.612008
G1 F1200
G1 X104.98 Y113.366 E0.01943
;WIDTH:0.532704
G1 X104.953 Y112.228 E0.07298
G1 X104.971 Y111.836 E0.09144
;WIDTH:0.589148
G1 X104.997 Y111.322 E0.11851
;WIDTH:0.627318
G1 X105.007 Y111.2 E0.12541
G92 E0
;WIPE_START
G1 F14400
G1 X104.997 Y111.322 E-0.01699
G1 X104.971 Y111.836 E-0.08832
G1 X104.953 Y112.228 E-0.14267
G1 X104.98 Y113.366 E-0.30034
G1 X104.999 Y113.72 E-0.34945
;WIPE_END
G1 E-0.8 F2100
G1 Z0.64 F18000
; acceleration to travel
M204 S3000
G1 X104.564 Y108.444
; decel to extrusion
M204 S2000
G1 X104.459 Y107.173
; end travel
G1 Z0.24
G1 E0 F2100
;WIDTH:0.571503
G1 F1200
G1 X107.173 Y104.459 E0.19513
G1 X117.827 Y104.459 E0.7369
G1 X120.541 Y107.173 E0.93203
G1 X120.541 Y117.827 E1.47381
G1 X117.827 Y120.541 E1.66894
G1 X107.173 Y120.541 E2.21071
G1 X104.459 Y117.827 E2.40584
G1 X104.459 Y107.233 E2.94456
G1 X103.939 Y106.957 F18000
G1 F1200
G1 X106.957 Y103.939 E3.1616
G1 X118.043 Y103.939 E3.72528
G1 X121.061 Y106.957 E3.94231
G1 X121.061 Y118.043 E4.50599
G1 X118.043 Y121.061 E4.72302
G1 X106.957 Y121.061 E5.2867
G1 X103.939 Y118.043 E5.50374
G1 X103.939 Y107.017 E6.06436
G1 X103.419 Y106.742 F18000
G1 F1200
G1 X106.742 Y103.419 E6.3033
G1 X118.258 Y103.419 E6.88888
G1 X121.581 Y106.742 E7.12782
G1 X121.581 Y118.258 E7.7134
G1 X118.258 Y121.581 E7.95234
G1 X106.742 Y121.581 E8.53793
G1 X103.419 Y118.258 E8.77686
