; generated by SuperSlicer 2.5.59 on 2023-10-12 at 11:11:39 UTC


;
;

;
;
; 

; external perimeters extrusion width = 0.44mm
; perimeters extrusion width = 0.46mm
; infill extrusion width = 0.44mm
; solid infill extrusion width = 0.46mm
; top infill extrusion width = 0.44mm
; first layer extrusion width = 0.57mm

; object:{"name":"Voron_Design_Cube_v7","id":"Voron_Design_Cube_v7 id:0 copy 0","object_center":[118.026427,116.190337,0.000000],"boundingbox_center":[118.026427,116.190337,10.000000],"boundingbox_size":[20.000000,20.000000,20.000000]}
EXCLUDE_OBJECT_DEFINE NAME=Voron_Design_Cube_v7_id_0_copy_0 CENTER=118.026427,116.190337 POLYGON=[[108.026432,106.190336],[128.026432,106.190336],[128.026432,126.190336],[108.026432,126.190336],[108.026432,106.190336]]
; plater:{"center":[118.026427,116.190337,0.000000],"boundingbox_center":[118.026427,116.190337,10.000000],"boundingbox_size":[20.000000,20.000000,20.000000]}

;TYPE:Custom
SET_PRINT_STATS_INFO TOTAL_LAYER=100

PRINT_START BED=60 EXTRUDER=215 CHAMBER=0 SIZE=103.961_102.124_132.092_130.256 MATERIAL=PLA
; Filament gcode
SET_PRESSURE_ADVANCE ADVANCE=0.08
;_TOOLCHANGE 0
M107
;LAYER_CHANGE
;Z:0.24
;HEIGHT:0.24

G1 E-0.8 F2100
G1 Z0.4 F18000
SET_PRINT_STATS_INFO CURRENT_LAYER=1

G92 E0
G1 Z0.64
M204 S1000
G1 X106.365 Y106.365
G1 Z0.24
G1 E0.8 F2100
;TYPE:Skirt
;WIDTH:0.48
G1 F1200
G1 X105.453 Y107.277 E0.05404
G1 X104.781 Y108.202 E0.04791
G1 X104.387 Y109.85 E0.071
G1 X104.387 Y122.53 E0.5313
G1 X104.567 Y123.66 E0.04791
G1 X105.453 Y125.104 E0.071
G1 X109.113 Y128.764 E0.21688
G1 X110.038 Y129.435 E0.04791
G1 X111.686 Y129.83 E0.071
G1 X124.366 Y129.83 E0.5313
G1 X125.496 Y129.65 E0.04791
G1 X126.94 Y128.764 E0.071
G1 X130.6 Y125.104 E0.21688
G1 X131.271 Y124.178 E0.04791
G1 X131.666 Y122.53 E0.071
G1 X131.666 Y109.85 E0.5313
G1 X131.486 Y108.721 E0.04791
G1 X130.6 Y107.277 E0.071
G1 X126.94 Y103.617 E0.21688
G1 X126.014 Y102.945 E0.04791
G1 X124.366 Y102.551 E0.071
G1 X111.686 Y102.551 E0.5313
G1 X110.557 Y102.73 E0.04791
G1 X109.113 Y103.617 E0.071
G1 X106.407 Y106.322 E0.16032
G1 X106.709 Y106.624 F18000
G1 F1200
G1 X105.754 Y107.578 E0.05655
G1 X105.207 Y108.309 E0.03826
G1 X104.813 Y109.85 E0.06665
G1 X104.813 Y122.53 E0.5313
G1 X104.943 Y123.434 E0.03826
G1 X105.754 Y124.802 E0.06665
G1 X109.414 Y128.462 E0.21688
G1 X110.145 Y129.01 E0.03826
G1 X111.686 Y129.404 E0.06665
G1 X124.366 Y129.404 E0.5313
G1 X125.27 Y129.274 E0.03826
G1 X126.638 Y128.462 E0.06665
G1 X130.298 Y124.802 E0.21688
G1 X130.846 Y124.072 E0.03826
G1 X131.24 Y122.53 E0.06665
G1 X131.24 Y109.85 E0.5313
G1 X131.11 Y108.947 E0.03826
G1 X130.298 Y107.578 E0.06665
G1 X126.638 Y103.918 E0.21688
G1 X125.908 Y103.371 E0.03826
G1 X124.366 Y102.977 E0.06665
G1 X111.686 Y102.977 E0.5313
G1 X110.783 Y103.107 E0.03826
G1 X109.414 Y103.918 E0.06665
G1 X106.751 Y106.581 E0.15781
M104 S215 ; set temperature
;WIPE_START
G1 F14400
G1 X109.414 Y103.918 E-0.52179
G1 X110.783 Y103.107 E-0.22039
G1 X110.91 Y103.089 E-0.01782
;WIPE_END
G1 E-0.04 F2100
G1 Z0.64 F18000
; printing object Voron_Design_Cube_v7 id:0 copy 0
EXCLUDE_OBJECT_START NAME=Voron_Design_Cube_v7_id_0_copy_0
; acceleration to travel
M204 S1500
G1 X112.55 Y116.245
; decel to extrusion
M204 S1000
G1 X112.945 Y119.417
; end travel
G1 Z0.24
G1 E0.8 F2100
;TYPE:Internal perimeter
;WIDTH:0.571504
G1 F1200
G1 X112.955 Y119.434 E0.00102
G1 X113.161 Y119.734 E0.01848
G1 X113.526 Y120.189 E0.02969
G1 X113.964 Y120.633 E0.03171
G1 X114.446 Y121.03 E0.03175
G1 X114.967 Y121.375 E0.03175
G1 X115.511 Y121.66 E0.03124
G1 X115.846 Y121.801 E0.01849
G1 X116.4 Y121.987 E0.0297
G1 X117.008 Y122.124 E0.03171
G1 X117.628 Y122.197 E0.03175
G1 X118.253 Y122.206 E0.03175
G1 X118.875 Y122.151 E0.03175
G1 X119.487 Y122.031 E0.03175
G1 X120.075 Y121.851 E0.03123
G1 X120.413 Y121.716 E0.0185
G1 X120.938 Y121.46 E0.0297
G1 X121.467 Y121.131 E0.0317
G1 X121.96 Y120.748 E0.03175
G1 X122.411 Y120.316 E0.03175
G1 X122.815 Y119.839 E0.03175
G1 X123.167 Y119.324 E0.03175
G1 X123.464 Y118.774 E0.03175
G1 X123.702 Y118.197 E0.03175
G1 X123.88 Y117.599 E0.03175
G1 X123.994 Y116.985 E0.03175
G1 X124.043 Y116.373 E0.03121
G1 X124.043 Y116.008 E0.01857
G1 X123.994 Y115.396 E0.03121
G1 X123.88 Y114.782 E0.03175
G1 X123.703 Y114.184 E0.03169
G1 X123.481 Y113.644 E0.02972
G1 X123.317 Y113.319 E0.0185
G1 X122.997 Y112.795 E0.03122
G1 X122.619 Y112.298 E0.03175
G1 X122.191 Y111.843 E0.03175
G1 X121.719 Y111.435 E0.03175
G1 X121.206 Y111.078 E0.03175
G1 X120.66 Y110.777 E0.0317
G1 X120.123 Y110.548 E0.0297
G1 X119.778 Y110.431 E0.01849
G1 X119.183 Y110.282 E0.03123
G1 X118.564 Y110.194 E0.03175
G1 X117.94 Y110.171 E0.03175
G1 X117.629 Y110.191 E0.01588
G1 X117.317 Y110.212 E0.01588
G1 X116.702 Y110.318 E0.03175
G1 X116.101 Y110.486 E0.03175
G1 X115.52 Y110.716 E0.03175
G1 X114.967 Y111.006 E0.03175
G1 X114.446 Y111.35 E0.03175
G1 X113.965 Y111.747 E0.03171
G1 X113.554 Y112.162 E0.02969
G1 X113.319 Y112.439 E0.01848
G1 X112.96 Y112.938 E0.03125
G1 X112.651 Y113.48 E0.03175
G1 X112.399 Y114.052 E0.03175
G1 X112.208 Y114.646 E0.03175
G1 X112.079 Y115.257 E0.03175
G1 X112.014 Y115.878 E0.03175
G1 X112.014 Y116.503 E0.03175
G1 X112.079 Y117.124 E0.03175
G1 X112.208 Y117.735 E0.03175
G1 X112.399 Y118.329 E0.03175
G1 X112.651 Y118.901 E0.03175
G1 X112.916 Y119.365 E0.02718
G1 X113.396 Y119.158 F18000
;TYPE:External perimeter
G1 F1200
G1 X113.579 Y119.424 E0.0164
G1 X113.915 Y119.843 E0.02734
G1 X114.315 Y120.249 E0.02899
G1 X114.756 Y120.612 E0.02901
G1 X115.231 Y120.927 E0.029
G1 X115.733 Y121.189 E0.02879
G1 X116.03 Y121.314 E0.0164
G1 X116.54 Y121.485 E0.02734
G1 X117.096 Y121.611 E0.02899
G1 X117.663 Y121.678 E0.02901
G1 X118.233 Y121.686 E0.02901
G1 X118.801 Y121.635 E0.029
G1 X119.361 Y121.525 E0.029
G1 X119.902 Y121.36 E0.02878
G1 X120.202 Y121.241 E0.01641
G1 X120.685 Y121.004 E0.02735
G1 X121.169 Y120.703 E0.02898
G1 X121.62 Y120.354 E0.02901
G1 X122.032 Y119.959 E0.029
G1 X122.401 Y119.524 E0.02901
G1 X122.722 Y119.053 E0.029
G1 X122.994 Y118.551 E0.029
G1 X123.211 Y118.024 E0.029
G1 X123.373 Y117.477 E0.029
G1 X123.478 Y116.916 E0.02901
G1 X123.523 Y116.352 E0.02877
G1 X123.523 Y116.029 E0.01644
G1 X123.478 Y115.465 E0.02877
G1 X123.373 Y114.904 E0.02901
G1 X123.211 Y114.357 E0.02898
G1 X123.007 Y113.86 E0.02735
G1 X122.862 Y113.572 E0.01641
G1 X122.568 Y113.088 E0.02878
G1 X122.222 Y112.635 E0.029
G1 X121.831 Y112.219 E0.029
G1 X121.399 Y111.846 E0.029
G1 X120.931 Y111.52 E0.02901
G1 X120.432 Y111.245 E0.02898
G1 X119.937 Y111.034 E0.02735
G1 X119.632 Y110.931 E0.0164
G1 X119.083 Y110.793 E0.02878
G1 X118.518 Y110.713 E0.02901
G1 X117.948 Y110.691 E0.029
G1 X117.663 Y110.71 E0.0145
G1 X117.379 Y110.729 E0.0145
G1 X116.816 Y110.826 E0.029
G1 X116.267 Y110.98 E0.02901
G1 X115.737 Y111.19 E0.029
G1 X115.231 Y111.454 E0.02901
G1 X114.756 Y111.769 E0.029
G1 X114.316 Y112.131 E0.02899
G1 X113.938 Y112.514 E0.02734
G1 X113.729 Y112.759 E0.0164
G1 X113.398 Y113.219 E0.02879
G1 X113.116 Y113.715 E0.029
G1 X112.886 Y114.237 E0.02901
G1 X112.711 Y114.78 E0.029
G1 X112.593 Y115.338 E0.02901
G1 X112.534 Y115.905 E0.029
G1 X112.534 Y116.476 E0.02901
G1 X112.593 Y117.043 E0.029
G1 X112.711 Y117.601 E0.02901
G1 X112.886 Y118.144 E0.029
G1 X113.116 Y118.666 E0.02901
G1 X113.367 Y119.106 E0.02574
;WIPE_START
G1 X113.214 Y119.514 F18000
;WIPE_END
;WIPE_START
G1 F14400
G1 X113.766 Y119.976 E-0.09974
G1 X114.18 Y120.397 E-0.08184
G1 X114.637 Y120.773 E-0.08191
G1 X115.13 Y121.099 E-0.0819
G1 X115.648 Y121.37 E-0.08101
G1 X115.96 Y121.501 E-0.04687
G1 X116.486 Y121.678 E-0.07697
G1 X117.062 Y121.808 E-0.08182
G1 X117.65 Y121.878 E-0.0819
G1 X117.982 Y121.882 E-0.04604
;WIPE_END
G1 E-0.04 F2100
G1 Z0.64 F18000
; acceleration to travel
M204 S1500
G1 X110.701 Y121.936
; decel to extrusion
M204 S1000
G1 X108.946 Y121.948
; end travel
G1 Z0.24
G1 E0.8 F2100
;TYPE:Internal perimeter
G1 F1200
G1 X108.946 Y110.432 E0.58558
G1 X112.268 Y107.109 E0.23894
G1 X123.785 Y107.109 E0.58558
G1 X123.87 Y107.194 E0.00611
G1 X127.107 Y110.432 E0.23283
G1 X127.107 Y121.948 E0.58558
G1 X123.785 Y125.271 E0.23894
G1 X112.268 Y125.271 E0.58558
G1 X108.988 Y121.991 E0.23589
G1 X108.426 Y122.164 F18000
;TYPE:External perimeter
G1 F1200
G1 X108.426 Y110.217 E0.60749
G1 X112.053 Y106.589 E0.26084
G1 X124 Y106.589 E0.60749
G1 X124.237 Y106.827 E0.01707
G1 X127.627 Y110.217 E0.24378
G1 X127.627 Y122.164 E0.60749
G1 X124 Y125.791 E0.26084
G1 X112.053 Y125.791 E0.60749
G1 X108.468 Y122.206 E0.25779
;WIPE_START
G1 X108.708 Y121.881 F18000
;WIPE_END
;WIPE_START
G1 F14400
G1 X108.669 Y116.395 E-0.76
;WIPE_END
G1 E-0.04 F2100
G1 Z0.64 F18000
; acceleration to travel
M204 S1500
G1 X120.53 Y109.039
; decel to extrusion
M204 S1000
G1 X123.389 Y107.265
; end travel
G1 Z0.24
G1 E0.8 F2100
;TYPE:Solid infill
;WIDTH:0.561578
G1 F1200
G1 X126.728 Y110.604 E0.23592
G1 X126.728 Y111.34 E0.03674
G1 X122.877 Y107.489 E0.27209
G1 X122.142 Y107.489 E0.03674
G1 X126.728 Y112.075 E0.32405
G1 X126.728 Y112.81 E0.03674
G1 X121.406 Y107.489 E0.37601
G1 X120.671 Y107.489 E0.03674
G1 X126.728 Y113.546 E0.42798
G1 X126.728 Y114.281 E0.03674
G1 X119.936 Y107.489 E0.47994
G1 X119.2 Y107.489 E0.03674
G1 X126.728 Y115.017 E0.5319
G1 X126.728 Y115.752 E0.03674
G1 X118.465 Y107.489 E0.58387
G1 X117.729 Y107.489 E0.03674
G1 X120.563 Y110.323 E0.20025
G1 X120.827 Y110.435 E0.01431
G1 X121.407 Y110.756 E0.0331
G1 X121.952 Y111.135 E0.03317
G1 X122.454 Y111.569 E0.03317
G1 X122.909 Y112.052 E0.03317
G1 X123.315 Y112.585 E0.03345
G1 X123.823 Y113.477 E0.05131
G1 X123.896 Y113.655 E0.00962
G1 X126.951 Y116.711 E0.21592
;WIPE_START
G1 F14400
G1 X123.896 Y113.655 E-0.59869
G1 X123.823 Y113.477 E-0.02667
G1 X123.342 Y112.632 E-0.13465
;WIPE_END
G1 E-0.04 F2100
G1 Z0.64 F18000
G1 X123.939 Y114.434
G1 Z0.24
G1 E0.8 F2100
G1 F1200
G1 X126.728 Y117.223 E0.19704
G1 X126.728 Y117.958 E0.03674
G1 X124.393 Y115.623 E0.16497
G1 X124.424 Y116.002 E0.01898
G1 X124.405 Y116.371 E0.01844
G1 X126.728 Y118.693 E0.16413
G1 X126.728 Y119.429 E0.03674
G1 X124.365 Y117.066 E0.16696
G1 X124.249 Y117.686 E0.03151
G1 X126.728 Y120.164 E0.17512
G1 X126.728 Y120.9 E0.03674
G1 X124.082 Y118.253 E0.18699
G1 X123.872 Y118.78 E0.02829
G1 X126.728 Y121.635 E0.20177
G1 X126.728 Y121.791 E0.00781
G1 X126.438 Y122.081 E0.02046
G1 X123.627 Y119.27 E0.19861
G1 X123.491 Y119.521 E0.01428
G1 X123.35 Y119.728 E0.01251
G1 X126.07 Y122.449 E0.19222
G1 X125.703 Y122.816 E0.02598
G1 X123.043 Y120.157 E0.18792
G1 X122.706 Y120.555 E0.02607
G1 X125.335 Y123.184 E0.18578
G1 X124.967 Y123.552 E0.02598
G1 X122.332 Y120.917 E0.18619
G1 X121.931 Y121.251 E0.02609
G1 X124.6 Y123.919 E0.18857
G1 X124.232 Y124.287 E0.02598
G1 X121.501 Y121.556 E0.19296
G1 X121.041 Y121.832 E0.02679
G1 X123.864 Y124.655 E0.19948
G1 X123.627 Y124.892 E0.01674
G1 X123.366 Y124.892 E0.01306
G1 X120.546 Y122.072 E0.19924
G1 X119.997 Y122.258 E0.02897
G1 X122.631 Y124.892 E0.18607
G1 X121.895 Y124.892 E0.03674
G1 X119.432 Y122.428 E0.17406
G1 X118.806 Y122.538 E0.03175
G1 X121.16 Y124.892 E0.16633
G1 X120.424 Y124.892 E0.03674
G1 X118.117 Y122.584 E0.16306
G1 X117.603 Y122.577 E0.02566
G1 X117.343 Y122.546 E0.01309
G1 X119.689 Y124.892 E0.16576
G1 X118.954 Y124.892 E0.03674
G1 X116.119 Y122.057 E0.20031
;WIPE_START
G1 F14400
G1 X118.954 Y124.892 E-0.55541
G1 X119.689 Y124.892 E-0.10188
G1 X119.165 Y124.367 E-0.10271
;WIPE_END
G1 E-0.04 F2100
G1 Z0.64 F18000
; acceleration to travel
M204 S1500
G1 X119.676 Y113.028
; decel to extrusion
M204 S1000
G1 X119.799 Y110.294
; end travel
G1 Z0.24
G1 E0.8 F2100
G1 F1200
G1 X116.994 Y107.489 E0.19823
G1 X116.259 Y107.489 E0.03674
G1 X118.584 Y109.815 E0.16433
G1 X117.847 Y109.812 E0.03686
G1 X115.523 Y107.489 E0.16417
G1 X114.788 Y107.489 E0.03674
G1 X117.17 Y109.871 E0.1683
G1 X116.534 Y109.97 E0.03215
G1 X114.053 Y107.489 E0.17534
G1 X113.317 Y107.489 E0.03674
G1 X115.961 Y110.133 E0.18685
G1 X115.435 Y110.342 E0.0283
G1 X112.582 Y107.489 E0.2016
G1 X112.425 Y107.489 E0.00781
G1 X112.136 Y107.779 E0.02046
G1 X114.946 Y110.588 E0.19854
G1 X114.774 Y110.678 E0.0097
G1 X114.489 Y110.867 E0.01707
G1 X111.768 Y108.146 E0.19224
G1 X111.401 Y108.514 E0.02598
G1 X114.062 Y111.175 E0.18804
G1 X113.663 Y111.512 E0.02607
G1 X111.033 Y108.882 E0.18586
G1 X110.665 Y109.249 E0.02598
G1 X113.297 Y111.882 E0.186
G1 X112.975 Y112.294 E0.02618
G1 X110.297 Y109.617 E0.18918
G1 X109.93 Y109.985 E0.02598
G1 X112.656 Y112.711 E0.19264
G1 X112.387 Y113.177 E0.02689
G1 X109.562 Y110.352 E0.19959
G1 X109.325 Y110.589 E0.01674
G1 X109.325 Y110.851 E0.01306
G1 X112.15 Y113.676 E0.19959
G1 X112.044 Y113.917 E0.01316
G1 X111.949 Y114.21 E0.01541
G1 X109.325 Y111.586 E0.18541
G1 X109.325 Y112.322 E0.03674
G1 X111.79 Y114.787 E0.17418
G1 X111.703 Y115.198 E0.02101
G1 X111.681 Y115.413 E0.01079
G1 X109.325 Y113.057 E0.16647
G1 X109.325 Y113.792 E0.03674
G1 X111.635 Y116.102 E0.1632
G1 X111.635 Y116.522 E0.021
G1 X111.671 Y116.874 E0.01767
G1 X109.325 Y114.528 E0.16578
G1 X109.325 Y115.263 E0.03674
G1 X112.161 Y118.099 E0.20039
;WIPE_START
G1 F14400
G1 X109.325 Y115.263 E-0.55563
G1 X109.325 Y114.528 E-0.10188
G1 X109.848 Y115.051 E-0.10249
;WIPE_END
G1 E-0.04 F2100
G1 Z0.64 F18000
G1 X109.101 Y115.775
G1 Z0.24
G1 E0.8 F2100
G1 F1200
G1 X112.243 Y118.916 E0.22197
G1 X112.314 Y119.077 E0.00877
G1 X112.85 Y119.953 E0.0513
G1 X113.242 Y120.442 E0.03135
G1 X113.708 Y120.914 E0.03312
G1 X114.22 Y121.336 E0.03317
G1 X114.778 Y121.706 E0.03345
G1 X115.27 Y121.944 E0.02731
G1 X118.218 Y124.892 E0.2083
G1 X117.483 Y124.892 E0.03674
G1 X109.325 Y116.734 E0.57643
G1 X109.325 Y117.469 E0.03674
G1 X116.747 Y124.892 E0.52447
G1 X116.012 Y124.892 E0.03674
G1 X109.325 Y118.205 E0.47251
G1 X109.325 Y118.94 E0.03674
G1 X115.277 Y124.892 E0.42054
G1 X114.541 Y124.892 E0.03674
G1 X109.325 Y119.676 E0.36858
G1 X109.325 Y120.411 E0.03674
G1 X113.806 Y124.892 E0.31662
G1 X113.07 Y124.892 E0.03674
G1 X109.101 Y120.923 E0.28045
G1 X109.206 Y121.567 F18000
;TYPE:Gap fill
;WIDTH:0.282863
G1 F1200
G1 X109.286 Y121.671 E0.00296
;WIDTH:0.372092
G1 X109.366 Y121.774 E0.00411
G1 X112.442 Y124.851 E0.13639
G1 X112.546 Y124.931 E0.00411
;WIDTH:0.282863
G1 X112.65 Y125.011 E0.00296
M106 S84.15
;LAYER_CHANGE
;Z:0.44
;HEIGHT:0.2

;WIPE_START
G1 F14400
G1 X112.546 Y124.931 E-0.01815
G1 X112.442 Y124.851 E-0.01815
G1 X109.366 Y121.774 E-0.60278
G1 X109.286 Y121.671 E-0.01815
G1 X109.206 Y121.567 E-0.01815
;WIPE_END
G1 E-0.12462 F2100
G1 Z0.64 F18000
; stop printing object Voron_Design_Cube_v7 id:0 copy 0
EXCLUDE_OBJECT_END NAME=Voron_Design_Cube_v7_id_0_copy_0
SET_PRINT_STATS_INFO CURRENT_LAYER=2

G92 E0
M104 S210 ; set temperature
M140 S60 ; set bed temperature
G1 Z0.84
; acceleration to travel
M204 S1500
G1 X105.323 Y121.567
; decel to extrusion
M204 S1000
G1 X104.387 Y121.567
; end travel
G1 Z0.44
G1 E0.8 F2100
;TYPE:Skirt
;WIDTH:0.48
G1 F1200
G1 X104.387 Y122.53 E0.0343
G1 X104.567 Y123.66 E0.04073
G1 X105.453 Y125.104 E0.06036
G1 X109.113 Y128.764 E0.18435
G1 X110.038 Y129.435 E0.04073
G1 X111.686 Y129.83 E0.06036
G1 X124.366 Y129.83 E0.45162
G1 X125.496 Y129.65 E0.04073
G1 X126.94 Y128.764 E0.06036
G1 X130.6 Y125.104 E0.18435
G1 X131.271 Y124.178 E0.04073
G1 X131.666 Y122.53 E0.06036
G1 X131.666 Y109.85 E0.45162
G1 X131.486 Y108.721 E0.04073
G1 X130.6 Y107.277 E0.06036
G1 X126.94 Y103.617 E0.18435
G1 X126.014 Y102.945 E0.04073
G1 X124.366 Y102.551 E0.06036
G1 X111.686 Y102.551 E0.45162
G1 X110.557 Y102.73 E0.04073
G1 X109.113 Y103.617 E0.06036
G1 X105.453 Y107.277 E0.18435
G1 X104.781 Y108.202 E0.04073
G1 X104.387 Y109.85 E0.06036
G1 X104.387 Y121.507 E0.41517
G1 X104.813 Y121.507 F18000
G1 F1200
G1 X104.813 Y122.53 E0.03644
G1 X104.943 Y123.434 E0.03252
G1 X105.754 Y124.802 E0.05666
G1 X109.414 Y128.462 E0.18435
G1 X110.145 Y129.01 E0.03252
G1 X111.686 Y129.404 E0.05666
G1 X124.366 Y129.404 E0.45162
G1 X125.27 Y129.274 E0.03252
G1 X126.638 Y128.462 E0.05666
G1 X130.298 Y124.802 E0.18435
G1 X130.846 Y124.072 E0.03252
G1 X131.24 Y122.53 E0.05666
G1 X131.24 Y109.85 E0.45162
G1 X131.11 Y108.947 E0.03252
G1 X130.298 Y107.578 E0.05666
