; generated by SuperSlicer 2.5.59 on 2023-10-12 at 04:05:30 UTC


;
;

;
;
; 

; external perimeters extrusion width = 0.46mm
; perimeters extrusion width = 0.48mm
; infill extrusion width = 0.46mm
; solid infill extrusion width = 0.48mm
; top infill extrusion width = 0.46mm
; support material extrusion width = 0.38mm
; first layer extrusion width = 0.56mm

; object:{"name":"CR-Ender_Gantry_Clip_1","id":"CR-Ender_Gantry_Clip_1.stl id:0 copy 0","object_center":[115.500000,115.500000,0.000000],"boundingbox_center":[115.500000,115.500000,3.407501],"boundingbox_size":[8.980000,17.715996,6.815002]}
EXCLUDE_OBJECT_DEFINE NAME=CR_Ender_Gantry_Clip_1_stl_id_0_copy_0 CENTER=115.500000,115.500000 POLYGON=[[111.009992,111.040992],[111.026992,110.700000],[111.091992,110.262992],[111.199000,109.835000],[111.347000,109.420000],[111.535992,109.020000],[111.763000,108.641000],[112.026000,108.286992],[112.322000,107.958992],[112.647992,107.662992],[113.002000,107.399992],[113.380000,107.173000],[113.779000,106.983992],[114.194000,106.835000],[114.621992,106.728000],[115.058000,106.662992],[115.498992,106.642000],[115.938992,106.662992],[116.375000,106.728000],[116.802992,106.835000],[117.217992,106.983992],[117.617000,107.173000],[117.994992,107.399992],[118.350000,107.662992],[118.674992,107.958992],[118.972000,108.286992],[119.233992,108.641000],[119.461000,109.020000],[119.649992,109.420000],[119.798000,109.835000],[119.905000,110.262992],[119.970000,110.700000],[119.990000,111.101000],[119.990000,119.898992],[119.970000,120.299000],[119.905000,120.737000],[119.798000,121.164992],[119.649992,121.579992],[119.461000,121.980000],[119.233992,122.357992],[118.972000,122.713000],[118.674992,123.039992],[118.350000,123.337000],[117.994992,123.600000],[117.617000,123.826000],[117.217992,124.016000],[116.802992,124.164992],[116.375000,124.271992],[115.938992,124.336000],[115.498992,124.357992],[115.058000,124.336000],[114.785000,124.296000],[114.621992,124.271992],[114.194000,124.164992],[113.779000,124.016000],[113.380000,123.826000],[113.002000,123.600000],[112.647992,123.337000],[112.322000,123.039992],[112.026000,122.713000],[111.763000,122.357992],[111.535992,121.980000],[111.347000,121.579992],[111.199000,121.164992],[111.091992,120.737000],[111.026992,120.299000],[111.009992,119.958992],[111.009992,111.040992]]
; plater:{"center":[115.500000,115.500000,0.000000],"boundingbox_center":[115.500000,115.500000,3.407501],"boundingbox_size":[8.980000,17.715996,6.815002]}

;TYPE:Custom
SET_PRINT_STATS_INFO TOTAL_LAYER=25

PRINT_START BED=60 EXTRUDER=215 CHAMBER=0 SIZE=106.917_102.554_124.083_128.446 MATERIAL=PLA
; Filament gcode
SET_PRESSURE_ADVANCE ADVANCE=0.08
;_TOOLCHANGE 0
M107
;LAYER_CHANGE
;Z:0.2
;HEIGHT:0.2

G1 E-0.8 F2100
G1 Z0.4 F18000
SET_PRINT_STATS_INFO CURRENT_LAYER=1

G92 E0
G1 Z0.6
M204 S2000
G1 X109.865 Y105.253
G1 Z0.2
G1 E0.8 F2100
;TYPE:Skirt
;WIDTH:0.48
G1 F1200
G1 X108.829 Y106.461 E0.85669
G1 X108.042 Y107.858 E0.91381
G1 X107.546 Y109.376 E0.97069
G1 X107.354 Y111.041 E1.03037
G1 X107.376 Y120.482 E1.36661
G1 X107.653 Y122.052 E1.42339
G1 X108.042 Y123.142 E1.46462
G1 X108.402 Y123.862 E1.4933
G1 X109.089 Y124.889 E1.5373
G1 X109.86 Y125.742 E1.57827
G1 X110.822 Y126.534 E1.62265
G1 X111.808 Y127.127 E1.66363
G1 X112.959 Y127.606 E1.70801
G1 X114.091 Y127.889 E1.74958
G1 X115.317 Y128.009 E1.79345
G1 X116.906 Y127.889 E1.85021
G1 X118.453 Y127.457 E1.90743
G1 X119.871 Y126.738 E1.96404
G1 X121.141 Y125.739 E2.0216
G1 X122.175 Y124.529 E2.07829
G1 X122.955 Y123.142 E2.13496
G1 X123.451 Y121.624 E2.19185
G1 X123.646 Y119.899 E2.25366
G1 X123.621 Y110.518 E2.58778
G1 X123.344 Y108.948 E2.64455
G1 X122.955 Y107.858 E2.68577
G1 X122.37 Y106.763 E2.73001
G1 X121.682 Y105.833 E2.7712
G1 X120.812 Y104.96 E2.8151
G1 X120.171 Y104.463 E2.84399
G1 X119.182 Y103.869 E2.88507
G1 X118.038 Y103.394 E2.92918
G1 X116.914 Y103.112 E2.97046
G1 X115.673 Y102.991 E3.01487
G1 X114.083 Y103.112 E3.07167
G1 X112.544 Y103.543 E3.1286
G1 X111.12 Y104.266 E3.18547
G1 X109.912 Y105.215 E3.2402
G1 X110.182 Y105.558 F18000
G1 F1200
G1 X110.158 Y105.576 E3.24125
G1 X109.179 Y106.722 E3.29492
G1 X108.437 Y108.045 E3.34897
G1 X107.97 Y109.482 E3.4028
G1 X107.791 Y111.041 E3.45867
G1 X107.812 Y120.46 E3.79413
G1 X108.077 Y121.946 E3.84789
G1 X108.437 Y122.955 E3.88606
G1 X108.777 Y123.637 E3.9132
G1 X109.44 Y124.629 E3.95569
G1 X110.154 Y125.419 E3.99364
G1 X111.083 Y126.184 E4.03647
G1 X111.996 Y126.732 E4.07442
G1 X113.106 Y127.194 E4.11725
G1 X114.155 Y127.456 E4.15573
G1 X115.339 Y127.573 E4.19811
G1 X116.842 Y127.456 E4.25183
G1 X118.306 Y127.045 E4.30596
G1 X119.647 Y126.362 E4.35955
G1 X120.846 Y125.416 E4.41398
G1 X121.824 Y124.269 E4.46764
G1 X122.56 Y122.955 E4.5213
G1 X123.027 Y121.518 E4.57513
G1 X123.209 Y119.899 E4.63314
G1 X123.185 Y110.54 E4.96649
G1 X122.92 Y109.054 E5.02022
G1 X122.56 Y108.045 E5.05839
G1 X121.995 Y106.987 E5.1011
G1 X121.358 Y106.127 E5.13924
G1 X120.517 Y105.283 E5.18165
G1 X119.911 Y104.814 E5.20896
G1 X118.995 Y104.264 E5.24701
G1 X117.891 Y103.806 E5.2896
G1 X116.85 Y103.545 E5.32782
G1 X115.652 Y103.427 E5.37066
G1 X114.147 Y103.545 E5.42443
G1 X112.691 Y103.955 E5.47831
G1 X111.345 Y104.641 E5.53213
G1 X110.229 Y105.521 E5.58275
M104 S215 ; set temperature
G92 E0
;WIPE_START
G1 F14400
G1 X111.345 Y104.641 E-0.19691
G1 X112.691 Y103.955 E-0.40627
G1 X114.147 Y103.545 E-0.61583
G1 X115.185 Y103.464 E-0.76
;WIPE_END
G1 E-0.8 F2100
G1 Z0.6 F18000
; printing object CR-Ender_Gantry_Clip_1.stl id:0 copy 0
EXCLUDE_OBJECT_START NAME=CR_Ender_Gantry_Clip_1_stl_id_0_copy_0
; acceleration to travel
M204 S3000
G1 X112.976 Y109.407
; decel to extrusion
M204 S2000
G1 X112.443 Y110.84
; end travel
G1 Z0.2
G1 E0 F2100
;TYPE:Internal perimeter
;WIDTH:0.56292
G1 F1200
G1 X112.488 Y110.541 E0.01284
G1 X112.561 Y110.247 E0.02566
G1 X112.662 Y109.964 E0.03841
G1 X112.791 Y109.69 E0.05121
G1 X112.946 Y109.432 E0.06398
G1 X113.127 Y109.189 E0.0768
G1 X113.33 Y108.964 E0.08966
G1 X113.552 Y108.762 E0.10236
G1 X113.794 Y108.583 E0.11513
G1 X114.052 Y108.428 E0.12788
G1 X114.325 Y108.298 E0.14068
G1 X114.608 Y108.197 E0.15341
G1 X114.9 Y108.124 E0.16618
G1 X115.197 Y108.079 E0.17891
G1 X115.499 Y108.065 E0.19172
G1 X115.8 Y108.079 E0.20449
G1 X116.097 Y108.124 E0.21722
G1 X116.389 Y108.197 E0.22999
G1 X116.672 Y108.298 E0.24272
G1 X116.945 Y108.428 E0.25552
G1 X117.204 Y108.583 E0.26832
G1 X117.446 Y108.762 E0.28107
G1 X117.667 Y108.964 E0.29375
G1 X117.871 Y109.189 E0.30663
G1 X118.05 Y109.431 E0.31938
G1 X118.206 Y109.69 E0.3322
G1 X118.335 Y109.964 E0.345
G1 X118.436 Y110.247 E0.35775
G1 X118.509 Y110.541 E0.37057
G1 X118.554 Y110.84 E0.38341
G1 X118.569 Y111.136 E0.39597
G1 X118.569 Y114.831 E0.55254
G1 X118.227 Y114.55 E0.57128
G1 X117.787 Y114.306 E0.59259
G1 X117.131 Y114.085 E0.62192
G1 X116.521 Y114.025 E0.64793
G1 X116.019 Y114.064 E0.66925
G1 X115.354 Y114.245 E0.69847
G1 X114.922 Y114.469 E0.71907
G1 X114.542 Y114.733 E0.73867
G1 X114.15 Y115.126 E0.76218
G1 X113.952 Y115.392 E0.77626
G1 X113.782 Y115.674 E0.7902
G1 X113.61 Y116.07 E0.80851
G1 X113.484 Y116.519 E0.82824
G1 X113.426 Y117.104 E0.85318
G1 X113.484 Y117.693 E0.87825
G1 X113.61 Y118.141 E0.89795
G1 X113.797 Y118.571 E0.91785
G1 X114.138 Y119.078 E0.94374
G1 X114.64 Y119.556 E0.97311
G1 X115.065 Y119.829 E0.99451
G1 X115.599 Y120.05 E1.01898
G1 X116.051 Y120.149 E1.0386
G1 X116.511 Y120.187 E1.05815
G1 X117.129 Y120.127 E1.08446
G1 X117.788 Y119.905 E1.11393
G1 X118.229 Y119.659 E1.13532
G1 X118.569 Y119.38 E1.15395
G1 X118.569 Y119.864 E1.17445
G1 X118.554 Y120.159 E1.18698
G1 X118.509 Y120.46 E1.19986
G1 X118.436 Y120.753 E1.21267
G1 X118.335 Y121.036 E1.22542
G1 X118.206 Y121.309 E1.23819
G1 X118.05 Y121.568 E1.25102
G1 X117.871 Y121.811 E1.26379
G1 X117.667 Y122.035 E1.27664
G1 X117.445 Y122.238 E1.2894
G1 X117.205 Y122.416 E1.30204
G1 X116.945 Y122.572 E1.31488
G1 X116.671 Y122.702 E1.32775
G1 X116.389 Y122.803 E1.34043
G1 X116.099 Y122.876 E1.35312
G1 X115.8 Y122.92 E1.36592
G1 X115.499 Y122.935 E1.37869
G1 X115.197 Y122.92 E1.3915
G1 X114.898 Y122.876 E1.40429
G1 X114.608 Y122.803 E1.41699
G1 X114.326 Y122.702 E1.42966
G1 X114.052 Y122.572 E1.44254
G1 X113.793 Y122.417 E1.45534
G1 X113.553 Y122.238 E1.46799
G1 X113.33 Y122.035 E1.48077
G1 X113.127 Y121.811 E1.4936
G1 X112.946 Y121.567 E1.50645
G1 X112.791 Y121.309 E1.51922
G1 X112.662 Y121.036 E1.53199
G1 X112.561 Y120.753 E1.54474
G1 X112.488 Y120.46 E1.55755
G1 X112.443 Y120.159 E1.57043
G1 X112.431 Y119.923 E1.58042
G1 X112.431 Y111.076 E1.9553
G1 X112.44 Y110.9 E1.96278
G1 X111.925 Y110.789 F18000
G1 F1200
G1 X111.977 Y110.439 E1.97777
G1 X112.063 Y110.096 E1.99274
G1 X112.181 Y109.765 E2.00765
G1 X112.332 Y109.445 E2.02263
G1 X112.513 Y109.143 E2.03757
G1 X112.724 Y108.859 E2.05254
G1 X112.961 Y108.596 E2.06754
G1 X113.221 Y108.36 E2.08242
G1 X113.504 Y108.15 E2.09736
G1 X113.806 Y107.969 E2.11228
G1 X114.125 Y107.818 E2.12724
G1 X114.456 Y107.699 E2.14215
G1 X114.798 Y107.613 E2.15709
G1 X115.146 Y107.561 E2.17199
G1 X115.499 Y107.544 E2.18696
G1 X115.851 Y107.561 E2.20189
G1 X116.199 Y107.613 E2.21679
G1 X116.541 Y107.699 E2.23173
G1 X116.872 Y107.818 E2.24664
G1 X117.191 Y107.969 E2.2616
G1 X117.493 Y108.15 E2.27655
G1 X117.777 Y108.36 E2.29149
G1 X118.036 Y108.596 E2.30634
G1 X118.274 Y108.859 E2.32137
G1 X118.483 Y109.142 E2.33628
G1 X118.665 Y109.445 E2.35126
G1 X118.816 Y109.765 E2.36624
G1 X118.934 Y110.096 E2.38115
G1 X119.02 Y110.439 E2.39612
G1 X119.072 Y110.789 E2.41111
G1 X119.089 Y111.123 E2.4253
G1 X119.089 Y115.857 E2.62589
G1 X118.79 Y115.945 E2.63906
G1 X118.557 Y115.584 E2.65728
G1 X118.31 Y115.292 E2.67348
G1 X117.933 Y114.982 E2.69417
G1 X117.577 Y114.784 E2.71146
G1 X117.021 Y114.597 E2.73628
G1 X116.515 Y114.547 E2.75782
G1 X116.108 Y114.579 E2.77514
G1 X115.544 Y114.732 E2.79993
G1 X115.191 Y114.915 E2.81677
G1 X114.877 Y115.133 E2.83295
G1 X114.545 Y115.466 E2.85289
G1 X114.384 Y115.682 E2.86429
G1 X114.246 Y115.913 E2.87568
G1 X114.101 Y116.245 E2.89106
G1 X113.997 Y116.616 E2.90736
G1 X113.948 Y117.104 E2.92817
G1 X113.997 Y117.596 E2.94911
G1 X114.101 Y117.966 E2.96537
G1 X114.255 Y118.32 E2.98177
G1 X114.538 Y118.741 E3.00324
G1 X114.963 Y119.145 E3.02809
G1 X115.307 Y119.366 E3.04542
G1 X115.755 Y119.551 E3.06597
G1 X116.129 Y119.633 E3.08218
G1 X116.507 Y119.665 E3.09827
G1 X117.019 Y119.615 E3.12008
G1 X117.577 Y119.427 E3.14501
G1 X117.935 Y119.228 E3.16237
G1 X118.31 Y118.919 E3.18297
G1 X118.557 Y118.627 E3.19916
G1 X118.79 Y118.266 E3.21738
G1 X119.089 Y118.354 E3.23056
G1 X119.089 Y119.876 E3.29508
G1 X119.072 Y120.21 E3.30924
G1 X119.02 Y120.561 E3.32427
G1 X118.934 Y120.904 E3.33923
G1 X118.816 Y121.235 E3.35415
G1 X118.665 Y121.554 E3.36911
G1 X118.483 Y121.857 E3.38407
G1 X118.274 Y122.141 E3.39901
G1 X118.036 Y122.403 E3.41401
G1 X117.776 Y122.64 E3.42892
G1 X117.494 Y122.849 E3.44379
G1 X117.191 Y123.03 E3.45876
G1 X116.871 Y123.183 E3.47378
G1 X116.541 Y123.301 E3.48865
G1 X116.2 Y123.387 E3.50354
G1 X115.851 Y123.438 E3.51848
G1 X115.499 Y123.455 E3.53341
G1 X115.146 Y123.438 E3.54838
G1 X114.797 Y123.387 E3.56332
G1 X114.456 Y123.301 E3.57822
G1 X114.126 Y123.183 E3.59309
G1 X113.806 Y123.03 E3.6081
G1 X113.503 Y122.849 E3.62305
G1 X113.222 Y122.64 E3.63791
G1 X112.961 Y122.403 E3.65285
G1 X112.724 Y122.141 E3.66782
G1 X112.513 Y121.856 E3.68282
G1 X112.332 Y121.554 E3.69775
G1 X112.181 Y121.235 E3.71271
G1 X112.063 Y120.904 E3.72762
G1 X111.977 Y120.561 E3.74259
G1 X111.925 Y120.21 E3.75762
G1 X111.911 Y119.936 E3.76923
G1 X111.911 Y111.063 E4.14521
G1 X111.922 Y110.849 E4.15431
G92 E0
;WIPE_START
G1 F14400
G1 X111.911 Y111.063 E-0.02976
G1 X111.911 Y116.334 E-0.76
;WIPE_END
G1 E-0.8 F2100
G1 Z0.6 F18000
; acceleration to travel
M204 S3000
G1 X114.071 Y117.508
; decel to extrusion
M204 S2000
G1 X114.592 Y117.79
; end travel
G1 Z0.2
G1 E0 F2100
;TYPE:External perimeter
G1 F1200
G1 X114.713 Y118.07 E0.0129
G1 X114.938 Y118.404 E0.02995
G1 X115.285 Y118.734 E0.05029
G1 X115.549 Y118.903 E0.06354
G1 X115.911 Y119.053 E0.08017
G1 X116.206 Y119.118 E0.09296
G1 X116.503 Y119.143 E0.1056
G1 X116.91 Y119.103 E0.1229
G1 X117.366 Y118.949 E0.1433
G1 X117.641 Y118.797 E0.15663
G1 X117.943 Y118.547 E0.17323
G1 X118.138 Y118.317 E0.18603
G1 X118.302 Y118.063 E0.19882
G1 X118.452 Y117.701 E0.21541
G1 X118.516 Y117.405 E0.22825
G1 X118.541 Y117.102 E0.24115
G1 X118.502 Y116.711 E0.25779
G1 X118.419 Y116.421 E0.2706
G1 X118.301 Y116.146 E0.28328
G1 X118.138 Y115.894 E0.29596
G1 X117.943 Y115.664 E0.30876
G1 X117.64 Y115.413 E0.32544
G1 X117.366 Y115.262 E0.3387
G1 X116.911 Y115.108 E0.35901
G1 X116.51 Y115.069 E0.37609
G1 X116.197 Y115.094 E0.38939
G1 X115.734 Y115.22 E0.40976
G1 X115.46 Y115.362 E0.42283
G1 X115.212 Y115.533 E0.4356
G1 X114.94 Y115.807 E0.45197
G1 X114.816 Y115.972 E0.46069
G1 X114.709 Y116.151 E0.46954
G1 X114.592 Y116.421 E0.48199
G1 X114.51 Y116.713 E0.49485
G1 X114.471 Y117.104 E0.51153
G1 X114.51 Y117.499 E0.52834
G1 X114.576 Y117.733 E0.53862
;WIPE_START
G1 X114.34 Y118.101 F18000
;WIPE_END
G92 E0
;WIPE_START
G1 F14400
G1 X114.784 Y118.533 E-0.08589
G1 X115.161 Y118.892 E-0.15805
G1 X115.456 Y119.081 E-0.20652
G1 X115.851 Y119.245 E-0.26582
G1 X116.176 Y119.316 E-0.31193
G1 X116.505 Y119.343 E-0.3576
G1 X116.952 Y119.3 E-0.41983
G1 X117.447 Y119.133 E-0.49222
G1 X117.754 Y118.963 E-0.54087
G1 X118.084 Y118.69 E-0.60018
G1 X118.299 Y118.436 E-0.6463
G1 X118.48 Y118.157 E-0.69239
G1 X118.644 Y117.761 E-0.75167
G1 X118.656 Y117.703 E-0.76
;WIPE_END
G1 E-0.8 F2100
G1 Z0.6 F18000
; acceleration to travel
M204 S3000
G1 X112.815 Y119.764
; decel to extrusion
M204 S2000
G1 X111.407 Y120.261
; end travel
G1 Z0.2
G1 E0 F2100
G1 F1200
G1 X111.391 Y119.949 E0.01323
G1 X111.391 Y111.05 E0.39031
G1 X111.407 Y110.738 E0.40359
G1 X111.467 Y110.337 E0.42073
G1 X111.565 Y109.946 E0.43785
G1 X111.7 Y109.566 E0.45493
G1 X111.873 Y109.2 E0.47208
G1 X112.081 Y108.853 E0.4892
G1 X112.321 Y108.529 E0.50631
G1 X112.592 Y108.229 E0.52346
G1 X112.891 Y107.958 E0.54052
G1 X113.214 Y107.717 E0.55762
G1 X113.56 Y107.51 E0.57471
G1 X113.925 Y107.337 E0.59183
G1 X114.305 Y107.2 E0.60892
G1 X114.697 Y107.103 E0.62603
G1 X115.095 Y107.043 E0.64311
G1 X115.499 Y107.024 E0.66023
G1 X115.902 Y107.043 E0.67732
G1 X116.3 Y107.103 E0.6944
G1 X116.692 Y107.2 E0.7115
G1 X117.072 Y107.337 E0.72859
G1 X117.437 Y107.51 E0.74571
G1 X117.783 Y107.718 E0.76282
G1 X118.107 Y107.958 E0.77994
G1 X118.405 Y108.229 E0.79697
G1 X118.677 Y108.529 E0.81414
G1 X118.916 Y108.853 E0.83121
G1 X119.124 Y109.2 E0.84835
G1 X119.297 Y109.566 E0.8655
G1 X119.432 Y109.946 E0.88258
G1 X119.53 Y110.337 E0.8997
G1 X119.59 Y110.738 E0.91684
G1 X119.609 Y111.111 E0.93266
G1 X119.609 Y119.889 E1.30466
G1 X119.59 Y120.261 E1.32044
G1 X119.53 Y120.663 E1.33762
G1 X119.432 Y121.054 E1.35474
G1 X119.297 Y121.434 E1.37182
G1 X119.124 Y121.8 E1.38896
G1 X118.916 Y122.146 E1.40607
G1 X118.677 Y122.471 E1.42318
G1 X118.405 Y122.77 E1.44032
G1 X118.107 Y123.042 E1.45739
G1 X117.783 Y123.282 E1.47448
G1 X117.437 Y123.489 E1.49158
G1 X117.071 Y123.663 E1.50874
G1 X116.692 Y123.8 E1.52581
G1 X116.301 Y123.897 E1.54289
G1 X115.902 Y123.956 E1.55999
G1 X115.499 Y123.976 E1.57707
G1 X115.095 Y123.956 E1.5942
G1 X114.696 Y123.897 E1.6113
G1 X114.305 Y123.8 E1.62838
G1 X113.926 Y123.663 E1.64545
G1 X113.56 Y123.489 E1.66261
G1 X113.214 Y123.282 E1.6797
G1 X112.891 Y123.042 E1.69676
G1 X112.592 Y122.77 E1.71387
G1 X112.321 Y122.471 E1.73098
G1 X112.081 Y122.146 E1.74813
G1 X111.873 Y121.8 E1.76522
G1 X111.7 Y121.434 E1.78237
G1 X111.565 Y121.054 E1.79945
G1 X111.467 Y120.663 E1.81656
G1 X111.416 Y120.321 E1.83121
;WIPE_START
G1 X111.736 Y120.034 F18000
;WIPE_END
G92 E0
;WIPE_START
G1 F14400
G1 X111.648 Y114.549 E-0.76
;WIPE_END
G1 E-0.8 F2100
G1 Z0.6 F18000
; acceleration to travel
M204 S3000
G1 X117.011 Y119.426
; decel to extrusion
M204 S2000
G1 X118.303 Y120.601
; end travel
G1 Z0.2
G1 E0 F2100
;TYPE:Solid infill
;WIDTH:0.577344
G1 F1200
G1 X117.952 Y120.25 E0.02159
G1 X117.402 Y120.435 E0.04681
