; generated by SuperSlicer 2.5.59 on 2023-10-09 at 11:46:24 UTC


;
;

;
;
; 

; external perimeters extrusion width = 0.44mm
; perimeters extrusion width = 0.46mm
; infill extrusion width = 0.44mm
; solid infill extrusion width = 0.46mm
; top infill extrusion width = 0.44mm
; first layer extrusion width = 0.56mm

; external perimeters extrusion width = 0.44mm
; perimeters extrusion width = 0.46mm
; infill extrusion width = 0.44mm
; solid infill extrusion width = 0.46mm
; top infill extrusion width = 0.44mm
; first layer extrusion width = 0.56mm

; external perimeters extrusion width = 0.44mm
; perimeters extrusion width = 0.46mm
; infill extrusion width = 0.44mm
; solid infill extrusion width = 0.46mm
; top infill extrusion width = 0.44mm
; first layer extrusion width = 0.56mm

; external perimeters extrusion width = 0.44mm
; perimeters extrusion width = 0.46mm
; infill extrusion width = 0.44mm
; solid infill extrusion width = 0.46mm
; top infill extrusion width = 0.44mm
; first layer extrusion width = 0.56mm

; external perimeters extrusion width = 0.44mm
; perimeters extrusion width = 0.46mm
; infill extrusion width = 0.44mm
; solid infill extrusion width = 0.46mm
; top infill extrusion width = 0.44mm
; first layer extrusion width = 0.56mm

; object:{"name":"filament_flow_test","id":"filament_flow_test id:0 copy 0","object_center":[84.799999,44.099998,0.000000],"boundingbox_center":[84.799999,44.099998,0.700000],"boundingbox_size":[20.000000,20.000000,1.400000]}
EXCLUDE_OBJECT_DEFINE NAME=filament_flow_test_id_0_copy_0 CENTER=84.799999,44.099998 POLYGON=[[74.800000,34.100000],[84.800000,34.100000],[94.800000,36.600000],[94.800000,51.600000],[84.800000,54.100000],[74.800000,54.100000],[74.800000,34.100000]]
; object:{"name":"filament_flow_test","id":"filament_flow_test id:1 copy 0","object_center":[84.799999,115.500000,0.000000],"boundingbox_center":[84.799999,115.500000,0.700000],"boundingbox_size":[20.000000,20.000000,1.400000]}
EXCLUDE_OBJECT_DEFINE NAME=filament_flow_test_id_1_copy_0 CENTER=84.799999,115.500000 POLYGON=[[74.800000,105.500000],[84.800000,105.500000],[94.800000,108.000000],[94.800000,123.000000],[84.800000,125.500000],[74.800000,125.500000],[74.800000,105.500000]]
; object:{"name":"filament_flow_test","id":"filament_flow_test id:2 copy 0","object_center":[84.799999,186.900002,0.000000],"boundingbox_center":[84.799999,186.900002,0.700000],"boundingbox_size":[20.000000,20.000000,1.400000]}
EXCLUDE_OBJECT_DEFINE NAME=filament_flow_test_id_2_copy_0 CENTER=84.799999,186.900002 POLYGON=[[74.800000,176.900000],[84.800000,176.900000],[94.800000,179.400000],[94.800000,194.400000],[84.800000,196.900000],[74.800000,196.900000],[74.800000,176.900000]]
; object:{"name":"filament_flow_test","id":"filament_flow_test id:3 copy 0","object_center":[156.200001,44.099998,0.000000],"boundingbox_center":[156.200001,44.099998,0.700000],"boundingbox_size":[20.000000,20.000000,1.400000]}
EXCLUDE_OBJECT_DEFINE NAME=filament_flow_test_id_3_copy_0 CENTER=156.200001,44.099998 POLYGON=[[146.200000,34.100000],[156.200000,34.100000],[166.200000,36.600000],[166.200000,51.600000],[156.200000,54.100000],[146.200000,54.100000],[146.200000,34.100000]]
; object:{"name":"filament_flow_test","id":"filament_flow_test id:4 copy 0","object_center":[156.200001,186.900002,0.000000],"boundingbox_center":[156.200001,186.900002,0.700000],"boundingbox_size":[20.000000,20.000000,1.400000]}
EXCLUDE_OBJECT_DEFINE NAME=filament_flow_test_id_4_copy_0 CENTER=156.200001,186.900002 POLYGON=[[146.200000,176.900000],[156.200000,176.900000],[166.200000,179.400000],[166.200000,194.400000],[156.200000,196.900000],[146.200000,196.900000],[146.200000,176.900000]]
; plater:{"center":[120.500000,115.500000,0.000000],"boundingbox_center":[120.500000,115.500000,0.700000],"boundingbox_size":[91.400002,162.800003,1.400000]}

;TYPE:Custom
SET_PRINT_STATS_INFO TOTAL_LAYER=35

PRINT_START BED=60 EXTRUDER=215 CHAMBER=0 SIZE=70.2815_29.5815_170.719_201.419 MATERIAL=PLA
;_TOOLCHANGE 0
M107
;LAYER_CHANGE
;Z:0.2
;HEIGHT:0.2

G1 E-0.8 F2100
G1 Z0.4 F18000
SET_PRINT_STATS_INFO CURRENT_LAYER=1

G92 E0
G1 Z0.6
M204 S2000
G1 X70.675 Y31.257
G1 Z0.2
G1 E0.8 F2100
;TYPE:Skirt
;WIDTH:0.48
G1 F1200
G1 X70.281 Y32.8 E0.85786
G1 X70.281 Y198.2 E6.86905
G1 X70.792 Y199.94 E6.93494
G1 X71.957 Y201.025 E6.99281
G1 X73.5 Y201.419 E7.05067
G1 X157.5 Y201.419 E10.10351
G1 X158.281 Y201.322 E10.13209
G1 X168.281 Y198.822 E10.50671
G1 X169.24 Y198.408 E10.54469
G1 X170.325 Y197.243 E10.60255
G1 X170.719 Y195.7 E10.66041
G1 X170.719 Y35.3 E16.48988
G1 X170.549 Y34.269 E16.52786
G1 X169.682 Y32.934 E16.58572
G1 X168.281 Y32.178 E16.64358
G1 X158.281 Y29.678 E17.0182
G1 X157.5 Y29.581 E17.04679
G1 X73.5 Y29.581 E20.09963
G1 X71.76 Y30.092 E20.16552
G1 X70.716 Y31.213 E20.2212
G92 E0
;WIPE_START
G1 F14400
G1 X71.76 Y30.092 E-0.21226
G1 X73.5 Y29.581 E-0.46346
G1 X75.64 Y29.581 E-0.76
;WIPE_END
G1 E-0.8 F2100
G1 Z0.6 F18000
; acceleration to travel
M204 S3000
G1 X132.251 Y147.8
; decel to extrusion
M204 S2000
G1 X145.898 Y176.299
; end travel
G1 Z0.2
G1 E0 F2100
;WIDTH:0.56292
G1 F1200
G1 X146.089 Y176.22 E0.00894
G1 X156.311 Y176.22 E0.45094
G1 X156.502 Y176.299 E0.45988
G1 X156.801 Y176.598 E0.47814
G1 X156.88 Y176.789 E0.48708
G1 X156.88 Y178.72 E0.57058
G1 X166.311 Y178.72 E0.97837
G1 X166.502 Y178.799 E0.98731
G1 X166.801 Y179.098 E1.00557
G1 X166.88 Y179.289 E1.01451
G1 X166.88 Y194.511 E1.6727
G1 X166.801 Y194.702 E1.68164
G1 X166.502 Y195.001 E1.6999
G1 X166.311 Y195.08 E1.70885
G1 X156.88 Y195.08 E2.11663
G1 X156.88 Y197.011 E2.20013
G1 X156.801 Y197.202 E2.20907
G1 X156.502 Y197.501 E2.22733
G1 X156.311 Y197.58 E2.23628
G1 X146.089 Y197.58 E2.67827
G1 X145.898 Y197.501 E2.68721
G1 X145.599 Y197.202 E2.70547
G1 X145.52 Y197.011 E2.71442
G1 X145.52 Y176.789 E3.58879
G1 X145.599 Y176.598 E3.59773
G1 X145.855 Y176.342 E3.6134
G1 X146.192 Y176.74 F18000
G1 F1200
G1 X156.208 Y176.74 E4.04645
G1 X156.36 Y176.892 E4.05576
G1 X156.36 Y179.24 E4.15727
G1 X166.208 Y179.24 E4.58307
G1 X166.36 Y179.392 E4.59238
G1 X166.36 Y194.408 E5.24162
G1 X166.208 Y194.56 E5.25093
G1 X156.36 Y194.56 E5.67673
G1 X156.36 Y196.908 E5.77824
G1 X156.208 Y197.06 E5.78755
G1 X146.192 Y197.06 E6.2206
G1 X146.04 Y196.908 E6.22991
G1 X146.04 Y176.892 E7.09534
G1 X146.15 Y176.782 E7.10206
G92 E0
;WIPE_START
G1 F14400
G1 X146.04 Y176.892 E-0.02153
G1 X146.04 Y182.223 E-0.76
;WIPE_END
G1 E-0.8 F2100
G1 Z0.6 F18000
; acceleration to travel
M204 S3000
G1 X105.301 Y179.859
; decel to extrusion
M204 S2000
G1 X95.48 Y179.289
; end travel
G1 Z0.2
G1 E0 F2100
G1 F1200
G1 X95.48 Y194.511 E0.65818
G1 X95.401 Y194.702 E0.66713
G1 X95.102 Y195.001 E0.68539
G1 X94.911 Y195.08 E0.69433
G1 X85.48 Y195.08 E1.10212
G1 X85.48 Y197.011 E1.18561
G1 X85.401 Y197.202 E1.19456
G1 X85.102 Y197.501 E1.21282
G1 X84.911 Y197.58 E1.22176
G1 X74.689 Y197.58 E1.66375
G1 X74.498 Y197.501 E1.6727
G1 X74.199 Y197.202 E1.69096
G1 X74.12 Y197.011 E1.6999
G1 X74.12 Y176.789 E2.57427
G1 X74.199 Y176.598 E2.58322
G1 X74.498 Y176.299 E2.60148
G1 X74.689 Y176.22 E2.61042
G1 X84.911 Y176.22 E3.05241
G1 X85.102 Y176.299 E3.06136
G1 X85.401 Y176.598 E3.07962
G1 X85.48 Y176.789 E3.08856
G1 X85.48 Y178.72 E3.17206
G1 X94.911 Y178.72 E3.57984
G1 X95.102 Y178.799 E3.58879
G1 X95.401 Y179.098 E3.60705
G1 X95.457 Y179.233 E3.6134
G1 X94.96 Y179.392 F18000
G1 F1200
G1 X94.96 Y194.408 E4.26264
G1 X94.808 Y194.56 E4.27195
G1 X84.96 Y194.56 E4.69775
G1 X84.96 Y196.908 E4.79926
G1 X84.808 Y197.06 E4.80857
G1 X74.792 Y197.06 E5.24162
G1 X74.64 Y196.908 E5.25093
G1 X74.64 Y176.892 E6.11636
G1 X74.792 Y176.74 E6.12567
G1 X84.808 Y176.74 E6.55872
G1 X84.96 Y176.892 E6.56803
G1 X84.96 Y179.24 E6.66954
G1 X94.808 Y179.24 E7.09534
G1 X94.918 Y179.35 E7.10206
G92 E0
;WIPE_START
G1 F14400
G1 X94.808 Y179.24 E-0.02153
G1 X89.477 Y179.24 E-0.76
;WIPE_END
G1 E-0.8 F2100
G1 Z0.6 F18000
; acceleration to travel
M204 S3000
G1 X85.798 Y136.487
; decel to extrusion
M204 S2000
G1 X84.911 Y126.18
; end travel
G1 Z0.2
G1 E0 F2100
G1 F1200
G1 X74.689 Y126.18 E0.44199
G1 X74.498 Y126.101 E0.45094
G1 X74.199 Y125.802 E0.4692
G1 X74.12 Y125.611 E0.47814
G1 X74.12 Y105.389 E1.35251
G1 X74.199 Y105.198 E1.36146
G1 X74.498 Y104.899 E1.37972
G1 X74.689 Y104.82 E1.38866
G1 X84.911 Y104.82 E1.83065
G1 X85.102 Y104.899 E1.8396
G1 X85.401 Y105.198 E1.85786
G1 X85.48 Y105.389 E1.8668
G1 X85.48 Y107.32 E1.9503
G1 X94.911 Y107.32 E2.35808
G1 X95.102 Y107.399 E2.36703
G1 X95.401 Y107.698 E2.38529
G1 X95.48 Y107.889 E2.39423
G1 X95.48 Y123.111 E3.05241
G1 X95.401 Y123.302 E3.06136
G1 X95.102 Y123.601 E3.07962
G1 X94.911 Y123.68 E3.08856
G1 X85.48 Y123.68 E3.49635
G1 X85.48 Y125.611 E3.57984
G1 X85.401 Y125.802 E3.58879
G1 X85.102 Y126.101 E3.60705
G1 X84.967 Y126.157 E3.6134
G1 X84.808 Y125.66 F18000
G1 F1200
G1 X74.792 Y125.66 E4.04645
G1 X74.64 Y125.508 E4.05576
G1 X74.64 Y105.492 E4.92119
G1 X74.792 Y105.34 E4.9305
G1 X84.808 Y105.34 E5.36355
G1 X84.96 Y105.492 E5.37286
G1 X84.96 Y107.84 E5.47437
G1 X94.808 Y107.84 E5.90017
G1 X94.96 Y107.992 E5.90948
G1 X94.96 Y123.008 E6.55872
G1 X94.808 Y123.16 E6.56803
G1 X84.96 Y123.16 E6.99383
G1 X84.96 Y125.508 E7.09534
G1 X84.85 Y125.618 E7.10206
G92 E0
;WIPE_START
G1 F14400
G1 X84.96 Y125.508 E-0.02153
G1 X84.96 Y123.16 E-0.34678
G1 X87.943 Y123.16 E-0.76
;WIPE_END
G1 E-0.8 F2100
G1 Z0.6 F18000
; acceleration to travel
M204 S3000
G1 X134.64 Y67.999
; decel to extrusion
M204 S2000
G1 X145.898 Y54.701
; end travel
G1 Z0.2
G1 E0 F2100
G1 F1200
G1 X145.599 Y54.402 E0.01826
G1 X145.52 Y54.211 E0.0272
G1 X145.52 Y33.989 E0.90158
G1 X145.599 Y33.798 E0.91052
G1 X145.898 Y33.499 E0.92878
G1 X146.089 Y33.42 E0.93772
G1 X156.311 Y33.42 E1.37972
G1 X156.502 Y33.499 E1.38866
G1 X156.801 Y33.798 E1.40692
G1 X156.88 Y33.989 E1.41586
G1 X156.88 Y35.92 E1.49936
G1 X166.311 Y35.92 E1.90715
G1 X166.502 Y35.999 E1.91609
G1 X166.801 Y36.298 E1.93435
G1 X166.88 Y36.489 E1.94329
G1 X166.88 Y51.711 E2.60148
G1 X166.801 Y51.902 E2.61042
G1 X166.502 Y52.201 E2.62868
G1 X166.311 Y52.28 E2.63762
G1 X156.88 Y52.28 E3.04541
G1 X156.88 Y54.211 E3.12891
G1 X156.801 Y54.402 E3.13785
G1 X156.502 Y54.701 E3.15611
G1 X156.311 Y54.78 E3.16505
G1 X146.089 Y54.78 E3.60705
G1 X145.953 Y54.724 E3.6134
G1 X146.192 Y54.26 F18000
G1 F1200
G1 X146.04 Y54.108 E3.62271
G1 X146.04 Y34.092 E4.48814
G1 X146.192 Y33.94 E4.49745
G1 X156.208 Y33.94 E4.9305
G1 X156.36 Y34.092 E4.93981
G1 X156.36 Y36.44 E5.04132
G1 X166.208 Y36.44 E5.46712
G1 X166.36 Y36.592 E5.47643
G1 X166.36 Y51.608 E6.12567
G1 X166.208 Y51.76 E6.13499
G1 X156.36 Y51.76 E6.56078
G1 X156.36 Y54.108 E6.66229
G1 X156.208 Y54.26 E6.67161
G1 X146.252 Y54.26 E7.10206
G92 E0
;WIPE_START
G1 F14400
G1 X151.738 Y54.26 E-0.76
;WIPE_END
G1 E-0.8 F2100
G1 Z0.6 F18000
; acceleration to travel
M204 S3000
G1 X106.408 Y52.206
; decel to extrusion
M204 S2000
G1 X95.48 Y51.711
; end travel
G1 Z0.2
G1 E0 F2100
G1 F1200
G1 X95.401 Y51.902 E0.00894
G1 X95.102 Y52.201 E0.0272
G1 X94.911 Y52.28 E0.03615
G1 X85.48 Y52.28 E0.44393
G1 X85.48 Y54.211 E0.52743
G1 X85.401 Y54.402 E0.53637
G1 X85.102 Y54.701 E0.55463
G1 X84.911 Y54.78 E0.56358
G1 X74.689 Y54.78 E1.00557
G1 X74.498 Y54.701 E1.01451
G1 X74.199 Y54.402 E1.03277
G1 X74.12 Y54.211 E1.04172
G1 X74.12 Y33.989 E1.91609
G1 X74.199 Y33.798 E1.92504
G1 X74.498 Y33.499 E1.94329
G1 X74.689 Y33.42 E1.95224
G1 X84.911 Y33.42 E2.39423
G1 X85.102 Y33.499 E2.40318
G1 X85.401 Y33.798 E2.42143
G1 X85.48 Y33.989 E2.43038
G1 X85.48 Y35.92 E2.51388
G1 X94.911 Y35.92 E2.92166
G1 X95.102 Y35.999 E2.93061
G1 X95.401 Y36.298 E2.94886
G1 X95.48 Y36.489 E2.95781
G1 X95.48 Y51.651 E3.6134
G1 X94.96 Y51.608 F18000
G1 F1200
G1 X94.808 Y51.76 E3.62271
G1 X84.96 Y51.76 E4.04851
G1 X84.96 Y54.108 E4.15002
G1 X84.808 Y54.26 E4.15933
G1 X74.792 Y54.26 E4.59238
G1 X74.64 Y54.108 E4.60169
G1 X74.64 Y34.092 E5.46712
G1 X74.792 Y33.94 E5.47643
G1 X84.808 Y33.94 E5.90948
G1 X84.96 Y34.092 E5.9188
G1 X84.96 Y36.44 E6.02031
G1 X94.808 Y36.44 E6.4461
G1 X94.96 Y36.592 E6.45541
G1 X94.96 Y51.548 E7.10206
M104 S215 ; set temperature
G92 E0
;WIPE_START
G1 F14400
G1 X94.96 Y46.062 E-0.76
;WIPE_END
G1 E-0.8 F2100
G1 Z0.6 F18000
; printing object filament_flow_test id:0 copy 0
EXCLUDE_OBJECT_START NAME=filament_flow_test_id_0_copy_0
; acceleration to travel
M204 S3000
G1 X86.466 Y50.217
; decel to extrusion
M204 S2000
G1 X84.419 Y51.219
; end travel
G1 Z0.2
G1 E0 F2100
;TYPE:External perimeter
G1 F1200
G1 X84.419 Y53.719 E0.08648
G1 X75.181 Y53.719 E0.40599
G1 X75.181 Y34.481 E1.07141
G1 X84.419 Y34.481 E1.39093
G1 X84.419 Y36.981 E1.4774
G1 X94.419 Y36.981 E1.82331
G1 X94.419 Y51.219 E2.31578
G1 X84.479 Y51.219 E2.65961
;WIPE_START
G1 X84.019 Y51.219 F18000
;WIPE_END
G1 X83.899 Y50.699
;TYPE:Internal perimeter
G1 F1200
G1 X83.899 Y53.199 E2.74608
G1 X75.701 Y53.199 E3.02963
G1 X75.701 Y35.001 E3.65907
G1 X83.899 Y35.001 E3.94261
G1 X83.899 Y37.501 E4.02909
G1 X93.899 Y37.501 E4.375
G1 X93.899 Y50.699 E4.83149
G1 X83.959 Y50.699 E5.17532
G1 X83.379 Y50.179 F18000
G1 F1200
G1 X83.379 Y52.679 E5.2618
G1 X76.221 Y52.679 E5.50936
G1 X76.221 Y35.521 E6.10284
G1 X83.379 Y35.521 E6.3504
G1 X83.379 Y38.021 E6.43688
G1 X93.379 Y38.021 E6.78279
G1 X93.379 Y50.179 E7.20331
G1 X83.439 Y50.179 E7.54714
G92 E0
;WIPE_START
G1 F14400
G1 X88.924 Y50.179 E-0.76
;WIPE_END
G1 E-0.8 F2100
G1 Z0.6 F18000
; acceleration to travel
M204 S3000
G1 X91.541 Y40.509
; decel to extrusion
M204 S2000
G1 X92.171 Y38.177
; end travel
G1 Z0.2
G1 E0 F2100
;TYPE:Solid infill
;WIDTH:0.558451
G1 F1200
G1 X92.999 Y39.005 E0.04016
G1 X92.999 Y39.74 E0.0654
G1 X91.66 Y38.401 E0.1304
G1 X90.924 Y38.401 E0.15563
G1 X92.999 Y40.476 E0.25632
G1 X92.999 Y41.211 E0.28155
G1 X90.189 Y38.401 E0.41793
G1 X89.453 Y38.401 E0.44316
G1 X92.999 Y41.947 E0.61523
G1 X92.999 Y42.682 E0.64046
G1 X88.718 Y38.401 E0.84822
G1 X87.983 Y38.401 E0.87345
G1 X92.999 Y43.417 E1.11689
G1 X92.999 Y44.153 E1.14213
G1 X87.247 Y38.401 E1.42126
G1 X86.512 Y38.401 E1.44649
G1 X92.999 Y44.888 E1.76131
G1 X92.999 Y45.623 E1.78655
G1 X85.776 Y38.401 E2.13705
G1 X85.041 Y38.401 E2.16229
G1 X92.999 Y46.359 E2.54848
G1 X92.999 Y47.094 E2.57372
G1 X84.082 Y38.177 E3.00645
G92 E0
;WIPE_START
G1 F14400
G1 X87.961 Y42.056 E-0.76
;WIPE_END
G1 E-0.8 F2100
G1 Z0.6 F18000
; acceleration to travel
M204 S3000
G1 X84.143 Y37.646
; decel to extrusion
M204 S2000
G1 X83.223 Y36.582
; end travel
G1 Z0.2
G1 E0 F2100
G1 F1200
G1 X82.541 Y35.901 E0.03307
G1 X81.806 Y35.901 E0.05831
G1 X83.223 Y37.318 E0.12707
G92 E0
;WIPE_START
G1 F14400
G1 X81.806 Y35.901 E-0.2776
G1 X82.541 Y35.901 E-0.37948
G1 X83.223 Y36.582 E-0.513
;WIPE_END
G1 E-0.8 F2100
G1 Z0.6 F18000
; acceleration to travel
M204 S3000
G1 X81.308 Y35.853
; decel to extrusion
M204 S2000
G1 X80.847 Y35.677
; end travel
G1 Z0.2
G1 E0 F2100
G1 F1200
G1 X82.999 Y37.83 E0.10445
G1 X82.999 Y38.401 E0.12405
G1 X83.57 Y38.401 E0.14366
G1 X92.999 Y47.83 E0.60123
G1 X92.999 Y48.565 E0.62647
G1 X80.335 Y35.901 E1.24105
G1 X79.6 Y35.901 E1.26629
G1 X92.999 Y49.3 E1.91656
G1 X92.999 Y49.799 E1.93367
G1 X92.762 Y49.799 E1.9418
G1 X78.864 Y35.901 E2.61627
G1 X78.129 Y35.901 E2.6415
G1 X92.027 Y49.799 E3.31597
G1 X91.291 Y49.799 E3.3412
G1 X77.393 Y35.901 E4.01567
G1 X76.658 Y35.901 E4.04091
G1 X90.556 Y49.799 E4.71537
G1 X89.821 Y49.799 E4.74061
G1 X76.601 Y36.579 E5.38215
G1 X76.601 Y37.315 E5.40739
G1 X89.085 Y49.799 E6.01324
G1 X88.35 Y49.799 E6.03848
G1 X76.601 Y38.05 E6.60864
G1 X76.601 Y38.786 E6.63388
G1 X87.614 Y49.799 E7.16835
G1 X86.879 Y49.799 E7.19359
G1 X76.601 Y39.521 E7.69238
G1 X76.601 Y40.256 E7.71761
G1 X86.144 Y49.799 E8.18071
G1 X85.408 Y49.799 E8.20595
G1 X76.601 Y40.992 E8.63336
G1 X76.601 Y41.727 E8.6586
G1 X84.673 Y49.799 E9.05032
G1 X83.937 Y49.799 E9.07555
G1 X76.601 Y42.463 E9.43159
G1 X76.601 Y43.198 E9.45682
G1 X83.202 Y49.799 E9.77717
G1 X82.999 Y49.799 E9.78414
G1 X82.999 Y50.331 E9.80241
G1 X76.601 Y43.933 E10.1129
G1 X76.601 Y44.669 E10.13813
G1 X82.999 Y51.067 E10.44862
G1 X82.999 Y51.802 E10.47386
G1 X76.601 Y45.404 E10.78435
G1 X76.601 Y46.14 E10.80959
