; generated by SuperSlicer 2.5.59 on 2023-10-13 at 15:36:43 UTC


;
;

;
;
; 

; external perimeters extrusion width = 0.44mm
; perimeters extrusion width = 0.46mm
; infill extrusion width = 0.44mm
; solid infill extrusion width = 0.46mm
; top infill extrusion width = 0.44mm
; support material extrusion width = 0.38mm
; first layer extrusion width = 0.57mm

; external perimeters extrusion width = 0.44mm
; perimeters extrusion width = 0.46mm
; infill extrusion width = 0.44mm
; solid infill extrusion width = 0.46mm
; top infill extrusion width = 0.44mm
; support material extrusion width = 0.38mm
; first layer extrusion width = 0.57mm

; external perimeters extrusion width = 0.44mm
; perimeters extrusion width = 0.46mm
; infill extrusion width = 0.44mm
; solid infill extrusion width = 0.46mm
; top infill extrusion width = 0.44mm
; support material extrusion width = 0.38mm
; first layer extrusion width = 0.57mm

; external perimeters extrusion width = 0.44mm
; perimeters extrusion width = 0.46mm
; infill extrusion width = 0.44mm
; solid infill extrusion width = 0.46mm
; top infill extrusion width = 0.44mm
; support material extrusion width = 0.38mm
; first layer extrusion width = 0.57mm

; external perimeters extrusion width = 0.44mm
; perimeters extrusion width = 0.46mm
; infill extrusion width = 0.44mm
; solid infill extrusion width = 0.46mm
; top infill extrusion width = 0.44mm
; support material extrusion width = 0.38mm
; first layer extrusion width = 0.57mm

; object:{"name":"filament_flow_test","id":"filament_flow_test id:0 copy 0","object_center":[81.799999,41.099998,0.000000],"boundingbox_center":[81.799999,41.099998,0.725000],"boundingbox_size":[20.000000,20.000000,1.450000]}
EXCLUDE_OBJECT_DEFINE NAME=filament_flow_test_id_0_copy_0 CENTER=81.799999,41.099998 POLYGON=[[71.800000,31.099998],[81.800000,31.099998],[91.800000,33.600000],[91.800000,48.600000],[81.800000,51.100000],[71.800000,51.100000],[71.800000,31.099998]]
; object:{"name":"filament_flow_test","id":"filament_flow_test id:1 copy 0","object_center":[81.799999,112.500000,0.000000],"boundingbox_center":[81.799999,112.500000,0.725000],"boundingbox_size":[20.000000,20.000000,1.450000]}
EXCLUDE_OBJECT_DEFINE NAME=filament_flow_test_id_1_copy_0 CENTER=81.799999,112.500000 POLYGON=[[71.800000,102.500000],[81.800000,102.500000],[91.800000,105.000000],[91.800000,120.000000],[81.800000,122.500000],[71.800000,122.500000],[71.800000,102.500000]]
; object:{"name":"filament_flow_test","id":"filament_flow_test id:2 copy 0","object_center":[81.799999,183.900002,0.000000],"boundingbox_center":[81.799999,183.900002,0.725000],"boundingbox_size":[20.000000,20.000000,1.450000]}
EXCLUDE_OBJECT_DEFINE NAME=filament_flow_test_id_2_copy_0 CENTER=81.799999,183.900002 POLYGON=[[71.800000,173.900000],[81.800000,173.900000],[91.800000,176.400000],[91.800000,191.400000],[81.800000,193.900000],[71.800000,193.900000],[71.800000,173.900000]]
; object:{"name":"filament_flow_test","id":"filament_flow_test id:3 copy 0","object_center":[153.200001,41.099998,0.000000],"boundingbox_center":[153.200001,41.099998,0.725000],"boundingbox_size":[20.000000,20.000000,1.450000]}
EXCLUDE_OBJECT_DEFINE NAME=filament_flow_test_id_3_copy_0 CENTER=153.200001,41.099998 POLYGON=[[143.200000,31.099998],[153.200000,31.099998],[163.200000,33.600000],[163.200000,48.600000],[153.200000,51.100000],[143.200000,51.100000],[143.200000,31.099998]]
; object:{"name":"filament_flow_test","id":"filament_flow_test id:4 copy 0","object_center":[153.200001,183.900002,0.000000],"boundingbox_center":[153.200001,183.900002,0.725000],"boundingbox_size":[20.000000,20.000000,1.450000]}
EXCLUDE_OBJECT_DEFINE NAME=filament_flow_test_id_4_copy_0 CENTER=153.200001,183.900002 POLYGON=[[143.200000,173.900000],[153.200000,173.900000],[163.200000,176.400000],[163.200000,191.400000],[153.200000,193.900000],[143.200000,193.900000],[143.200000,173.900000]]
; plater:{"center":[117.500000,112.500000,0.000000],"boundingbox_center":[117.500000,112.500000,0.725000],"boundingbox_size":[91.400002,162.800003,1.450000]}

;TYPE:Custom
SET_PRINT_STATS_INFO TOTAL_LAYER=35

PRINT_START BED=70 EXTRUDER=240 CHAMBER=0 SIZE=67.2868_26.5868_167.713_198.413 MATERIAL=PETG
; Filament gcode
;_TOOLCHANGE 0
M107
;LAYER_CHANGE
;Z:0.24
;HEIGHT:0.24

G1 E-0.8 F2100
G1 Z0.4 F18000
SET_PRINT_STATS_INFO CURRENT_LAYER=1

G92 E0
G1 Z0.64
M204 S1000
G1 X67.681 Y28.259
G1 Z0.24
G1 E0.8 F2100
;TYPE:Skirt
;WIDTH:0.48
G1 F1200
G1 X67.287 Y29.8 E0.86801
G1 X67.287 Y195.2 E7.93977
G1 X67.795 Y196.935 E8.01705
G1 X68.959 Y198.019 E8.08506
G1 X70.5 Y198.413 E8.15308
G1 X154.5 Y198.413 E11.74454
G1 X155.279 Y198.317 E11.77811
G1 X165.279 Y195.817 E12.21882
G1 X166.235 Y195.405 E12.26331
G1 X167.319 Y194.241 E12.33132
G1 X167.713 Y192.7 E12.39934
G1 X167.713 Y32.3 E19.25731
G1 X167.545 Y31.273 E19.3018
G1 X166.679 Y29.939 E19.36982
G1 X165.279 Y29.183 E19.43783
G1 X155.279 Y26.683 E19.87854
G1 X154.5 Y26.587 E19.91211
G1 X70.5 Y26.587 E23.50357
G1 X68.765 Y27.095 E23.58086
G1 X67.722 Y28.215 E23.6463
G92 E0
;WIPE_START
G1 F14400
G1 X68.765 Y27.095 E-0.21208
G1 X70.5 Y26.587 E-0.4625
G1 X72.647 Y26.587 E-0.76
;WIPE_END
G1 E-0.8 F2100
G1 Z0.64 F18000
; acceleration to travel
M204 S1500
G1 X129.252 Y144.801
; decel to extrusion
M204 S1000
G1 X142.898 Y173.299
; end travel
G1 Z0.24
G1 E0 F2100
;WIDTH:0.57365
;HEIGHT:0.25
G1 F1200
G1 X143.089 Y173.22 E0.01118
G1 X153.311 Y173.22 E0.56367
G1 X153.502 Y173.299 E0.57485
G1 X153.801 Y173.598 E0.59767
G1 X153.88 Y173.789 E0.60886
G1 X153.88 Y175.72 E0.71323
G1 X163.311 Y175.72 E1.22296
G1 X163.502 Y175.799 E1.23414
G1 X163.801 Y176.098 E1.25696
G1 X163.88 Y176.289 E1.26814
G1 X163.88 Y191.511 E2.09087
G1 X163.801 Y191.702 E2.10205
G1 X163.502 Y192.001 E2.12488
G1 X163.311 Y192.08 E2.13606
G1 X153.88 Y192.08 E2.64579
G1 X153.88 Y194.011 E2.75016
G1 X153.801 Y194.202 E2.76134
G1 X153.502 Y194.501 E2.78416
G1 X153.311 Y194.58 E2.79534
G1 X143.089 Y194.58 E3.34784
G1 X142.898 Y194.501 E3.35902
G1 X142.599 Y194.202 E3.38184
G1 X142.52 Y194.011 E3.39302
G1 X142.52 Y173.789 E4.48599
G1 X142.599 Y173.598 E4.49717
G1 X142.855 Y173.342 E4.51675
G1 X143.192 Y173.74 F18000
G1 F1200
G1 X153.208 Y173.74 E5.05806
G1 X153.36 Y173.892 E5.0697
G1 X153.36 Y176.24 E5.19659
G1 X163.208 Y176.24 E5.72883
G1 X163.36 Y176.392 E5.74047
G1 X163.36 Y191.408 E6.55202
G1 X163.208 Y191.56 E6.56366
G1 X153.36 Y191.56 E7.09591
G1 X153.36 Y193.908 E7.2228
G1 X153.208 Y194.06 E7.23444
G1 X143.192 Y194.06 E7.77575
G1 X143.04 Y193.908 E7.78739
G1 X143.04 Y173.892 E8.86918
G1 X143.15 Y173.782 E8.87757
G92 E0
;WIPE_START
G1 F14400
G1 X143.04 Y173.892 E-0.02153
G1 X143.04 Y179.223 E-0.76
;WIPE_END
G1 E-0.8 F2100
G1 Z0.64 F18000
; acceleration to travel
M204 S1500
G1 X102.301 Y176.859
; decel to extrusion
M204 S1000
G1 X92.48 Y176.289
; end travel
G1 Z0.24
G1 E0 F2100
G1 F1200
G1 X92.48 Y191.511 E0.82273
G1 X92.401 Y191.702 E0.83391
G1 X92.102 Y192.001 E0.85673
G1 X91.911 Y192.08 E0.86791
G1 X82.48 Y192.08 E1.37764
G1 X82.48 Y194.011 E1.48202
G1 X82.401 Y194.202 E1.4932
G1 X82.102 Y194.501 E1.51602
G1 X81.911 Y194.58 E1.5272
G1 X71.689 Y194.58 E2.07969
G1 X71.498 Y194.501 E2.09087
G1 X71.199 Y194.202 E2.1137
G1 X71.12 Y194.011 E2.12488
G1 X71.12 Y173.789 E3.21784
G1 X71.199 Y173.598 E3.22902
G1 X71.498 Y173.299 E3.25185
G1 X71.689 Y173.22 E3.26303
G1 X81.911 Y173.22 E3.81552
G1 X82.102 Y173.299 E3.8267
G1 X82.401 Y173.598 E3.84952
G1 X82.48 Y173.789 E3.8607
G1 X82.48 Y175.72 E3.96508
G1 X91.911 Y175.72 E4.47481
G1 X92.102 Y175.799 E4.48599
G1 X92.401 Y176.098 E4.50881
G1 X92.457 Y176.233 E4.51675
G1 X91.96 Y176.392 F18000
G1 F1200
G1 X91.96 Y191.408 E5.3283
G1 X91.808 Y191.56 E5.33994
G1 X81.96 Y191.56 E5.87218
G1 X81.96 Y193.908 E5.99907
G1 X81.808 Y194.06 E6.01071
G1 X71.792 Y194.06 E6.55202
G1 X71.64 Y193.908 E6.56366
G1 X71.64 Y173.892 E7.64545
G1 X71.792 Y173.74 E7.65709
G1 X81.808 Y173.74 E8.1984
G1 X81.96 Y173.892 E8.21004
G1 X81.96 Y176.24 E8.33693
G1 X91.808 Y176.24 E8.86918
G1 X91.918 Y176.35 E8.87757
G92 E0
;WIPE_START
G1 F14400
G1 X91.808 Y176.24 E-0.02153
G1 X86.477 Y176.24 E-0.76
;WIPE_END
G1 E-0.8 F2100
G1 Z0.64 F18000
; acceleration to travel
M204 S1500
G1 X82.798 Y133.487
; decel to extrusion
M204 S1000
G1 X81.911 Y123.18
; end travel
G1 Z0.24
G1 E0 F2100
G1 F1200
G1 X71.689 Y123.18 E0.55249
G1 X71.498 Y123.101 E0.56367
G1 X71.199 Y122.802 E0.58649
G1 X71.12 Y122.611 E0.59767
G1 X71.12 Y102.389 E1.69064
G1 X71.199 Y102.198 E1.70182
G1 X71.498 Y101.899 E1.72465
G1 X71.689 Y101.82 E1.73583
G1 X81.911 Y101.82 E2.28832
G1 X82.102 Y101.899 E2.2995
G1 X82.401 Y102.198 E2.32232
G1 X82.48 Y102.389 E2.3335
G1 X82.48 Y104.32 E2.43787
G1 X91.911 Y104.32 E2.94761
G1 X92.102 Y104.399 E2.95879
G1 X92.401 Y104.698 E2.98161
G1 X92.48 Y104.889 E2.99279
G1 X92.48 Y120.111 E3.81552
G1 X92.401 Y120.302 E3.8267
G1 X92.102 Y120.601 E3.84952
G1 X91.911 Y120.68 E3.8607
G1 X82.48 Y120.68 E4.37043
G1 X82.48 Y122.611 E4.47481
G1 X82.401 Y122.802 E4.48599
G1 X82.102 Y123.101 E4.50881
G1 X81.967 Y123.157 E4.51675
G1 X81.808 Y122.66 F18000
G1 F1200
G1 X71.792 Y122.66 E5.05806
G1 X71.64 Y122.508 E5.0697
G1 X71.64 Y102.492 E6.15149
G1 X71.792 Y102.34 E6.16313
G1 X81.808 Y102.34 E6.70444
G1 X81.96 Y102.492 E6.71608
G1 X81.96 Y104.84 E6.84297
G1 X91.808 Y104.84 E7.37521
G1 X91.96 Y104.992 E7.38685
G1 X91.96 Y120.008 E8.1984
G1 X91.808 Y120.16 E8.21004
G1 X81.96 Y120.16 E8.74229
G1 X81.96 Y122.508 E8.86918
G1 X81.85 Y122.618 E8.87757
G92 E0
;WIPE_START
G1 F14400
G1 X81.96 Y122.508 E-0.02153
G1 X81.96 Y120.16 E-0.34678
G1 X84.943 Y120.16 E-0.76
;WIPE_END
G1 E-0.8 F2100
G1 Z0.64 F18000
; acceleration to travel
M204 S1500
G1 X131.64 Y64.999
; decel to extrusion
M204 S1000
G1 X142.898 Y51.701
; end travel
G1 Z0.24
G1 E0 F2100
G1 F1200
G1 X142.599 Y51.402 E0.02282
G1 X142.52 Y51.211 E0.034
G1 X142.52 Y30.989 E1.12697
G1 X142.599 Y30.798 E1.13815
G1 X142.898 Y30.499 E1.16097
G1 X143.089 Y30.42 E1.17215
G1 X153.311 Y30.42 E1.72465
G1 X153.502 Y30.499 E1.73583
G1 X153.801 Y30.798 E1.75865
G1 X153.88 Y30.989 E1.76983
G1 X153.88 Y32.92 E1.8742
G1 X163.311 Y32.92 E2.38393
G1 X163.502 Y32.999 E2.39511
G1 X163.801 Y33.298 E2.41794
G1 X163.88 Y33.489 E2.42912
G1 X163.88 Y48.711 E3.25185
G1 X163.801 Y48.902 E3.26303
G1 X163.502 Y49.201 E3.28585
G1 X163.311 Y49.28 E3.29703
G1 X153.88 Y49.28 E3.80676
G1 X153.88 Y51.211 E3.91113
G1 X153.801 Y51.402 E3.92232
G1 X153.502 Y51.701 E3.94514
G1 X153.311 Y51.78 E3.95632
G1 X143.089 Y51.78 E4.50881
G1 X142.953 Y51.724 E4.51675
G1 X143.192 Y51.26 F18000
G1 F1200
G1 X143.04 Y51.108 E4.52839
G1 X143.04 Y31.092 E5.61018
G1 X143.192 Y30.94 E5.62182
G1 X153.208 Y30.94 E6.16313
G1 X153.36 Y31.092 E6.17477
G1 X153.36 Y33.44 E6.30166
G1 X163.208 Y33.44 E6.8339
G1 X163.36 Y33.592 E6.84554
G1 X163.36 Y48.608 E7.65709
G1 X163.208 Y48.76 E7.66873
G1 X153.36 Y48.76 E8.20098
G1 X153.36 Y51.108 E8.32787
G1 X153.208 Y51.26 E8.33951
G1 X143.252 Y51.26 E8.87757
G92 E0
;WIPE_START
G1 F14400
G1 X148.738 Y51.26 E-0.76
;WIPE_END
G1 E-0.8 F2100
G1 Z0.64 F18000
; acceleration to travel
M204 S1500
G1 X103.408 Y49.206
; decel to extrusion
M204 S1000
G1 X92.48 Y48.711
; end travel
G1 Z0.24
G1 E0 F2100
G1 F1200
G1 X92.401 Y48.902 E0.01118
G1 X92.102 Y49.201 E0.034
G1 X91.911 Y49.28 E0.04518
G1 X82.48 Y49.28 E0.55491
G1 X82.48 Y51.211 E0.65929
G1 X82.401 Y51.402 E0.67047
G1 X82.102 Y51.701 E0.69329
G1 X81.911 Y51.78 E0.70447
G1 X71.689 Y51.78 E1.25696
G1 X71.498 Y51.701 E1.26814
G1 X71.199 Y51.402 E1.29097
G1 X71.12 Y51.211 E1.30215
G1 X71.12 Y30.989 E2.39511
G1 X71.199 Y30.798 E2.40629
G1 X71.498 Y30.499 E2.42912
G1 X71.689 Y30.42 E2.4403
G1 X81.911 Y30.42 E2.99279
G1 X82.102 Y30.499 E3.00397
G1 X82.401 Y30.798 E3.02679
G1 X82.48 Y30.989 E3.03797
G1 X82.48 Y32.92 E3.14235
G1 X91.911 Y32.92 E3.65208
G1 X92.102 Y32.999 E3.66326
G1 X92.401 Y33.298 E3.68608
G1 X92.48 Y33.489 E3.69726
G1 X92.48 Y48.651 E4.51675
G1 X91.96 Y48.608 F18000
G1 F1200
G1 X91.808 Y48.76 E4.52839
G1 X81.96 Y48.76 E5.06063
G1 X81.96 Y51.108 E5.18752
G1 X81.808 Y51.26 E5.19916
G1 X71.792 Y51.26 E5.74047
G1 X71.64 Y51.108 E5.75211
G1 X71.64 Y31.092 E6.8339
G1 X71.792 Y30.94 E6.84554
G1 X81.808 Y30.94 E7.38685
G1 X81.96 Y31.092 E7.39849
G1 X81.96 Y33.44 E7.52538
G1 X91.808 Y33.44 E8.05763
G1 X91.96 Y33.592 E8.06927
G1 X91.96 Y48.548 E8.87757
M104 S240 ; set temperature
G92 E0
;WIPE_START
G1 F14400
G1 X91.96 Y43.062 E-0.76
;WIPE_END
G1 E-0.8 F2100
G1 Z0.64 F18000
; printing object filament_flow_test id:0 copy 0
EXCLUDE_OBJECT_START NAME=filament_flow_test_id_0_copy_0
; acceleration to travel
M204 S1500
G1 X83.463 Y47.213
; decel to extrusion
M204 S1000
G1 X81.414 Y48.214
; end travel
G1 Z0.24
G1 E0 F2100
;TYPE:External perimeter
;WIDTH:0.571504
;HEIGHT:0.24
G1 F1200
G1 X81.414 Y50.714 E0.11934
G1 X72.186 Y50.714 E0.55986
G1 X72.186 Y31.486 E1.47773
G1 X81.414 Y31.486 E1.91825
G1 X81.414 Y33.986 E2.03759
G1 X91.414 Y33.986 E2.51494
G1 X91.414 Y48.214 E3.19414
G1 X81.474 Y48.214 E3.66862
;WIPE_START
G1 X81.014 Y48.214 F18000
;WIPE_END
G1 X80.894 Y47.694
;TYPE:Internal perimeter
G1 F1200
G1 X80.894 Y50.194 E3.78796
G1 X72.706 Y50.194 E4.17884
G1 X72.706 Y32.006 E5.04706
G1 X80.894 Y32.006 E5.43794
G1 X80.894 Y34.506 E5.55728
G1 X90.894 Y34.506 E6.03463
G1 X90.894 Y47.694 E6.66418
G1 X80.954 Y47.694 E7.13866
G1 X80.374 Y47.174 F18000
G1 F1200
G1 X80.374 Y49.674 E7.258
G1 X73.226 Y49.674 E7.59923
G1 X73.226 Y32.526 E8.41782
G1 X80.374 Y32.526 E8.75905
G1 X80.374 Y35.026 E8.87839
G1 X90.374 Y35.026 E9.35574
G1 X90.374 Y47.174 E9.93565
G1 X80.434 Y47.174 E10.41013
G92 E0
;WIPE_START
G1 F14400
G1 X85.92 Y47.174 E-0.76
;WIPE_END
G1 E-0.8 F2100
G1 Z0.64 F18000
; acceleration to travel
M204 S1500
G1 X88.536 Y37.511
; decel to extrusion
M204 S1000
G1 X89.167 Y35.182
; end travel
G1 Z0.24
G1 E0 F2100
;TYPE:Solid infill
;WIDTH:0.566949
G1 F1200
G1 X89.995 Y36.009 E0.05542
G1 X89.995 Y36.745 E0.09024
G1 X88.655 Y35.405 E0.17994
G1 X87.92 Y35.405 E0.21476
G1 X89.995 Y37.48 E0.35371
G1 X89.995 Y38.215 E0.38853
G1 X87.185 Y35.405 E0.57672
G1 X86.449 Y35.405 E0.61155
G1 X89.995 Y38.951 E0.84899
G1 X89.995 Y39.686 E0.88381
G1 X85.714 Y35.405 E1.1705
G1 X84.978 Y35.405 E1.20533
G1 X89.995 Y40.422 E1.54126
G1 X89.995 Y41.157 E1.57609
G1 X84.243 Y35.405 E1.96127
G1 X83.508 Y35.405 E1.9961
G1 X89.995 Y41.892 E2.43053
G1 X89.995 Y42.628 E2.46536
G1 X82.772 Y35.405 E2.94904
G1 X82.037 Y35.405 E2.98386
G1 X89.995 Y43.363 E3.51679
G1 X89.995 Y44.099 E3.55162
G1 X81.078 Y35.182 E4.14877
G92 E0
;WIPE_START
G1 F14400
G1 X84.957 Y39.061 E-0.76
;WIPE_END
G1 E-0.8 F2100
G1 Z0.64 F18000
; acceleration to travel
M204 S1500
G1 X81.139 Y34.65
; decel to extrusion
M204 S1000
G1 X80.218 Y33.587
; end travel
G1 Z0.24
G1 E0 F2100
G1 F1200
G1 X79.537 Y32.905 E0.04564
G1 X78.801 Y32.905 E0.08046
G1 X80.218 Y34.322 E0.17535
G92 E0
;WIPE_START
G1 F14400
G1 X78.801 Y32.905 E-0.2776
G1 X79.537 Y32.905 E-0.37948
G1 X80.218 Y33.587 E-0.513
;WIPE_END
G1 E-0.8 F2100
G1 Z0.64 F18000
G1 X77.842 Y32.682
G1 Z0.24
G1 E0 F2100
G1 F1200
G1 X79.995 Y34.834 E0.14413
G1 X79.995 Y35.405 E0.17119
G1 X80.566 Y35.405 E0.19825
G1 X89.995 Y44.834 E0.82968
G1 X89.995 Y45.569 E0.8645
G1 X77.331 Y32.905 E1.7126
G1 X76.595 Y32.905 E1.74742
G1 X89.995 Y46.305 E2.64477
G1 X89.995 Y46.795 E2.66797
G1 X89.749 Y46.795 E2.6796
G1 X75.86 Y32.905 E3.60976
G1 X75.124 Y32.905 E3.64458
G1 X89.014 Y46.795 E4.57474
G1 X88.278 Y46.795 E4.60956
G1 X74.389 Y32.905 E5.53972
G1 X73.654 Y32.905 E5.57455
G1 X87.543 Y46.795 E6.50471
G1 X86.808 Y46.795 E6.53953
G1 X73.605 Y33.592 E7.42368
G1 X73.605 Y34.328 E7.45851
G1 X86.072 Y46.795 E8.29341
G1 X85.337 Y46.795 E8.32823
G1 X73.605 Y35.063 E9.11389
G1 X73.605 Y35.799 E9.14871
G1 X84.601 Y46.795 E9.88511
G1 X83.866 Y46.795 E9.91994
G1 X73.605 Y36.534 E10.60709
G1 X73.605 Y37.269 E10.64192
G1 X83.131 Y46.795 E11.27983
G1 X82.395 Y46.795 E11.31465
G1 X73.605 Y38.005 E11.90331
G1 X73.605 Y38.74 E11.93813
G1 X81.66 Y46.795 E12.47755
G1 X80.925 Y46.795 E12.51237
G1 X73.605 Y39.475 E13.00253
G1 X73.605 Y40.211 E13.03736
G1 X80.189 Y46.795 E13.47827
