; generated by SuperSlicer 2.5.59 on 2023-10-11 at 14:56:08 UTC


;
;

;
;
; 

; external perimeters extrusion width = 0.44mm
; perimeters extrusion width = 0.46mm
; infill extrusion width = 0.44mm
; solid infill extrusion width = 0.46mm
; top infill extrusion width = 0.44mm
; first layer extrusion width = 0.57mm

; external perimeters extrusion width = 0.44mm
; perimeters extrusion width = 0.46mm
; infill extrusion width = 0.44mm
; solid infill extrusion width = 0.46mm
; top infill extrusion width = 0.44mm
; first layer extrusion width = 0.57mm

; external perimeters extrusion width = 0.44mm
; perimeters extrusion width = 0.46mm
; infill extrusion width = 0.44mm
; solid infill extrusion width = 0.46mm
; top infill extrusion width = 0.44mm
; first layer extrusion width = 0.57mm

; external perimeters extrusion width = 0.44mm
; perimeters extrusion width = 0.46mm
; infill extrusion width = 0.44mm
; solid infill extrusion width = 0.46mm
; top infill extrusion width = 0.44mm
; first layer extrusion width = 0.57mm

; external perimeters extrusion width = 0.44mm
; perimeters extrusion width = 0.46mm
; infill extrusion width = 0.44mm
; solid infill extrusion width = 0.46mm
; top infill extrusion width = 0.44mm
; first layer extrusion width = 0.57mm

; object:{"name":"filament_flow_test","id":"filament_flow_test id:0 copy 0","object_center":[84.799999,44.099998,0.000000],"boundingbox_center":[84.799999,44.099998,0.725000],"boundingbox_size":[20.000000,20.000000,1.450000]}
EXCLUDE_OBJECT_DEFINE NAME=filament_flow_test_id_0_copy_0 CENTER=84.799999,44.099998 POLYGON=[[74.800000,34.100000],[84.800000,34.100000],[94.800000,36.600000],[94.800000,51.600000],[84.800000,54.100000],[74.800000,54.100000],[74.800000,34.100000]]
; object:{"name":"filament_flow_test","id":"filament_flow_test id:1 copy 0","object_center":[84.799999,115.500000,0.000000],"boundingbox_center":[84.799999,115.500000,0.725000],"boundingbox_size":[20.000000,20.000000,1.450000]}
EXCLUDE_OBJECT_DEFINE NAME=filament_flow_test_id_1_copy_0 CENTER=84.799999,115.500000 POLYGON=[[74.800000,105.500000],[84.800000,105.500000],[94.800000,108.000000],[94.800000,123.000000],[84.800000,125.500000],[74.800000,125.500000],[74.800000,105.500000]]
; object:{"name":"filament_flow_test","id":"filament_flow_test id:2 copy 0","object_center":[84.799999,186.900002,0.000000],"boundingbox_center":[84.799999,186.900002,0.725000],"boundingbox_size":[20.000000,20.000000,1.450000]}
EXCLUDE_OBJECT_DEFINE NAME=filament_flow_test_id_2_copy_0 CENTER=84.799999,186.900002 POLYGON=[[74.800000,176.900000],[84.800000,176.900000],[94.800000,179.400000],[94.800000,194.400000],[84.800000,196.900000],[74.800000,196.900000],[74.800000,176.900000]]
; object:{"name":"filament_flow_test","id":"filament_flow_test id:3 copy 0","object_center":[156.200001,44.099998,0.000000],"boundingbox_center":[156.200001,44.099998,0.725000],"boundingbox_size":[20.000000,20.000000,1.450000]}
EXCLUDE_OBJECT_DEFINE NAME=filament_flow_test_id_3_copy_0 CENTER=156.200001,44.099998 POLYGON=[[146.200000,34.100000],[156.200000,34.100000],[166.200000,36.600000],[166.200000,51.600000],[156.200000,54.100000],[146.200000,54.100000],[146.200000,34.100000]]
; object:{"name":"filament_flow_test","id":"filament_flow_test id:4 copy 0","object_center":[156.200001,186.900002,0.000000],"boundingbox_center":[156.200001,186.900002,0.725000],"boundingbox_size":[20.000000,20.000000,1.450000]}
EXCLUDE_OBJECT_DEFINE NAME=filament_flow_test_id_4_copy_0 CENTER=156.200001,186.900002 POLYGON=[[146.200000,176.900000],[156.200000,176.900000],[166.200000,179.400000],[166.200000,194.400000],[156.200000,196.900000],[146.200000,196.900000],[146.200000,176.900000]]
; plater:{"center":[120.500000,115.500000,0.000000],"boundingbox_center":[120.500000,115.500000,0.725000],"boundingbox_size":[91.400002,162.800003,1.450000]}

;TYPE:Custom
SET_PRINT_STATS_INFO TOTAL_LAYER=35

PRINT_START BED=60 EXTRUDER=210 CHAMBER=0 SIZE=70.2868_29.5868_170.713_201.413 MATERIAL=PLA
; Filament gcode
SET_PRESSURE_ADVANCE ADVANCE=0.08
;_TOOLCHANGE 0
M107
;LAYER_CHANGE
;Z:0.24
;HEIGHT:0.24

G1 E-0.8 F2100
G1 Z0.4 F18000
SET_PRINT_STATS_INFO CURRENT_LAYER=1

G92 E0
G1 Z0.64
M204 S1000
G1 X70.681 Y31.259
G1 Z0.24
G1 E0.8 F2100
;TYPE:Skirt
;WIDTH:0.48
G1 F1200
G1 X70.287 Y32.8 E0.86801
G1 X70.287 Y198.2 E7.93977
G1 X70.795 Y199.935 E8.01705
G1 X71.959 Y201.019 E8.08506
G1 X73.5 Y201.413 E8.15308
G1 X157.5 Y201.413 E11.74454
G1 X158.279 Y201.317 E11.77811
G1 X168.279 Y198.817 E12.21882
G1 X169.235 Y198.405 E12.26331
G1 X170.319 Y197.241 E12.33132
G1 X170.713 Y195.7 E12.39934
G1 X170.713 Y35.3 E19.25731
G1 X170.545 Y34.273 E19.3018
G1 X169.679 Y32.939 E19.36982
G1 X168.279 Y32.183 E19.43783
G1 X158.279 Y29.683 E19.87854
G1 X157.5 Y29.587 E19.91211
G1 X73.5 Y29.587 E23.50357
G1 X71.765 Y30.095 E23.58086
G1 X70.722 Y31.215 E23.6463
G92 E0
;WIPE_START
G1 F14400
G1 X71.765 Y30.095 E-0.21208
G1 X73.5 Y29.587 E-0.4625
G1 X75.647 Y29.587 E-0.76
;WIPE_END
G1 E-0.8 F2100
G1 Z0.64 F18000
; acceleration to travel
M204 S1500
G1 X132.252 Y147.801
; decel to extrusion
M204 S1000
G1 X145.898 Y176.299
; end travel
G1 Z0.24
G1 E0 F2100
;WIDTH:0.57365
;HEIGHT:0.25
G1 F1200
G1 X146.089 Y176.22 E0.01118
G1 X156.311 Y176.22 E0.56367
G1 X156.502 Y176.299 E0.57485
G1 X156.801 Y176.598 E0.59767
G1 X156.88 Y176.789 E0.60886
G1 X156.88 Y178.72 E0.71323
G1 X166.311 Y178.72 E1.22296
G1 X166.502 Y178.799 E1.23414
G1 X166.801 Y179.098 E1.25696
G1 X166.88 Y179.289 E1.26814
G1 X166.88 Y194.511 E2.09087
G1 X166.801 Y194.702 E2.10205
G1 X166.502 Y195.001 E2.12488
G1 X166.311 Y195.08 E2.13606
G1 X156.88 Y195.08 E2.64579
G1 X156.88 Y197.011 E2.75016
G1 X156.801 Y197.202 E2.76134
G1 X156.502 Y197.501 E2.78416
G1 X156.311 Y197.58 E2.79534
G1 X146.089 Y197.58 E3.34784
G1 X145.898 Y197.501 E3.35902
G1 X145.599 Y197.202 E3.38184
G1 X145.52 Y197.011 E3.39302
G1 X145.52 Y176.789 E4.48599
G1 X145.599 Y176.598 E4.49717
G1 X145.855 Y176.342 E4.51675
G1 X146.192 Y176.74 F18000
G1 F1200
G1 X156.208 Y176.74 E5.05806
G1 X156.36 Y176.892 E5.0697
G1 X156.36 Y179.24 E5.19659
G1 X166.208 Y179.24 E5.72883
G1 X166.36 Y179.392 E5.74047
G1 X166.36 Y194.408 E6.55202
G1 X166.208 Y194.56 E6.56366
G1 X156.36 Y194.56 E7.09591
G1 X156.36 Y196.908 E7.2228
G1 X156.208 Y197.06 E7.23444
G1 X146.192 Y197.06 E7.77575
G1 X146.04 Y196.908 E7.78739
G1 X146.04 Y176.892 E8.86918
G1 X146.15 Y176.782 E8.87757
G92 E0
;WIPE_START
G1 F14400
G1 X146.04 Y176.892 E-0.02153
G1 X146.04 Y182.223 E-0.76
;WIPE_END
G1 E-0.8 F2100
G1 Z0.64 F18000
; acceleration to travel
M204 S1500
G1 X105.301 Y179.859
; decel to extrusion
M204 S1000
G1 X95.48 Y179.289
; end travel
G1 Z0.24
G1 E0 F2100
G1 F1200
G1 X95.48 Y194.511 E0.82273
G1 X95.401 Y194.702 E0.83391
G1 X95.102 Y195.001 E0.85673
G1 X94.911 Y195.08 E0.86791
G1 X85.48 Y195.08 E1.37764
G1 X85.48 Y197.011 E1.48202
G1 X85.401 Y197.202 E1.4932
G1 X85.102 Y197.501 E1.51602
G1 X84.911 Y197.58 E1.5272
G1 X74.689 Y197.58 E2.07969
G1 X74.498 Y197.501 E2.09087
G1 X74.199 Y197.202 E2.1137
G1 X74.12 Y197.011 E2.12488
G1 X74.12 Y176.789 E3.21784
G1 X74.199 Y176.598 E3.22902
G1 X74.498 Y176.299 E3.25185
G1 X74.689 Y176.22 E3.26303
G1 X84.911 Y176.22 E3.81552
G1 X85.102 Y176.299 E3.8267
G1 X85.401 Y176.598 E3.84952
G1 X85.48 Y176.789 E3.8607
G1 X85.48 Y178.72 E3.96508
G1 X94.911 Y178.72 E4.47481
G1 X95.102 Y178.799 E4.48599
G1 X95.401 Y179.098 E4.50881
G1 X95.457 Y179.233 E4.51675
G1 X94.96 Y179.392 F18000
G1 F1200
G1 X94.96 Y194.408 E5.3283
G1 X94.808 Y194.56 E5.33994
G1 X84.96 Y194.56 E5.87218
G1 X84.96 Y196.908 E5.99907
G1 X84.808 Y197.06 E6.01071
G1 X74.792 Y197.06 E6.55202
G1 X74.64 Y196.908 E6.56366
G1 X74.64 Y176.892 E7.64545
G1 X74.792 Y176.74 E7.65709
G1 X84.808 Y176.74 E8.1984
G1 X84.96 Y176.892 E8.21004
G1 X84.96 Y179.24 E8.33693
G1 X94.808 Y179.24 E8.86918
G1 X94.918 Y179.35 E8.87757
G92 E0
;WIPE_START
G1 F14400
G1 X94.808 Y179.24 E-0.02153
G1 X89.477 Y179.24 E-0.76
;WIPE_END
G1 E-0.8 F2100
G1 Z0.64 F18000
; acceleration to travel
M204 S1500
G1 X85.798 Y136.487
; decel to extrusion
M204 S1000
G1 X84.911 Y126.18
; end travel
G1 Z0.24
G1 E0 F2100
G1 F1200
G1 X74.689 Y126.18 E0.55249
G1 X74.498 Y126.101 E0.56367
G1 X74.199 Y125.802 E0.58649
G1 X74.12 Y125.611 E0.59767
G1 X74.12 Y105.389 E1.69064
G1 X74.199 Y105.198 E1.70182
G1 X74.498 Y104.899 E1.72465
G1 X74.689 Y104.82 E1.73583
G1 X84.911 Y104.82 E2.28832
G1 X85.102 Y104.899 E2.2995
G1 X85.401 Y105.198 E2.32232
G1 X85.48 Y105.389 E2.3335
G1 X85.48 Y107.32 E2.43787
G1 X94.911 Y107.32 E2.94761
G1 X95.102 Y107.399 E2.95879
G1 X95.401 Y107.698 E2.98161
G1 X95.48 Y107.889 E2.99279
G1 X95.48 Y123.111 E3.81552
G1 X95.401 Y123.302 E3.8267
G1 X95.102 Y123.601 E3.84952
G1 X94.911 Y123.68 E3.8607
G1 X85.48 Y123.68 E4.37043
G1 X85.48 Y125.611 E4.47481
G1 X85.401 Y125.802 E4.48599
G1 X85.102 Y126.101 E4.50881
G1 X84.967 Y126.157 E4.51675
G1 X84.808 Y125.66 F18000
G1 F1200
G1 X74.792 Y125.66 E5.05806
G1 X74.64 Y125.508 E5.0697
G1 X74.64 Y105.492 E6.15149
G1 X74.792 Y105.34 E6.16313
G1 X84.808 Y105.34 E6.70444
G1 X84.96 Y105.492 E6.71608
G1 X84.96 Y107.84 E6.84297
G1 X94.808 Y107.84 E7.37521
G1 X94.96 Y107.992 E7.38685
G1 X94.96 Y123.008 E8.1984
G1 X94.808 Y123.16 E8.21004
G1 X84.96 Y123.16 E8.74229
G1 X84.96 Y125.508 E8.86918
G1 X84.85 Y125.618 E8.87757
G92 E0
;WIPE_START
G1 F14400
G1 X84.96 Y125.508 E-0.02153
G1 X84.96 Y123.16 E-0.34678
G1 X87.943 Y123.16 E-0.76
;WIPE_END
G1 E-0.8 F2100
G1 Z0.64 F18000
; acceleration to travel
M204 S1500
G1 X134.64 Y67.999
; decel to extrusion
M204 S1000
G1 X145.898 Y54.701
; end travel
G1 Z0.24
G1 E0 F2100
G1 F1200
G1 X145.599 Y54.402 E0.02282
G1 X145.52 Y54.211 E0.034
G1 X145.52 Y33.989 E1.12697
G1 X145.599 Y33.798 E1.13815
G1 X145.898 Y33.499 E1.16097
G1 X146.089 Y33.42 E1.17215
G1 X156.311 Y33.42 E1.72465
G1 X156.502 Y33.499 E1.73583
G1 X156.801 Y33.798 E1.75865
G1 X156.88 Y33.989 E1.76983
G1 X156.88 Y35.92 E1.8742
G1 X166.311 Y35.92 E2.38393
G1 X166.502 Y35.999 E2.39511
G1 X166.801 Y36.298 E2.41794
G1 X166.88 Y36.489 E2.42912
G1 X166.88 Y51.711 E3.25185
G1 X166.801 Y51.902 E3.26303
G1 X166.502 Y52.201 E3.28585
G1 X166.311 Y52.28 E3.29703
G1 X156.88 Y52.28 E3.80676
G1 X156.88 Y54.211 E3.91113
G1 X156.801 Y54.402 E3.92232
G1 X156.502 Y54.701 E3.94514
G1 X156.311 Y54.78 E3.95632
G1 X146.089 Y54.78 E4.50881
G1 X145.953 Y54.724 E4.51675
G1 X146.192 Y54.26 F18000
G1 F1200
G1 X146.04 Y54.108 E4.52839
G1 X146.04 Y34.092 E5.61018
G1 X146.192 Y33.94 E5.62182
G1 X156.208 Y33.94 E6.16313
G1 X156.36 Y34.092 E6.17477
G1 X156.36 Y36.44 E6.30166
G1 X166.208 Y36.44 E6.8339
G1 X166.36 Y36.592 E6.84554
G1 X166.36 Y51.608 E7.65709
G1 X166.208 Y51.76 E7.66873
G1 X156.36 Y51.76 E8.20098
G1 X156.36 Y54.108 E8.32787
G1 X156.208 Y54.26 E8.33951
G1 X146.252 Y54.26 E8.87757
G92 E0
;WIPE_START
G1 F14400
G1 X151.738 Y54.26 E-0.76
;WIPE_END
G1 E-0.8 F2100
G1 Z0.64 F18000
; acceleration to travel
M204 S1500
G1 X106.408 Y52.206
; decel to extrusion
M204 S1000
G1 X95.48 Y51.711
; end travel
G1 Z0.24
G1 E0 F2100
G1 F1200
G1 X95.401 Y51.902 E0.01118
G1 X95.102 Y52.201 E0.034
G1 X94.911 Y52.28 E0.04518
G1 X85.48 Y52.28 E0.55491
G1 X85.48 Y54.211 E0.65929
G1 X85.401 Y54.402 E0.67047
G1 X85.102 Y54.701 E0.69329
G1 X84.911 Y54.78 E0.70447
G1 X74.689 Y54.78 E1.25696
G1 X74.498 Y54.701 E1.26814
G1 X74.199 Y54.402 E1.29097
G1 X74.12 Y54.211 E1.30215
G1 X74.12 Y33.989 E2.39511
G1 X74.199 Y33.798 E2.40629
G1 X74.498 Y33.499 E2.42912
G1 X74.689 Y33.42 E2.4403
G1 X84.911 Y33.42 E2.99279
G1 X85.102 Y33.499 E3.00397
G1 X85.401 Y33.798 E3.02679
G1 X85.48 Y33.989 E3.03797
G1 X85.48 Y35.92 E3.14235
G1 X94.911 Y35.92 E3.65208
G1 X95.102 Y35.999 E3.66326
G1 X95.401 Y36.298 E3.68608
G1 X95.48 Y36.489 E3.69726
G1 X95.48 Y51.651 E4.51675
G1 X94.96 Y51.608 F18000
G1 F1200
G1 X94.808 Y51.76 E4.52839
G1 X84.96 Y51.76 E5.06063
G1 X84.96 Y54.108 E5.18752
G1 X84.808 Y54.26 E5.19916
G1 X74.792 Y54.26 E5.74047
G1 X74.64 Y54.108 E5.75211
G1 X74.64 Y34.092 E6.8339
G1 X74.792 Y33.94 E6.84554
G1 X84.808 Y33.94 E7.38685
G1 X84.96 Y34.092 E7.39849
G1 X84.96 Y36.44 E7.52538
G1 X94.808 Y36.44 E8.05763
G1 X94.96 Y36.592 E8.06927
G1 X94.96 Y51.548 E8.87757
M104 S210 ; set temperature
G92 E0
;WIPE_START
G1 F14400
G1 X94.96 Y46.062 E-0.76
;WIPE_END
G1 E-0.8 F2100
G1 Z0.64 F18000
; printing object filament_flow_test id:0 copy 0
EXCLUDE_OBJECT_START NAME=filament_flow_test_id_0_copy_0
; acceleration to travel
M204 S1500
G1 X86.463 Y50.213
; decel to extrusion
M204 S1000
G1 X84.414 Y51.214
; end travel
G1 Z0.24
G1 E0 F2100
;TYPE:External perimeter
;WIDTH:0.571504
;HEIGHT:0.24
G1 F1200
G1 X84.414 Y53.714 E0.11934
G1 X75.186 Y53.714 E0.55986
G1 X75.186 Y34.486 E1.47773
G1 X84.414 Y34.486 E1.91825
G1 X84.414 Y36.986 E2.03759
G1 X94.414 Y36.986 E2.51494
G1 X94.414 Y51.214 E3.19414
G1 X84.474 Y51.214 E3.66862
;WIPE_START
G1 X84.014 Y51.214 F18000
;WIPE_END
G1 X83.894 Y50.694
;TYPE:Internal perimeter
G1 F1200
G1 X83.894 Y53.194 E3.78796
G1 X75.706 Y53.194 E4.17884
G1 X75.706 Y35.006 E5.04706
G1 X83.894 Y35.006 E5.43794
G1 X83.894 Y37.506 E5.55728
G1 X93.894 Y37.506 E6.03463
G1 X93.894 Y50.694 E6.66418
G1 X83.954 Y50.694 E7.13866
G1 X83.374 Y50.174 F18000
G1 F1200
G1 X83.374 Y52.674 E7.258
G1 X76.226 Y52.674 E7.59923
G1 X76.226 Y35.526 E8.41782
G1 X83.374 Y35.526 E8.75905
G1 X83.374 Y38.026 E8.87839
G1 X93.374 Y38.026 E9.35574
G1 X93.374 Y50.174 E9.93565
G1 X83.434 Y50.174 E10.41013
G92 E0
;WIPE_START
G1 F14400
G1 X88.92 Y50.174 E-0.76
;WIPE_END
G1 E-0.8 F2100
G1 Z0.64 F18000
; acceleration to travel
M204 S1500
G1 X91.536 Y40.511
; decel to extrusion
M204 S1000
G1 X92.167 Y38.182
; end travel
G1 Z0.24
G1 E0 F2100
;TYPE:Solid infill
;WIDTH:0.566949
G1 F1200
G1 X92.995 Y39.009 E0.05542
G1 X92.995 Y39.745 E0.09024
G1 X91.655 Y38.405 E0.17994
G1 X90.92 Y38.405 E0.21476
G1 X92.995 Y40.48 E0.35371
G1 X92.995 Y41.215 E0.38853
G1 X90.185 Y38.405 E0.57672
G1 X89.449 Y38.405 E0.61155
G1 X92.995 Y41.951 E0.84899
G1 X92.995 Y42.686 E0.88381
G1 X88.714 Y38.405 E1.1705
G1 X87.978 Y38.405 E1.20533
G1 X92.995 Y43.422 E1.54126
G1 X92.995 Y44.157 E1.57609
G1 X87.243 Y38.405 E1.96127
G1 X86.508 Y38.405 E1.9961
G1 X92.995 Y44.892 E2.43053
G1 X92.995 Y45.628 E2.46536
G1 X85.772 Y38.405 E2.94904
G1 X85.037 Y38.405 E2.98386
G1 X92.995 Y46.363 E3.51679
G1 X92.995 Y47.099 E3.55162
G1 X84.078 Y38.182 E4.14877
G92 E0
;WIPE_START
G1 F14400
G1 X87.957 Y42.061 E-0.76
;WIPE_END
G1 E-0.8 F2100
G1 Z0.64 F18000
; acceleration to travel
M204 S1500
G1 X84.139 Y37.65
; decel to extrusion
M204 S1000
G1 X83.218 Y36.587
; end travel
G1 Z0.24
G1 E0 F2100
G1 F1200
G1 X82.537 Y35.905 E0.04564
G1 X81.801 Y35.905 E0.08046
G1 X83.218 Y37.322 E0.17535
G92 E0
;WIPE_START
G1 F14400
G1 X81.801 Y35.905 E-0.2776
G1 X82.537 Y35.905 E-0.37948
G1 X83.218 Y36.587 E-0.513
;WIPE_END
G1 E-0.8 F2100
G1 Z0.64 F18000
G1 X80.842 Y35.682
G1 Z0.24
G1 E0 F2100
G1 F1200
G1 X82.995 Y37.834 E0.14413
G1 X82.995 Y38.405 E0.17119
G1 X83.566 Y38.405 E0.19825
G1 X92.995 Y47.834 E0.82968
G1 X92.995 Y48.569 E0.8645
G1 X80.331 Y35.905 E1.7126
G1 X79.595 Y35.905 E1.74742
G1 X92.995 Y49.305 E2.64477
G1 X92.995 Y49.795 E2.66797
G1 X92.749 Y49.795 E2.6796
G1 X78.86 Y35.905 E3.60976
G1 X78.124 Y35.905 E3.64458
G1 X92.014 Y49.795 E4.57474
G1 X91.278 Y49.795 E4.60956
G1 X77.389 Y35.905 E5.53972
G1 X76.654 Y35.905 E5.57455
G1 X90.543 Y49.795 E6.50471
G1 X89.808 Y49.795 E6.53953
G1 X76.605 Y36.592 E7.42368
G1 X76.605 Y37.328 E7.45851
G1 X89.072 Y49.795 E8.29341
G1 X88.337 Y49.795 E8.32823
G1 X76.605 Y38.063 E9.11389
G1 X76.605 Y38.799 E9.14871
G1 X87.601 Y49.795 E9.88511
G1 X86.866 Y49.795 E9.91994
G1 X76.605 Y39.534 E10.60709
G1 X76.605 Y40.269 E10.64192
G1 X86.131 Y49.795 E11.27983
G1 X85.395 Y49.795 E11.31465
G1 X76.605 Y41.005 E11.90331
G1 X76.605 Y41.74 E11.93813
G1 X84.66 Y49.795 E12.47755
G1 X83.925 Y49.795 E12.51237
G1 X76.605 Y42.475 E13.00253
G1 X76.605 Y43.211 E13.03736
G1 X83.189 Y49.795 E13.47827
G1 X82.995 Y49.795 E13.48748
G1 X82.995 Y50.336 E13.51309
G1 X76.605 Y43.946 E13.94098
G1 X76.605 Y44.682 E13.97581
G1 X82.995 Y51.071 E14.4037
G1 X82.995 Y51.806 E14.43852
