
; ### Ellis' Pressure Advance / Linear Advance Calibration Tool ###
;
; Original Marlin linear advance calibration tool by Sineos [https://github.com/Sineos]
; Heavily modified/rewritten by Andrew Ellis [https://github.com/AndrewEllis93]
;
; -------------------------------------------
; Generated: Sun Oct 08 2023 23:18:56 GMT-0300 (Chile Summer Time)
; -------------------------------------------
;
; Advanced Mode: false
;
; Printer:
;  - Firmware: klipper
;  - Bed Shape: Rect
;  - Bed Size X: 220 mm
;  - Bed Size Y: 220 mm
;  - Origin Bed Center: false
;  - Travel Speed: 120 mm/s
;  - Nozzle Diameter: 0.4 mm
;  - Filament Diameter: 1.75 mm
;  - Extrusion Multiplier: 1
;
; Retraction / Z Hop:
;  - Retraction Distance: 0.8 mm
;  - Retract Speed: 35 mm/s
;  - Unretract Speed: 35 mm/s
;  - Z Hop Enable: true
;  - Z Hop Height: 0.4mm
;
; First Layer Settings:
;  - First Layer Height: 0.25 mm
;  - First Layer Printing Speed: 30 mm/s
;  - First Layer Fan Speed: 0%
;  - Anchor Option: anchor_frame
;
; Print Settings:
;  - Layer Height: 0.2 mm
;  - Print Speed: 100 mm/s
;  - Acceleration: 500 mm/s^2
;  - Fan Speed: 100%
;
; Pressure Advance Stepping:
;  - PA Start Value: 0.05
;  - PA End Value: 0.15
;  - PA Increment: 0.005
;
; Start / End G-code:
;  - Hotend Temp: 200C
;  - Bed Temp: 60C
;  - Don't Add G28: true
;  - Don't Add Heating G-Codes: true
;
; Calculated Values:
;  - Print Size X: 99.12 mm
;  - Print Size Y: 53.99 mm
;  - Number of Patterns to Print: 21
;  - PA Values: 0.05, 0.055, 0.06, 0.065, 0.07, 0.075, 0.08, 0.085, 0.09, 0.095, 0.1, 0.105, 0.11, 0.115, 0.12, 0.125, 0.13, 0.135, 0.14, 0.145, 0.15
;
; Prepare printing
;
PRINT_START BED=60 EXTRUDER=200 CHAMBER=0 SIZE={first_layer_print_min[0]}_{first_layer_print_min[1]}_{first_layer_print_max[0]}_{first_layer_print_max[1]} MATERIAL={filament_type}
G21 ; Millimeter units
G90 ; Absolute XYZ
M83 ; Relative E
G92 E0 ; Reset extruder distance
;
;  Begin printing
;
M106 S0 ; Set fan speed
SET_VELOCITY_LIMIT ACCEL=500 ; Set printing acceleration
G1 E-0.8 F2100 ; Retract
G0 Z5 F7200 ; Z raise
G0 X60.4389 Y83.0068 F7200 ; Move to start position
G0 Z0.25 F7200 ; Move to start layer height
G1 E0.8 F2100 ; Un-retract
SET_PRESSURE_ADVANCE ADVANCE=0.05 ; Set pressure advance to start value
M117 PA 0.05
G1 X60.4389 Y125.4332 E2.23286 F1800 ; Draw perimeter (up)
G1 X159.5611 Y125.4332 E5.21669 F1800 ; Draw perimeter (right)
G1 X159.5611 Y83.0068 E2.23286 F1800 ; Draw perimeter (down)
G1 X60.4389 Y83.0068 E5.21669 F1800 ; Draw perimeter (left)
G0 X60.9452 Y83.5131 F7200 ; Step inwards to print next perimeter
G1 X60.9452 Y124.9269 E2.17956 F1800 ; Draw perimeter (up)
G1 X159.0548 Y124.9269 E5.1634 F1800 ; Draw perimeter (right)
G1 X159.0548 Y83.5131 E2.17956 F1800 ; Draw perimeter (down)
G1 X60.9452 Y83.5131 E5.1634 F1800 ; Draw perimeter (left)
G0 X61.4516 Y84.0195 F7200 ; Step inwards to print next perimeter
G1 X61.4516 Y124.4205 E2.12626 F1800 ; Draw perimeter (up)
G1 X158.5484 Y124.4205 E5.1101 F1800 ; Draw perimeter (right)
G1 X158.5484 Y84.0195 E2.12626 F1800 ; Draw perimeter (down)
G1 X61.4516 Y84.0195 E5.1101 F1800 ; Draw perimeter (left)
G0 X61.9579 Y84.5258 F7200 ; Step inwards to print next perimeter
G1 X61.9579 Y123.9142 E2.07296 F1800 ; Draw perimeter (up)
G1 X158.0421 Y123.9142 E5.0568 F1800 ; Draw perimeter (right)
G1 X158.0421 Y84.5258 E2.07296 F1800 ; Draw perimeter (down)
G1 X61.9579 Y84.5258 E5.0568 F1800 ; Draw perimeter (left)
G1 E-0.8 F2100 ; Retract
G1 Z0.65 F7200 ; Z hop
G0 X60.4389 Y125.9396 F7200 ; Move to box start
G1 Z0.25 F7200 ; Z hop return
G1 E0.8 F2100 ; Un-retract
G1 X60.4389 Y137.4459 E0.60557 F1800 ; Draw perimeter (up)
G1 X139.099 Y137.4459 E4.13979 F1800 ; Draw perimeter (right)
G1 X139.099 Y125.9396 E0.60557 F1800 ; Draw perimeter (down)
G1 X60.4389 Y125.9396 E4.13979 F1800 ; Draw perimeter (left)
G0 X60.9452 Y126.4459 F7200 ; Step inwards to print next perimeter
G1 X60.9452 Y136.9396 E0.55227 F1800 ; Draw perimeter (up)
G1 X138.5926 Y136.9396 E4.0865 F1800 ; Draw perimeter (right)
G1 X138.5926 Y126.4459 E0.55227 F1800 ; Draw perimeter (down)
G1 X60.9452 Y126.4459 E4.0865 F1800 ; Draw perimeter (left)
G0 X61.4516 Y126.9523 F7200 ; Step inwards to print next perimeter
G1 X61.4516 Y136.4332 E0.49897 F1800 ; Draw perimeter (up)
G1 X138.0863 Y136.4332 E4.0332 F1800 ; Draw perimeter (right)
G1 X138.0863 Y126.9523 E0.49897 F1800 ; Draw perimeter (down)
G1 X61.4516 Y126.9523 E4.0332 F1800 ; Draw perimeter (left)
G0 X61.9579 Y127.4586 F7200 ; Step inwards to print next perimeter
G1 X61.9579 Y135.9269 E0.44567 F1800 ; Draw perimeter (up)
G1 X137.5799 Y135.9269 E3.9799 F1800 ; Draw perimeter (right)
G1 X137.5799 Y127.4586 E0.44567 F1800 ; Draw perimeter (down)
G1 X61.9579 Y127.4586 E3.9799 F1800 ; Draw perimeter (left)
G0 X62.3313 Y127.8319 F7200 ; Move to fill start
G0 X63.0474 Y127.8319 F7200 ; Move
G1 X62.3313 Y128.548 E0.0533 F1800 ; Fill
G0 X62.3313 Y129.2641 F7200 ; Move
G1 X63.7635 Y127.8319 E0.10659 F1800 ; Fill
G0 X64.4795 Y127.8319 F7200 ; Move
G1 X62.3313 Y129.9802 E0.15989 F1800 ; Fill
G0 X62.3313 Y130.6963 F7200 ; Move
G1 X65.1956 Y127.8319 E0.21319 F1800 ; Fill
G0 X65.9117 Y127.8319 F7200 ; Move
G1 X62.3313 Y131.4124 E0.26649 F1800 ; Fill
G0 X62.3313 Y132.1285 F7200 ; Move
G1 X66.6278 Y127.8319 E0.31978 F1800 ; Fill
G0 X67.3439 Y127.8319 F7200 ; Move
G1 X62.3313 Y132.8445 E0.37308 F1800 ; Fill
G0 X62.3313 Y133.5606 F7200 ; Move
G1 X68.06 Y127.8319 E0.42638 F1800 ; Fill
G0 X68.7761 Y127.8319 F7200 ; Move
G1 X62.3313 Y134.2767 E0.47968 F1800 ; Fill
G0 X62.3313 Y134.9928 F7200 ; Move
G1 X69.4921 Y127.8319 E0.53297 F1800 ; Fill
G0 X70.2082 Y127.8319 F7200 ; Move
G1 X62.4866 Y135.5535 E0.57471 F1800 ; Fill
G0 X63.2027 Y135.5535 F7200 ; Move
G1 X70.9243 Y127.8319 E0.57471 F1800 ; Fill
G0 X71.6404 Y127.8319 F7200 ; Move
G1 X63.9188 Y135.5535 E0.57471 F1800 ; Fill
G0 X64.6349 Y135.5535 F7200 ; Move
G1 X72.3565 Y127.8319 E0.57471 F1800 ; Fill
G0 X73.0726 Y127.8319 F7200 ; Move
G1 X65.351 Y135.5535 E0.57471 F1800 ; Fill
G0 X66.0671 Y135.5535 F7200 ; Move
G1 X73.7887 Y127.8319 E0.57471 F1800 ; Fill
G0 X74.5048 Y127.8319 F7200 ; Move
G1 X66.7832 Y135.5535 E0.57471 F1800 ; Fill
G0 X67.4993 Y135.5535 F7200 ; Move
G1 X75.2208 Y127.8319 E0.57471 F1800 ; Fill
G0 X75.9369 Y127.8319 F7200 ; Move
G1 X68.2153 Y135.5535 E0.57471 F1800 ; Fill
G0 X68.9314 Y135.5535 F7200 ; Move
G1 X76.653 Y127.8319 E0.57471 F1800 ; Fill
G0 X77.3691 Y127.8319 F7200 ; Move
G1 X69.6475 Y135.5535 E0.57471 F1800 ; Fill
G0 X70.3636 Y135.5535 F7200 ; Move
G1 X78.0852 Y127.8319 E0.57471 F1800 ; Fill
G0 X78.8013 Y127.8319 F7200 ; Move
G1 X71.0797 Y135.5535 E0.57471 F1800 ; Fill
G0 X71.7958 Y135.5535 F7200 ; Move
G1 X79.5174 Y127.8319 E0.57471 F1800 ; Fill
G0 X80.2334 Y127.8319 F7200 ; Move
G1 X72.5119 Y135.5535 E0.57471 F1800 ; Fill
G0 X73.2279 Y135.5535 F7200 ; Move
G1 X80.9495 Y127.8319 E0.57471 F1800 ; Fill
G0 X81.6656 Y127.8319 F7200 ; Move
G1 X73.944 Y135.5535 E0.57471 F1800 ; Fill
G0 X74.6601 Y135.5535 F7200 ; Move
G1 X82.3817 Y127.8319 E0.57471 F1800 ; Fill
G0 X83.0978 Y127.8319 F7200 ; Move
G1 X75.3762 Y135.5535 E0.57471 F1800 ; Fill
G0 X76.0923 Y135.5535 F7200 ; Move
G1 X83.8139 Y127.8319 E0.57471 F1800 ; Fill
G0 X84.53 Y127.8319 F7200 ; Move
G1 X76.8084 Y135.5535 E0.57471 F1800 ; Fill
G0 X77.5245 Y135.5535 F7200 ; Move
G1 X85.246 Y127.8319 E0.57471 F1800 ; Fill
G0 X85.9621 Y127.8319 F7200 ; Move
G1 X78.2405 Y135.5535 E0.57471 F1800 ; Fill
G0 X78.9566 Y135.5535 F7200 ; Move
G1 X86.6782 Y127.8319 E0.57471 F1800 ; Fill
G0 X87.3943 Y127.8319 F7200 ; Move
G1 X79.6727 Y135.5535 E0.57471 F1800 ; Fill
G0 X80.3888 Y135.5535 F7200 ; Move
G1 X88.1104 Y127.8319 E0.57471 F1800 ; Fill
G0 X88.8265 Y127.8319 F7200 ; Move
G1 X81.1049 Y135.5535 E0.57471 F1800 ; Fill
G0 X81.821 Y135.5535 F7200 ; Move
G1 X89.5426 Y127.8319 E0.57471 F1800 ; Fill
G0 X90.2587 Y127.8319 F7200 ; Move
G1 X82.5371 Y135.5535 E0.57471 F1800 ; Fill
G0 X83.2532 Y135.5535 F7200 ; Move
G1 X90.9747 Y127.8319 E0.57471 F1800 ; Fill
G0 X91.6908 Y127.8319 F7200 ; Move
G1 X83.9692 Y135.5535 E0.57471 F1800 ; Fill
G0 X84.6853 Y135.5535 F7200 ; Move
G1 X92.4069 Y127.8319 E0.57471 F1800 ; Fill
G0 X93.123 Y127.8319 F7200 ; Move
G1 X85.4014 Y135.5535 E0.57471 F1800 ; Fill
G0 X86.1175 Y135.5535 F7200 ; Move
G1 X93.8391 Y127.8319 E0.57471 F1800 ; Fill
G0 X94.5552 Y127.8319 F7200 ; Move
G1 X86.8336 Y135.5535 E0.57471 F1800 ; Fill
G0 X87.5497 Y135.5535 F7200 ; Move
G1 X95.2713 Y127.8319 E0.57471 F1800 ; Fill
G0 X95.9873 Y127.8319 F7200 ; Move
G1 X88.2658 Y135.5535 E0.57471 F1800 ; Fill
G0 X88.9818 Y135.5535 F7200 ; Move
G1 X96.7034 Y127.8319 E0.57471 F1800 ; Fill
G0 X97.4195 Y127.8319 F7200 ; Move
G1 X89.6979 Y135.5535 E0.57471 F1800 ; Fill
G0 X90.414 Y135.5535 F7200 ; Move
G1 X98.1356 Y127.8319 E0.57471 F1800 ; Fill
G0 X98.8517 Y127.8319 F7200 ; Move
G1 X91.1301 Y135.5535 E0.57471 F1800 ; Fill
G0 X91.8462 Y135.5535 F7200 ; Move
G1 X99.5678 Y127.8319 E0.57471 F1800 ; Fill
G0 X100.2839 Y127.8319 F7200 ; Move
G1 X92.5623 Y135.5535 E0.57471 F1800 ; Fill
G0 X93.2784 Y135.5535 F7200 ; Move
G1 X100.9999 Y127.8319 E0.57471 F1800 ; Fill
G0 X101.716 Y127.8319 F7200 ; Move
G1 X93.9944 Y135.5535 E0.57471 F1800 ; Fill
G0 X94.7105 Y135.5535 F7200 ; Move
G1 X102.4321 Y127.8319 E0.57471 F1800 ; Fill
G0 X103.1482 Y127.8319 F7200 ; Move
G1 X95.4266 Y135.5535 E0.57471 F1800 ; Fill
G0 X96.1427 Y135.5535 F7200 ; Move
G1 X103.8643 Y127.8319 E0.57471 F1800 ; Fill
G0 X104.5804 Y127.8319 F7200 ; Move
G1 X96.8588 Y135.5535 E0.57471 F1800 ; Fill
G0 X97.5749 Y135.5535 F7200 ; Move
G1 X105.2965 Y127.8319 E0.57471 F1800 ; Fill
G0 X106.0126 Y127.8319 F7200 ; Move
G1 X98.291 Y135.5535 E0.57471 F1800 ; Fill
G0 X99.0071 Y135.5535 F7200 ; Move
G1 X106.7286 Y127.8319 E0.57471 F1800 ; Fill
G0 X107.4447 Y127.8319 F7200 ; Move
G1 X99.7231 Y135.5535 E0.57471 F1800 ; Fill
G0 X100.4392 Y135.5535 F7200 ; Move
G1 X108.1608 Y127.8319 E0.57471 F1800 ; Fill
G0 X108.8769 Y127.8319 F7200 ; Move
G1 X101.1553 Y135.5535 E0.57471 F1800 ; Fill
G0 X101.8714 Y135.5535 F7200 ; Move
G1 X109.593 Y127.8319 E0.57471 F1800 ; Fill
G0 X110.3091 Y127.8319 F7200 ; Move
G1 X102.5875 Y135.5535 E0.57471 F1800 ; Fill
G0 X103.3036 Y135.5535 F7200 ; Move
G1 X111.0252 Y127.8319 E0.57471 F1800 ; Fill
G0 X111.7412 Y127.8319 F7200 ; Move
G1 X104.0197 Y135.5535 E0.57471 F1800 ; Fill
G0 X104.7357 Y135.5535 F7200 ; Move
G1 X112.4573 Y127.8319 E0.57471 F1800 ; Fill
G0 X113.1734 Y127.8319 F7200 ; Move
G1 X105.4518 Y135.5535 E0.57471 F1800 ; Fill
G0 X106.1679 Y135.5535 F7200 ; Move
G1 X113.8895 Y127.8319 E0.57471 F1800 ; Fill
G0 X114.6056 Y127.8319 F7200 ; Move
G1 X106.884 Y135.5535 E0.57471 F1800 ; Fill
G0 X107.6001 Y135.5535 F7200 ; Move
G1 X115.3217 Y127.8319 E0.57471 F1800 ; Fill
G0 X116.0378 Y127.8319 F7200 ; Move
G1 X108.3162 Y135.5535 E0.57471 F1800 ; Fill
G0 X109.0323 Y135.5535 F7200 ; Move
G1 X116.7538 Y127.8319 E0.57471 F1800 ; Fill
G0 X117.4699 Y127.8319 F7200 ; Move
G1 X109.7483 Y135.5535 E0.57471 F1800 ; Fill
G0 X110.4644 Y135.5535 F7200 ; Move
G1 X118.186 Y127.8319 E0.57471 F1800 ; Fill
G0 X118.9021 Y127.8319 F7200 ; Move
G1 X111.1805 Y135.5535 E0.57471 F1800 ; Fill
G0 X111.8966 Y135.5535 F7200 ; Move
G1 X119.6182 Y127.8319 E0.57471 F1800 ; Fill
G0 X120.3343 Y127.8319 F7200 ; Move
G1 X112.6127 Y135.5535 E0.57471 F1800 ; Fill
G0 X113.3288 Y135.5535 F7200 ; Move
G1 X121.0504 Y127.8319 E0.57471 F1800 ; Fill
G0 X121.7665 Y127.8319 F7200 ; Move
G1 X114.0449 Y135.5535 E0.57471 F1800 ; Fill
G0 X114.761 Y135.5535 F7200 ; Move
G1 X122.4825 Y127.8319 E0.57471 F1800 ; Fill
G0 X123.1986 Y127.8319 F7200 ; Move
G1 X115.477 Y135.5535 E0.57471 F1800 ; Fill
G0 X116.1931 Y135.5535 F7200 ; Move
G1 X123.9147 Y127.8319 E0.57471 F1800 ; Fill
G0 X124.6308 Y127.8319 F7200 ; Move
G1 X116.9092 Y135.5535 E0.57471 F1800 ; Fill
G0 X117.6253 Y135.5535 F7200 ; Move
G1 X125.3469 Y127.8319 E0.57471 F1800 ; Fill
G0 X126.063 Y127.8319 F7200 ; Move
G1 X118.3414 Y135.5535 E0.57471 F1800 ; Fill
G0 X119.0575 Y135.5535 F7200 ; Move
G1 X126.7791 Y127.8319 E0.57471 F1800 ; Fill
G0 X127.4951 Y127.8319 F7200 ; Move
G1 X119.7736 Y135.5535 E0.57471 F1800 ; Fill
G0 X120.4896 Y135.5535 F7200 ; Move
G1 X128.2112 Y127.8319 E0.57471 F1800 ; Fill
G0 X128.9273 Y127.8319 F7200 ; Move
G1 X121.2057 Y135.5535 E0.57471 F1800 ; Fill
G0 X121.9218 Y135.5535 F7200 ; Move
G1 X129.6434 Y127.8319 E0.57471 F1800 ; Fill
G0 X130.3595 Y127.8319 F7200 ; Move
G1 X122.6379 Y135.5535 E0.57471 F1800 ; Fill
G0 X123.354 Y135.5535 F7200 ; Move
G1 X131.0756 Y127.8319 E0.57471 F1800 ; Fill
G0 X131.7917 Y127.8319 F7200 ; Move
G1 X124.0701 Y135.5535 E0.57471 F1800 ; Fill
G0 X124.7862 Y135.5535 F7200 ; Move
G1 X132.5077 Y127.8319 E0.57471 F1800 ; Fill
G0 X133.2238 Y127.8319 F7200 ; Move
G1 X125.5022 Y135.5535 E0.57471 F1800 ; Fill
G0 X126.2183 Y135.5535 F7200 ; Move
G1 X133.9399 Y127.8319 E0.57471 F1800 ; Fill
G0 X134.656 Y127.8319 F7200 ; Move
G1 X126.9344 Y135.5535 E0.57471 F1800 ; Fill
G0 X127.6505 Y135.5535 F7200 ; Move
G1 X135.3721 Y127.8319 E0.57471 F1800 ; Fill
G0 X136.0882 Y127.8319 F7200 ; Move
G1 X128.3666 Y135.5535 E0.57471 F1800 ; Fill
G0 X129.0827 Y135.5535 F7200 ; Move
G1 X136.8043 Y127.8319 E0.57471 F1800 ; Fill
G0 X137.2066 Y128.1457 F7200 ; Move
G1 X129.7988 Y135.5535 E0.55135 F1800 ; Fill
G0 X130.5149 Y135.5535 F7200 ; Move
G1 X137.2066 Y128.8618 E0.49805 F1800 ; Fill
G0 X137.2066 Y129.5779 F7200 ; Move
G1 X131.2309 Y135.5535 E0.44476 F1800 ; Fill
G0 X131.947 Y135.5535 F7200 ; Move
G1 X137.2066 Y130.294 E0.39146 F1800 ; Fill
G0 X137.2066 Y131.0101 F7200 ; Move
G1 X132.6631 Y135.5535 E0.33816 F1800 ; Fill
G0 X133.3792 Y135.5535 F7200 ; Move
G1 X137.2066 Y131.7262 E0.28487 F1800 ; Fill
G0 X137.2066 Y132.4422 F7200 ; Move
G1 X134.0953 Y135.5535 E0.23157 F1800 ; Fill
G0 X134.8114 Y135.5535 F7200 ; Move
G1 X137.2066 Y133.1583 E0.17827 F1800 ; Fill
G0 X137.2066 Y133.8744 F7200 ; Move
G1 X135.5275 Y135.5535 E0.12497 F1800 ; Fill
G0 X136.2435 Y135.5535 F7200 ; Move
G1 X137.2066 Y134.5905 E0.07168 F1800 ; Fill
G0 X137.2066 Y135.3066 F7200 ; Move
G1 X136.9596 Y135.5535 E0.01838 F1800 ; Fill
G0 Z0.25 F7200 ; Move to layer height
G1 E-0.8 F2100 ; Retract
G1 Z0.65 F7200 ; Z hop
G0 X65.0356 Y84.8992 F7200 ; Move to pattern start

G1 Z0.25 F7200 ; Z hop return
G1 E0.8 F2100 ; Un-retract
SET_PRESSURE_ADVANCE ADVANCE=0.05 ; Set pressure advance
M117 PA 0.05
G1 X84.3564 Y104.22 E1.12562 F1800 ; Print pattern wall
G1 X65.0356 Y123.5408 E1.12562 F1800 ; Print pattern wall
G1 E-0.8 F2100 ; Retract
G1 Z0.65 F7200 ; Z hop
G0 X65.6113 Y84.8992 F7200 ; Move to start next pattern wall
G1 Z0.25 F7200 ; Z hop return
G1 E0.8 F2100 ; Un-retract
G1 X84.9321 Y104.22 E1.12562 F1800 ; Print pattern wall
G1 X65.6113 Y123.5408 E1.12562 F1800 ; Print pattern wall
G1 E-0.8 F2100 ; Retract
G1 Z0.65 F7200 ; Z hop
G0 X66.187 Y84.8992 F7200 ; Move to start next pattern wall
G1 Z0.25 F7200 ; Z hop return
G1 E0.8 F2100 ; Un-retract
G1 X85.5078 Y104.22 E1.12562 F1800 ; Print pattern wall
G1 X66.187 Y123.5408 E1.12562 F1800 ; Print pattern wall
G1 E-0.8 F2100 ; Retract
G1 Z0.65 F7200 ; Z hop
G0 X68.637 Y84.8992 F7200 ; Move to next pattern
G1 Z0.25 F7200 ; Z hop return
G1 E0.8 F2100 ; Un-retract
SET_PRESSURE_ADVANCE ADVANCE=0.055 ; Set pressure advance
M117 PA 0.055
G1 X87.9578 Y104.22 E1.12562 F1800 ; Print pattern wall
G1 X68.637 Y123.5408 E1.12562 F1800 ; Print pattern wall
G1 E-0.8 F2100 ; Retract
G1 Z0.65 F7200 ; Z hop
G0 X69.2127 Y84.8992 F7200 ; Move to start next pattern wall
G1 Z0.25 F7200 ; Z hop return
G1 E0.8 F2100 ; Un-retract
G1 X88.5335 Y104.22 E1.12562 F1800 ; Print pattern wall
G1 X69.2127 Y123.5408 E1.12562 F1800 ; Print pattern wall
G1 E-0.8 F2100 ; Retract
G1 Z0.65 F7200 ; Z hop
G0 X69.7884 Y84.8992 F7200 ; Move to start next pattern wall
G1 Z0.25 F7200 ; Z hop return
G1 E0.8 F2100 ; Un-retract
G1 X89.1092 Y104.22 E1.12562 F1800 ; Print pattern wall
G1 X69.7884 Y123.5408 E1.12562 F1800 ; Print pattern wall
G1 E-0.8 F2100 ; Retract
G1 Z0.65 F7200 ; Z hop
G0 X72.2384 Y84.8992 F7200 ; Move to next pattern
G1 Z0.25 F7200 ; Z hop return
G1 E0.8 F2100 ; Un-retract
SET_PRESSURE_ADVANCE ADVANCE=0.06 ; Set pressure advance
M117 PA 0.06
G1 X91.5592 Y104.22 E1.12562 F1800 ; Print pattern wall
G1 X72.2384 Y123.5408 E1.12562 F1800 ; Print pattern wall
G1 E-0.8 F2100 ; Retract
G1 Z0.65 F7200 ; Z hop
G0 X72.8141 Y84.8992 F7200 ; Move to start next pattern wall
G1 Z0.25 F7200 ; Z hop return
G1 E0.8 F2100 ; Un-retract
G1 X92.1349 Y104.22 E1.12562 F1800 ; Print pattern wall
G1 X72.8141 Y123.5408 E1.12562 F1800 ; Print pattern wall
G1 E-0.8 F2100 ; Retract
G1 Z0.65 F7200 ; Z hop
G0 X73.3898 Y84.8992 F7200 ; Move to start next pattern wall
G1 Z0.25 F7200 ; Z hop return
G1 E0.8 F2100 ; Un-retract
G1 X92.7106 Y104.22 E1.12562 F1800 ; Print pattern wall
G1 X73.3898 Y123.5408 E1.12562 F1800 ; Print pattern wall
G1 E-0.8 F2100 ; Retract
G1 Z0.65 F7200 ; Z hop
G0 X75.8398 Y84.8992 F7200 ; Move to next pattern
G1 Z0.25 F7200 ; Z hop return
G1 E0.8 F2100 ; Un-retract
SET_PRESSURE_ADVANCE ADVANCE=0.065 ; Set pressure advance
M117 PA 0.065
G1 X95.1606 Y104.22 E1.12562 F1800 ; Print pattern wall
G1 X75.8398 Y123.5408 E1.12562 F1800 ; Print pattern wall
G1 E-0.8 F2100 ; Retract
G1 Z0.65 F7200 ; Z hop
G0 X76.4155 Y84.8992 F7200 ; Move to start next pattern wall
G1 Z0.25 F7200 ; Z hop return
G1 E0.8 F2100 ; Un-retract
G1 X95.7363 Y104.22 E1.12562 F1800 ; Print pattern wall
G1 X76.4155 Y123.5408 E1.12562 F1800 ; Print pattern wall
G1 E-0.8 F2100 ; Retract
G1 Z0.65 F7200 ; Z hop
G0 X76.9912 Y84.8992 F7200 ; Move to start next pattern wall
G1 Z0.25 F7200 ; Z hop return
G1 E0.8 F2100 ; Un-retract
G1 X96.312 Y104.22 E1.12562 F1800 ; Print pattern wall
G1 X76.9912 Y123.5408 E1.12562 F1800 ; Print pattern wall
G1 E-0.8 F2100 ; Retract
G1 Z0.65 F7200 ; Z hop
G0 X79.4412 Y84.8992 F7200 ; Move to next pattern
G1 Z0.25 F7200 ; Z hop return
G1 E0.8 F2100 ; Un-retract
SET_PRESSURE_ADVANCE ADVANCE=0.07 ; Set pressure advance
M117 PA 0.07
G1 X98.762 Y104.22 E1.12562 F1800 ; Print pattern wall
G1 X79.4412 Y123.5408 E1.12562 F1800 ; Print pattern wall
G1 E-0.8 F2100 ; Retract
G1 Z0.65 F7200 ; Z hop
G0 X80.0169 Y84.8992 F7200 ; Move to start next pattern wall
G1 Z0.25 F7200 ; Z hop return
G1 E0.8 F2100 ; Un-retract
G1 X99.3377 Y104.22 E1.12562 F1800 ; Print pattern wall
G1 X80.0169 Y123.5408 E1.12562 F1800 ; Print pattern wall
G1 E-0.8 F2100 ; Retract
G1 Z0.65 F7200 ; Z hop
G0 X80.5926 Y84.8992 F7200 ; Move to start next pattern wall
G1 Z0.25 F7200 ; Z hop return
G1 E0.8 F2100 ; Un-retract
G1 X99.9134 Y104.22 E1.12562 F1800 ; Print pattern wall
G1 X80.5926 Y123.5408 E1.12562 F1800 ; Print pattern wall
G1 E-0.8 F2100 ; Retract
G1 Z0.65 F7200 ; Z hop
G0 X83.0426 Y84.8992 F7200 ; Move to next pattern
G1 Z0.25 F7200 ; Z hop return
G1 E0.8 F2100 ; Un-retract
SET_PRESSURE_ADVANCE ADVANCE=0.075 ; Set pressure advance
M117 PA 0.075
G1 X102.3634 Y104.22 E1.12562 F1800 ; Print pattern wall
G1 X83.0426 Y123.5408 E1.12562 F1800 ; Print pattern wall
G1 E-0.8 F2100 ; Retract
G1 Z0.65 F7200 ; Z hop
G0 X83.6183 Y84.8992 F7200 ; Move to start next pattern wall
G1 Z0.25 F7200 ; Z hop return
G1 E0.8 F2100 ; Un-retract
G1 X102.9391 Y104.22 E1.12562 F1800 ; Print pattern wall
G1 X83.6183 Y123.5408 E1.12562 F1800 ; Print pattern wall
G1 E-0.8 F2100 ; Retract
G1 Z0.65 F7200 ; Z hop
G0 X84.194 Y84.8992 F7200 ; Move to start next pattern wall
G1 Z0.25 F7200 ; Z hop return
G1 E0.8 F2100 ; Un-retract
G1 X103.5148 Y104.22 E1.12562 F1800 ; Print pattern wall
G1 X84.194 Y123.5408 E1.12562 F1800 ; Print pattern wall
G1 E-0.8 F2100 ; Retract
G1 Z0.65 F7200 ; Z hop
G0 X86.644 Y84.8992 F7200 ; Move to next pattern
G1 Z0.25 F7200 ; Z hop return
G1 E0.8 F2100 ; Un-retract
SET_PRESSURE_ADVANCE ADVANCE=0.08 ; Set pressure advance
M117 PA 0.08
G1 X105.9648 Y104.22 E1.12562 F1800 ; Print pattern wall
G1 X86.644 Y123.5408 E1.12562 F1800 ; Print pattern wall
G1 E-0.8 F2100 ; Retract
G1 Z0.65 F7200 ; Z hop
G0 X87.2197 Y84.8992 F7200 ; Move to start next pattern wall
G1 Z0.25 F7200 ; Z hop return
G1 E0.8 F2100 ; Un-retract
G1 X106.5405 Y104.22 E1.12562 F1800 ; Print pattern wall
G1 X87.2197 Y123.5408 E1.12562 F1800 ; Print pattern wall
G1 E-0.8 F2100 ; Retract
G1 Z0.65 F7200 ; Z hop
G0 X87.7953 Y84.8992 F7200 ; Move to start next pattern wall
G1 Z0.25 F7200 ; Z hop return
G1 E0.8 F2100 ; Un-retract
G1 X107.1162 Y104.22 E1.12562 F1800 ; Print pattern wall
G1 X87.7953 Y123.5408 E1.12562 F1800 ; Print pattern wall
G1 E-0.8 F2100 ; Retract
G1 Z0.65 F7200 ; Z hop
G0 X90.2453 Y84.8992 F7200 ; Move to next pattern
G1 Z0.25 F7200 ; Z hop return
G1 E0.8 F2100 ; Un-retract
SET_PRESSURE_ADVANCE ADVANCE=0.085 ; Set pressure advance
M117 PA 0.085
G1 X109.5662 Y104.22 E1.12562 F1800 ; Print pattern wall
G1 X90.2453 Y123.5408 E1.12562 F1800 ; Print pattern wall
G1 E-0.8 F2100 ; Retract
G1 Z0.65 F7200 ; Z hop
G0 X90.821 Y84.8992 F7200 ; Move to start next pattern wall
G1 Z0.25 F7200 ; Z hop return
G1 E0.8 F2100 ; Un-retract
G1 X110.1419 Y104.22 E1.12562 F1800 ; Print pattern wall
G1 X90.821 Y123.5408 E1.12562 F1800 ; Print pattern wall
G1 E-0.8 F2100 ; Retract
G1 Z0.65 F7200 ; Z hop
G0 X91.3967 Y84.8992 F7200 ; Move to start next pattern wall
G1 Z0.25 F7200 ; Z hop return
G1 E0.8 F2100 ; Un-retract
G1 X110.7176 Y104.22 E1.12562 F1800 ; Print pattern wall
G1 X91.3967 Y123.5408 E1.12562 F1800 ; Print pattern wall
G1 E-0.8 F2100 ; Retract
G1 Z0.65 F7200 ; Z hop
G0 X93.8467 Y84.8992 F7200 ; Move to next pattern
G1 Z0.25 F7200 ; Z hop return
G1 E0.8 F2100 ; Un-retract
SET_PRESSURE_ADVANCE ADVANCE=0.09 ; Set pressure advance
M117 PA 0.09
G1 X113.1676 Y104.22 E1.12562 F1800 ; Print pattern wall
G1 X93.8467 Y123.5408 E1.12562 F1800 ; Print pattern wall
G1 E-0.8 F2100 ; Retract
G1 Z0.65 F7200 ; Z hop
G0 X94.4224 Y84.8992 F7200 ; Move to start next pattern wall
G1 Z0.25 F7200 ; Z hop return
G1 E0.8 F2100 ; Un-retract
G1 X113.7433 Y104.22 E1.12562 F1800 ; Print pattern wall
G1 X94.4224 Y123.5408 E1.12562 F1800 ; Print pattern wall
G1 E-0.8 F2100 ; Retract
G1 Z0.65 F7200 ; Z hop
G0 X94.9981 Y84.8992 F7200 ; Move to start next pattern wall
G1 Z0.25 F7200 ; Z hop return
G1 E0.8 F2100 ; Un-retract
G1 X114.319 Y104.22 E1.12562 F1800 ; Print pattern wall
G1 X94.9981 Y123.5408 E1.12562 F1800 ; Print pattern wall
G1 E-0.8 F2100 ; Retract
G1 Z0.65 F7200 ; Z hop
G0 X97.4481 Y84.8992 F7200 ; Move to next pattern
G1 Z0.25 F7200 ; Z hop return
G1 E0.8 F2100 ; Un-retract
SET_PRESSURE_ADVANCE ADVANCE=0.095 ; Set pressure advance
M117 PA 0.095
G1 X116.769 Y104.22 E1.12562 F1800 ; Print pattern wall
G1 X97.4481 Y123.5408 E1.12562 F1800 ; Print pattern wall
G1 E-0.8 F2100 ; Retract
G1 Z0.65 F7200 ; Z hop
G0 X98.0238 Y84.8992 F7200 ; Move to start next pattern wall
G1 Z0.25 F7200 ; Z hop return
G1 E0.8 F2100 ; Un-retract
G1 X117.3447 Y104.22 E1.12562 F1800 ; Print pattern wall
G1 X98.0238 Y123.5408 E1.12562 F1800 ; Print pattern wall
G1 E-0.8 F2100 ; Retract
G1 Z0.65 F7200 ; Z hop
G0 X98.5995 Y84.8992 F7200 ; Move to start next pattern wall
G1 Z0.25 F7200 ; Z hop return
G1 E0.8 F2100 ; Un-retract
G1 X117.9204 Y104.22 E1.12562 F1800 ; Print pattern wall
G1 X98.5995 Y123.5408 E1.12562 F1800 ; Print pattern wall
G1 E-0.8 F2100 ; Retract
G1 Z0.65 F7200 ; Z hop
G0 X101.0495 Y84.8992 F7200 ; Move to next pattern
G1 Z0.25 F7200 ; Z hop return
G1 E0.8 F2100 ; Un-retract
SET_PRESSURE_ADVANCE ADVANCE=0.1 ; Set pressure advance
M117 PA 0.1
G1 X120.3704 Y104.22 E1.12562 F1800 ; Print pattern wall
G1 X101.0495 Y123.5408 E1.12562 F1800 ; Print pattern wall
G1 E-0.8 F2100 ; Retract
G1 Z0.65 F7200 ; Z hop
G0 X101.6252 Y84.8992 F7200 ; Move to start next pattern wall
G1 Z0.25 F7200 ; Z hop return
G1 E0.8 F2100 ; Un-retract
G1 X120.9461 Y104.22 E1.12562 F1800 ; Print pattern wall
G1 X101.6252 Y123.5408 E1.12562 F1800 ; Print pattern wall
G1 E-0.8 F2100 ; Retract
G1 Z0.65 F7200 ; Z hop
G0 X102.2009 Y84.8992 F7200 ; Move to start next pattern wall
G1 Z0.25 F7200 ; Z hop return
G1 E0.8 F2100 ; Un-retract
G1 X121.5218 Y104.22 E1.12562 F1800 ; Print pattern wall
G1 X102.2009 Y123.5408 E1.12562 F1800 ; Print pattern wall
G1 E-0.8 F2100 ; Retract
G1 Z0.65 F7200 ; Z hop
G0 X104.6509 Y84.8992 F7200 ; Move to next pattern
G1 Z0.25 F7200 ; Z hop return
G1 E0.8 F2100 ; Un-retract
SET_PRESSURE_ADVANCE ADVANCE=0.105 ; Set pressure advance
M117 PA 0.105
G1 X123.9718 Y104.22 E1.12562 F1800 ; Print pattern wall
G1 X104.6509 Y123.5408 E1.12562 F1800 ; Print pattern wall
G1 E-0.8 F2100 ; Retract
G1 Z0.65 F7200 ; Z hop
G0 X105.2266 Y84.8992 F7200 ; Move to start next pattern wall
G1 Z0.25 F7200 ; Z hop return
G1 E0.8 F2100 ; Un-retract
G1 X124.5474 Y104.22 E1.12562 F1800 ; Print pattern wall
G1 X105.2266 Y123.5408 E1.12562 F1800 ; Print pattern wall
G1 E-0.8 F2100 ; Retract
G1 Z0.65 F7200 ; Z hop
G0 X105.8023 Y84.8992 F7200 ; Move to start next pattern wall
G1 Z0.25 F7200 ; Z hop return
G1 E0.8 F2100 ; Un-retract
G1 X125.1231 Y104.22 E1.12562 F1800 ; Print pattern wall
G1 X105.8023 Y123.5408 E1.12562 F1800 ; Print pattern wall
G1 E-0.8 F2100 ; Retract
G1 Z0.65 F7200 ; Z hop
G0 X108.2523 Y84.8992 F7200 ; Move to next pattern
G1 Z0.25 F7200 ; Z hop return
G1 E0.8 F2100 ; Un-retract
SET_PRESSURE_ADVANCE ADVANCE=0.11 ; Set pressure advance
M117 PA 0.11
G1 X127.5731 Y104.22 E1.12562 F1800 ; Print pattern wall
G1 X108.2523 Y123.5408 E1.12562 F1800 ; Print pattern wall
G1 E-0.8 F2100 ; Retract
G1 Z0.65 F7200 ; Z hop
G0 X108.828 Y84.8992 F7200 ; Move to start next pattern wall
G1 Z0.25 F7200 ; Z hop return
G1 E0.8 F2100 ; Un-retract
G1 X128.1488 Y104.22 E1.12562 F1800 ; Print pattern wall
G1 X108.828 Y123.5408 E1.12562 F1800 ; Print pattern wall
G1 E-0.8 F2100 ; Retract
G1 Z0.65 F7200 ; Z hop
G0 X109.4037 Y84.8992 F7200 ; Move to start next pattern wall
G1 Z0.25 F7200 ; Z hop return
G1 E0.8 F2100 ; Un-retract
G1 X128.7245 Y104.22 E1.12562 F1800 ; Print pattern wall
G1 X109.4037 Y123.5408 E1.12562 F1800 ; Print pattern wall
G1 E-0.8 F2100 ; Retract
G1 Z0.65 F7200 ; Z hop
G0 X111.8537 Y84.8992 F7200 ; Move to next pattern
G1 Z0.25 F7200 ; Z hop return
G1 E0.8 F2100 ; Un-retract
SET_PRESSURE_ADVANCE ADVANCE=0.115 ; Set pressure advance
M117 PA 0.115
G1 X131.1745 Y104.22 E1.12562 F1800 ; Print pattern wall
G1 X111.8537 Y123.5408 E1.12562 F1800 ; Print pattern wall
G1 E-0.8 F2100 ; Retract
G1 Z0.65 F7200 ; Z hop
G0 X112.4294 Y84.8992 F7200 ; Move to start next pattern wall
G1 Z0.25 F7200 ; Z hop return
G1 E0.8 F2100 ; Un-retract
G1 X131.7502 Y104.22 E1.12562 F1800 ; Print pattern wall
G1 X112.4294 Y123.5408 E1.12562 F1800 ; Print pattern wall
G1 E-0.8 F2100 ; Retract
G1 Z0.65 F7200 ; Z hop
G0 X113.0051 Y84.8992 F7200 ; Move to start next pattern wall
G1 Z0.25 F7200 ; Z hop return
G1 E0.8 F2100 ; Un-retract
G1 X132.3259 Y104.22 E1.12562 F1800 ; Print pattern wall
G1 X113.0051 Y123.5408 E1.12562 F1800 ; Print pattern wall
G1 E-0.8 F2100 ; Retract
G1 Z0.65 F7200 ; Z hop
G0 X115.4551 Y84.8992 F7200 ; Move to next pattern
G1 Z0.25 F7200 ; Z hop return
G1 E0.8 F2100 ; Un-retract
SET_PRESSURE_ADVANCE ADVANCE=0.12 ; Set pressure advance
M117 PA 0.12
G1 X134.7759 Y104.22 E1.12562 F1800 ; Print pattern wall
G1 X115.4551 Y123.5408 E1.12562 F1800 ; Print pattern wall
G1 E-0.8 F2100 ; Retract
G1 Z0.65 F7200 ; Z hop
G0 X116.0308 Y84.8992 F7200 ; Move to start next pattern wall
G1 Z0.25 F7200 ; Z hop return
G1 E0.8 F2100 ; Un-retract
G1 X135.3516 Y104.22 E1.12562 F1800 ; Print pattern wall
G1 X116.0308 Y123.5408 E1.12562 F1800 ; Print pattern wall
G1 E-0.8 F2100 ; Retract
G1 Z0.65 F7200 ; Z hop
G0 X116.6065 Y84.8992 F7200 ; Move to start next pattern wall
G1 Z0.25 F7200 ; Z hop return
G1 E0.8 F2100 ; Un-retract
G1 X135.9273 Y104.22 E1.12562 F1800 ; Print pattern wall
G1 X116.6065 Y123.5408 E1.12562 F1800 ; Print pattern wall
G1 E-0.8 F2100 ; Retract
G1 Z0.65 F7200 ; Z hop
G0 X119.0565 Y84.8992 F7200 ; Move to next pattern
G1 Z0.25 F7200 ; Z hop return
G1 E0.8 F2100 ; Un-retract
SET_PRESSURE_ADVANCE ADVANCE=0.125 ; Set pressure advance
M117 PA 0.125
G1 X138.3773 Y104.22 E1.12562 F1800 ; Print pattern wall
G1 X119.0565 Y123.5408 E1.12562 F1800 ; Print pattern wall
G1 E-0.8 F2100 ; Retract
G1 Z0.65 F7200 ; Z hop
G0 X119.6322 Y84.8992 F7200 ; Move to start next pattern wall
G1 Z0.25 F7200 ; Z hop return
G1 E0.8 F2100 ; Un-retract
G1 X138.953 Y104.22 E1.12562 F1800 ; Print pattern wall
G1 X119.6322 Y123.5408 E1.12562 F1800 ; Print pattern wall
G1 E-0.8 F2100 ; Retract
G1 Z0.65 F7200 ; Z hop
G0 X120.2079 Y84.8992 F7200 ; Move to start next pattern wall
G1 Z0.25 F7200 ; Z hop return
G1 E0.8 F2100 ; Un-retract
G1 X139.5287 Y104.22 E1.12562 F1800 ; Print pattern wall
G1 X120.2079 Y123.5408 E1.12562 F1800 ; Print pattern wall
G1 E-0.8 F2100 ; Retract
G1 Z0.65 F7200 ; Z hop
G0 X122.6579 Y84.8992 F7200 ; Move to next pattern
G1 Z0.25 F7200 ; Z hop return
G1 E0.8 F2100 ; Un-retract
SET_PRESSURE_ADVANCE ADVANCE=0.13 ; Set pressure advance
M117 PA 0.13
G1 X141.9787 Y104.22 E1.12562 F1800 ; Print pattern wall
G1 X122.6579 Y123.5408 E1.12562 F1800 ; Print pattern wall
G1 E-0.8 F2100 ; Retract
G1 Z0.65 F7200 ; Z hop
G0 X123.2336 Y84.8992 F7200 ; Move to start next pattern wall
G1 Z0.25 F7200 ; Z hop return
G1 E0.8 F2100 ; Un-retract
G1 X142.5544 Y104.22 E1.12562 F1800 ; Print pattern wall
G1 X123.2336 Y123.5408 E1.12562 F1800 ; Print pattern wall
G1 E-0.8 F2100 ; Retract
G1 Z0.65 F7200 ; Z hop
G0 X123.8093 Y84.8992 F7200 ; Move to start next pattern wall
G1 Z0.25 F7200 ; Z hop return
G1 E0.8 F2100 ; Un-retract
G1 X143.1301 Y104.22 E1.12562 F1800 ; Print pattern wall
G1 X123.8093 Y123.5408 E1.12562 F1800 ; Print pattern wall
G1 E-0.8 F2100 ; Retract
G1 Z0.65 F7200 ; Z hop
G0 X126.2593 Y84.8992 F7200 ; Move to next pattern
G1 Z0.25 F7200 ; Z hop return
G1 E0.8 F2100 ; Un-retract
SET_PRESSURE_ADVANCE ADVANCE=0.135 ; Set pressure advance
M117 PA 0.135
G1 X145.5801 Y104.22 E1.12562 F1800 ; Print pattern wall
G1 X126.2593 Y123.5408 E1.12562 F1800 ; Print pattern wall
G1 E-0.8 F2100 ; Retract
G1 Z0.65 F7200 ; Z hop
G0 X126.835 Y84.8992 F7200 ; Move to start next pattern wall
G1 Z0.25 F7200 ; Z hop return
G1 E0.8 F2100 ; Un-retract
G1 X146.1558 Y104.22 E1.12562 F1800 ; Print pattern wall
G1 X126.835 Y123.5408 E1.12562 F1800 ; Print pattern wall
G1 E-0.8 F2100 ; Retract
G1 Z0.65 F7200 ; Z hop
G0 X127.4107 Y84.8992 F7200 ; Move to start next pattern wall
G1 Z0.25 F7200 ; Z hop return
G1 E0.8 F2100 ; Un-retract
G1 X146.7315 Y104.22 E1.12562 F1800 ; Print pattern wall
G1 X127.4107 Y123.5408 E1.12562 F1800 ; Print pattern wall
G1 E-0.8 F2100 ; Retract
G1 Z0.65 F7200 ; Z hop
G0 X129.8607 Y84.8992 F7200 ; Move to next pattern
G1 Z0.25 F7200 ; Z hop return
G1 E0.8 F2100 ; Un-retract
SET_PRESSURE_ADVANCE ADVANCE=0.14 ; Set pressure advance
M117 PA 0.14
G1 X149.1815 Y104.22 E1.12562 F1800 ; Print pattern wall
G1 X129.8607 Y123.5408 E1.12562 F1800 ; Print pattern wall
G1 E-0.8 F2100 ; Retract
G1 Z0.65 F7200 ; Z hop
G0 X130.4364 Y84.8992 F7200 ; Move to start next pattern wall
G1 Z0.25 F7200 ; Z hop return
G1 E0.8 F2100 ; Un-retract
G1 X149.7572 Y104.22 E1.12562 F1800 ; Print pattern wall
G1 X130.4364 Y123.5408 E1.12562 F1800 ; Print pattern wall
G1 E-0.8 F2100 ; Retract
G1 Z0.65 F7200 ; Z hop
G0 X131.0121 Y84.8992 F7200 ; Move to start next pattern wall
G1 Z0.25 F7200 ; Z hop return
G1 E0.8 F2100 ; Un-retract
G1 X150.3329 Y104.22 E1.12562 F1800 ; Print pattern wall
G1 X131.0121 Y123.5408 E1.12562 F1800 ; Print pattern wall
G1 E-0.8 F2100 ; Retract
G1 Z0.65 F7200 ; Z hop
G0 X133.4621 Y84.8992 F7200 ; Move to next pattern
G1 Z0.25 F7200 ; Z hop return
G1 E0.8 F2100 ; Un-retract
SET_PRESSURE_ADVANCE ADVANCE=0.145 ; Set pressure advance
M117 PA 0.145
G1 X152.7829 Y104.22 E1.12562 F1800 ; Print pattern wall
G1 X133.4621 Y123.5408 E1.12562 F1800 ; Print pattern wall
G1 E-0.8 F2100 ; Retract
G1 Z0.65 F7200 ; Z hop
G0 X134.0378 Y84.8992 F7200 ; Move to start next pattern wall
G1 Z0.25 F7200 ; Z hop return
G1 E0.8 F2100 ; Un-retract
G1 X153.3586 Y104.22 E1.12562 F1800 ; Print pattern wall
G1 X134.0378 Y123.5408 E1.12562 F1800 ; Print pattern wall
G1 E-0.8 F2100 ; Retract
G1 Z0.65 F7200 ; Z hop
G0 X134.6135 Y84.8992 F7200 ; Move to start next pattern wall
G1 Z0.25 F7200 ; Z hop return
G1 E0.8 F2100 ; Un-retract
G1 X153.9343 Y104.22 E1.12562 F1800 ; Print pattern wall
G1 X134.6135 Y123.5408 E1.12562 F1800 ; Print pattern wall
G1 E-0.8 F2100 ; Retract
G1 Z0.65 F7200 ; Z hop
G0 X137.0635 Y84.8992 F7200 ; Move to next pattern
G1 Z0.25 F7200 ; Z hop return
G1 E0.8 F2100 ; Un-retract
SET_PRESSURE_ADVANCE ADVANCE=0.15 ; Set pressure advance
M117 PA 0.15
G1 X156.3843 Y104.22 E1.12562 F1800 ; Print pattern wall
G1 X137.0635 Y123.5408 E1.12562 F1800 ; Print pattern wall
G1 E-0.8 F2100 ; Retract
G1 Z0.65 F7200 ; Z hop
G0 X137.6392 Y84.8992 F7200 ; Move to start next pattern wall
G1 Z0.25 F7200 ; Z hop return
G1 E0.8 F2100 ; Un-retract
G1 X156.96 Y104.22 E1.12562 F1800 ; Print pattern wall
G1 X137.6392 Y123.5408 E1.12562 F1800 ; Print pattern wall
G1 E-0.8 F2100 ; Retract
G1 Z0.65 F7200 ; Z hop
G0 X138.2149 Y84.8992 F7200 ; Move to start next pattern wall
G1 Z0.25 F7200 ; Z hop return
G1 E0.8 F2100 ; Un-retract
G1 X157.5357 Y104.22 E1.12562 F1800 ; Print pattern wall
G1 X138.2149 Y123.5408 E1.12562 F1800 ; Print pattern wall
G1 E-0.8 F2100 ; Retract
G1 Z0.65 F7200 ; Z hop
G0 X65.0356 Y84.8992 F7200 ; Move back to start position
G1 Z0.25 F7200 ; Z hop return
G1 E0.8 F2100 ; Un-retract
M106 S255 ; Set fan speed
G0 Z0.45 F7200 ; Move to layer height
SET_PRESSURE_ADVANCE ADVANCE=0.05 ; Set pressure advance to start value for numbering
M117 PA 0.05
G1 E-0.8 F2100 ; Retract
G1 Z0.85 F7200 ; Z hop
G0 X61.7189 Y126.8832 F7200 ; Move
G1 Z0.45 F7200 ; Z hop return
G1 E0.8 F2100 ; Un-retract
G1 X63.7189 Y126.8832 E0.0677 F1800 ; Glyph: 0
G1 X65.7189 Y126.8832 E0.0677 F1800 ; Glyph: 0
G1 X65.7189 Y128.8832 E0.0677 F1800 ; Glyph: 0
G1 X63.7189 Y128.8832 E0.0677 F1800 ; Glyph: 0
G1 X61.7189 Y128.8832 E0.0677 F1800 ; Glyph: 0
G1 X61.7189 Y126.8832 E0.0677 F1800 ; Glyph: 0
G1 E-0.8 F2100 ; Retract
G1 Z0.85 F7200 ; Z hop
G0 X65.7189 Y129.8832 F7200 ; Move
G1 Z0.45 F7200 ; Z hop return
G1 E0.8 F2100 ; Un-retract
G1 X64.9689 Y129.8832 E0.02539 F1800 ; Glyph: .
G1 E-0.8 F2100 ; Retract
G1 Z0.85 F7200 ; Z hop
G0 X61.7189 Y130.8832 F7200 ; Move
G1 Z0.45 F7200 ; Z hop return
G1 E0.8 F2100 ; Un-retract
G1 X63.7189 Y130.8832 E0.0677 F1800 ; Glyph: 0
G1 X65.7189 Y130.8832 E0.0677 F1800 ; Glyph: 0
G1 X65.7189 Y132.8832 E0.0677 F1800 ; Glyph: 0
G1 X63.7189 Y132.8832 E0.0677 F1800 ; Glyph: 0
G1 X61.7189 Y132.8832 E0.0677 F1800 ; Glyph: 0
G1 X61.7189 Y130.8832 E0.0677 F1800 ; Glyph: 0
G1 E-0.8 F2100 ; Retract
G1 Z0.85 F7200 ; Z hop
G0 X61.7189 Y135.8832 F7200 ; Move
G1 Z0.45 F7200 ; Z hop return
G1 E0.8 F2100 ; Un-retract
G1 X61.7189 Y133.8832 E0.0677 F1800 ; Glyph: 5
G1 X63.7189 Y133.8832 E0.0677 F1800 ; Glyph: 5
G1 X63.7189 Y135.8832 E0.0677 F1800 ; Glyph: 5
G1 X65.7189 Y135.8832 E0.0677 F1800 ; Glyph: 5
G1 X65.7189 Y133.8832 E0.0677 F1800 ; Glyph: 5
G1 E-0.8 F2100 ; Retract
G1 Z0.85 F7200 ; Z hop
G0 X68.9217 Y126.8832 F7200 ; Move
G1 Z0.45 F7200 ; Z hop return
G1 E0.8 F2100 ; Un-retract
G1 X70.9217 Y126.8832 E0.0677 F1800 ; Glyph: 0
G1 X72.9217 Y126.8832 E0.0677 F1800 ; Glyph: 0
G1 X72.9217 Y128.8832 E0.0677 F1800 ; Glyph: 0
G1 X70.9217 Y128.8832 E0.0677 F1800 ; Glyph: 0
G1 X68.9217 Y128.8832 E0.0677 F1800 ; Glyph: 0
G1 X68.9217 Y126.8832 E0.0677 F1800 ; Glyph: 0
G1 E-0.8 F2100 ; Retract
G1 Z0.85 F7200 ; Z hop
G0 X72.9217 Y129.8832 F7200 ; Move
G1 Z0.45 F7200 ; Z hop return
G1 E0.8 F2100 ; Un-retract
G1 X72.1717 Y129.8832 E0.02539 F1800 ; Glyph: .
G1 E-0.8 F2100 ; Retract
G1 Z0.85 F7200 ; Z hop
G0 X68.9217 Y130.8832 F7200 ; Move
G1 Z0.45 F7200 ; Z hop return
G1 E0.8 F2100 ; Un-retract
G1 X70.9217 Y130.8832 E0.0677 F1800 ; Glyph: 0
G1 X72.9217 Y130.8832 E0.0677 F1800 ; Glyph: 0
G1 X72.9217 Y132.8832 E0.0677 F1800 ; Glyph: 0
G1 X70.9217 Y132.8832 E0.0677 F1800 ; Glyph: 0
G1 X68.9217 Y132.8832 E0.0677 F1800 ; Glyph: 0
G1 X68.9217 Y130.8832 E0.0677 F1800 ; Glyph: 0
G1 E-0.8 F2100 ; Retract
G1 Z0.85 F7200 ; Z hop
G0 X68.9217 Y135.8832 F7200 ; Move
G1 Z0.45 F7200 ; Z hop return
G1 E0.8 F2100 ; Un-retract
G1 X68.9217 Y133.8832 E0.0677 F1800 ; Glyph: 6
G1 X70.9217 Y133.8832 E0.0677 F1800 ; Glyph: 6
G1 X72.9217 Y133.8832 E0.0677 F1800 ; Glyph: 6
G1 X72.9217 Y135.8832 E0.0677 F1800 ; Glyph: 6
G1 X70.9217 Y135.8832 E0.0677 F1800 ; Glyph: 6
G1 X70.9217 Y133.8832 E0.0677 F1800 ; Glyph: 6
G1 E-0.8 F2100 ; Retract
G1 Z0.85 F7200 ; Z hop
G0 X76.1245 Y126.8832 F7200 ; Move
G1 Z0.45 F7200 ; Z hop return
G1 E0.8 F2100 ; Un-retract
G1 X78.1245 Y126.8832 E0.0677 F1800 ; Glyph: 0
G1 X80.1245 Y126.8832 E0.0677 F1800 ; Glyph: 0
G1 X80.1245 Y128.8832 E0.0677 F1800 ; Glyph: 0
G1 X78.1245 Y128.8832 E0.0677 F1800 ; Glyph: 0
G1 X76.1245 Y128.8832 E0.0677 F1800 ; Glyph: 0
G1 X76.1245 Y126.8832 E0.0677 F1800 ; Glyph: 0
G1 E-0.8 F2100 ; Retract
G1 Z0.85 F7200 ; Z hop
G0 X80.1245 Y129.8832 F7200 ; Move
G1 Z0.45 F7200 ; Z hop return
G1 E0.8 F2100 ; Un-retract
G1 X79.3745 Y129.8832 E0.02539 F1800 ; Glyph: .
G1 E-0.8 F2100 ; Retract
G1 Z0.85 F7200 ; Z hop
G0 X76.1245 Y130.8832 F7200 ; Move
G1 Z0.45 F7200 ; Z hop return
G1 E0.8 F2100 ; Un-retract
G1 X78.1245 Y130.8832 E0.0677 F1800 ; Glyph: 0
G1 X80.1245 Y130.8832 E0.0677 F1800 ; Glyph: 0
G1 X80.1245 Y132.8832 E0.0677 F1800 ; Glyph: 0
G1 X78.1245 Y132.8832 E0.0677 F1800 ; Glyph: 0
G1 X76.1245 Y132.8832 E0.0677 F1800 ; Glyph: 0
G1 X76.1245 Y130.8832 E0.0677 F1800 ; Glyph: 0
G1 E-0.8 F2100 ; Retract
G1 Z0.85 F7200 ; Z hop
G0 X76.1245 Y133.8832 F7200 ; Move
G1 Z0.45 F7200 ; Z hop return
G1 E0.8 F2100 ; Un-retract
G1 X76.1245 Y135.8832 E0.0677 F1800 ; Glyph: 7
G1 X78.1245 Y135.8832 E0.0677 F1800 ; Glyph: 7
G1 X80.1245 Y135.8832 E0.0677 F1800 ; Glyph: 7
G1 E-0.8 F2100 ; Retract
G1 Z0.85 F7200 ; Z hop
G0 X83.3273 Y126.8832 F7200 ; Move
G1 Z0.45 F7200 ; Z hop return
G1 E0.8 F2100 ; Un-retract
G1 X85.3273 Y126.8832 E0.0677 F1800 ; Glyph: 0
G1 X87.3273 Y126.8832 E0.0677 F1800 ; Glyph: 0
G1 X87.3273 Y128.8832 E0.0677 F1800 ; Glyph: 0
G1 X85.3273 Y128.8832 E0.0677 F1800 ; Glyph: 0
G1 X83.3273 Y128.8832 E0.0677 F1800 ; Glyph: 0
G1 X83.3273 Y126.8832 E0.0677 F1800 ; Glyph: 0
G1 E-0.8 F2100 ; Retract
G1 Z0.85 F7200 ; Z hop
G0 X87.3273 Y129.8832 F7200 ; Move
G1 Z0.45 F7200 ; Z hop return
G1 E0.8 F2100 ; Un-retract
G1 X86.5773 Y129.8832 E0.02539 F1800 ; Glyph: .
G1 E-0.8 F2100 ; Retract
G1 Z0.85 F7200 ; Z hop
G0 X83.3273 Y130.8832 F7200 ; Move
G1 Z0.45 F7200 ; Z hop return
G1 E0.8 F2100 ; Un-retract
G1 X85.3273 Y130.8832 E0.0677 F1800 ; Glyph: 0
G1 X87.3273 Y130.8832 E0.0677 F1800 ; Glyph: 0
G1 X87.3273 Y132.8832 E0.0677 F1800 ; Glyph: 0
G1 X85.3273 Y132.8832 E0.0677 F1800 ; Glyph: 0
G1 X83.3273 Y132.8832 E0.0677 F1800 ; Glyph: 0
G1 X83.3273 Y130.8832 E0.0677 F1800 ; Glyph: 0
G1 E-0.8 F2100 ; Retract
G1 Z0.85 F7200 ; Z hop
G0 X83.3273 Y133.8832 F7200 ; Move
G1 Z0.45 F7200 ; Z hop return
G1 E0.8 F2100 ; Un-retract
G1 X85.3273 Y133.8832 E0.0677 F1800 ; Glyph: 8
G1 X87.3273 Y133.8832 E0.0677 F1800 ; Glyph: 8
G1 X87.3273 Y135.8832 E0.0677 F1800 ; Glyph: 8
G1 X85.3273 Y135.8832 E0.0677 F1800 ; Glyph: 8
G1 X83.3273 Y135.8832 E0.0677 F1800 ; Glyph: 8
G1 X83.3273 Y133.8832 E0.0677 F1800 ; Glyph: 8
G0 X85.3273 Y133.8832 F7200 ; Move
G1 X85.3273 Y135.8832 E0.0677 F1800 ; Glyph: 8
G1 E-0.8 F2100 ; Retract
G1 Z0.85 F7200 ; Z hop
G0 X90.5301 Y126.8832 F7200 ; Move
G1 Z0.45 F7200 ; Z hop return
G1 E0.8 F2100 ; Un-retract
G1 X92.5301 Y126.8832 E0.0677 F1800 ; Glyph: 0
G1 X94.5301 Y126.8832 E0.0677 F1800 ; Glyph: 0
G1 X94.5301 Y128.8832 E0.0677 F1800 ; Glyph: 0
G1 X92.5301 Y128.8832 E0.0677 F1800 ; Glyph: 0
G1 X90.5301 Y128.8832 E0.0677 F1800 ; Glyph: 0
G1 X90.5301 Y126.8832 E0.0677 F1800 ; Glyph: 0
G1 E-0.8 F2100 ; Retract
G1 Z0.85 F7200 ; Z hop
G0 X94.5301 Y129.8832 F7200 ; Move
G1 Z0.45 F7200 ; Z hop return
G1 E0.8 F2100 ; Un-retract
G1 X93.7801 Y129.8832 E0.02539 F1800 ; Glyph: .
G1 E-0.8 F2100 ; Retract
G1 Z0.85 F7200 ; Z hop
G0 X90.5301 Y130.8832 F7200 ; Move
G1 Z0.45 F7200 ; Z hop return
G1 E0.8 F2100 ; Un-retract
G1 X92.5301 Y130.8832 E0.0677 F1800 ; Glyph: 0
G1 X94.5301 Y130.8832 E0.0677 F1800 ; Glyph: 0
G1 X94.5301 Y132.8832 E0.0677 F1800 ; Glyph: 0
G1 X92.5301 Y132.8832 E0.0677 F1800 ; Glyph: 0
G1 X90.5301 Y132.8832 E0.0677 F1800 ; Glyph: 0
G1 X90.5301 Y130.8832 E0.0677 F1800 ; Glyph: 0
G1 E-0.8 F2100 ; Retract
G1 Z0.85 F7200 ; Z hop
G0 X94.5301 Y133.8832 F7200 ; Move
G1 Z0.45 F7200 ; Z hop return
G1 E0.8 F2100 ; Un-retract
G1 X94.5301 Y135.8832 E0.0677 F1800 ; Glyph: 9
G1 X92.5301 Y135.8832 E0.0677 F1800 ; Glyph: 9
G1 X90.5301 Y135.8832 E0.0677 F1800 ; Glyph: 9
G1 X90.5301 Y133.8832 E0.0677 F1800 ; Glyph: 9
G1 X92.5301 Y133.8832 E0.0677 F1800 ; Glyph: 9
G1 X92.5301 Y135.8832 E0.0677 F1800 ; Glyph: 9
G1 E-0.8 F2100 ; Retract
G1 Z0.85 F7200 ; Z hop
G0 X97.7329 Y126.8832 F7200 ; Move
G1 Z0.45 F7200 ; Z hop return
G1 E0.8 F2100 ; Un-retract
G1 X99.7329 Y126.8832 E0.0677 F1800 ; Glyph: 0
G1 X101.7329 Y126.8832 E0.0677 F1800 ; Glyph: 0
G1 X101.7329 Y128.8832 E0.0677 F1800 ; Glyph: 0
G1 X99.7329 Y128.8832 E0.0677 F1800 ; Glyph: 0
G1 X97.7329 Y128.8832 E0.0677 F1800 ; Glyph: 0
G1 X97.7329 Y126.8832 E0.0677 F1800 ; Glyph: 0
G1 E-0.8 F2100 ; Retract
G1 Z0.85 F7200 ; Z hop
G0 X101.7329 Y129.8832 F7200 ; Move
G1 Z0.45 F7200 ; Z hop return
G1 E0.8 F2100 ; Un-retract
G1 X100.9829 Y129.8832 E0.02539 F1800 ; Glyph: .
G1 E-0.8 F2100 ; Retract
G1 Z0.85 F7200 ; Z hop
G0 X97.7329 Y130.8832 F7200 ; Move
G1 Z0.45 F7200 ; Z hop return
G1 E0.8 F2100 ; Un-retract
G1 X99.7329 Y130.8832 E0.0677 F1800 ; Glyph: 1
G1 X101.7329 Y130.8832 E0.0677 F1800 ; Glyph: 1
G1 E-0.8 F2100 ; Retract
G1 Z0.85 F7200 ; Z hop
G0 X104.9356 Y126.8832 F7200 ; Move
G1 Z0.45 F7200 ; Z hop return
G1 E0.8 F2100 ; Un-retract
G1 X106.9356 Y126.8832 E0.0677 F1800 ; Glyph: 0
G1 X108.9356 Y126.8832 E0.0677 F1800 ; Glyph: 0
G1 X108.9356 Y128.8832 E0.0677 F1800 ; Glyph: 0
G1 X106.9356 Y128.8832 E0.0677 F1800 ; Glyph: 0
G1 X104.9356 Y128.8832 E0.0677 F1800 ; Glyph: 0
G1 X104.9356 Y126.8832 E0.0677 F1800 ; Glyph: 0
G1 E-0.8 F2100 ; Retract
G1 Z0.85 F7200 ; Z hop
G0 X108.9356 Y129.8832 F7200 ; Move
G1 Z0.45 F7200 ; Z hop return
G1 E0.8 F2100 ; Un-retract
G1 X108.1856 Y129.8832 E0.02539 F1800 ; Glyph: .
G1 E-0.8 F2100 ; Retract
G1 Z0.85 F7200 ; Z hop
G0 X104.9356 Y130.8832 F7200 ; Move
G1 Z0.45 F7200 ; Z hop return
G1 E0.8 F2100 ; Un-retract
G1 X106.9356 Y130.8832 E0.0677 F1800 ; Glyph: 1
G1 X108.9356 Y130.8832 E0.0677 F1800 ; Glyph: 1
G1 E-0.8 F2100 ; Retract
G1 Z0.85 F7200 ; Z hop
G0 X104.9356 Y131.8832 F7200 ; Move
G1 Z0.45 F7200 ; Z hop return
G1 E0.8 F2100 ; Un-retract
G1 X106.9356 Y131.8832 E0.0677 F1800 ; Glyph: 1
G1 X108.9356 Y131.8832 E0.0677 F1800 ; Glyph: 1
G1 E-0.8 F2100 ; Retract
G1 Z0.85 F7200 ; Z hop
G0 X112.1384 Y126.8832 F7200 ; Move
G1 Z0.45 F7200 ; Z hop return
G1 E0.8 F2100 ; Un-retract
G1 X114.1384 Y126.8832 E0.0677 F1800 ; Glyph: 0
G1 X116.1384 Y126.8832 E0.0677 F1800 ; Glyph: 0
G1 X116.1384 Y128.8832 E0.0677 F1800 ; Glyph: 0
G1 X114.1384 Y128.8832 E0.0677 F1800 ; Glyph: 0
G1 X112.1384 Y128.8832 E0.0677 F1800 ; Glyph: 0
G1 X112.1384 Y126.8832 E0.0677 F1800 ; Glyph: 0
G1 E-0.8 F2100 ; Retract
G1 Z0.85 F7200 ; Z hop
G0 X116.1384 Y129.8832 F7200 ; Move
G1 Z0.45 F7200 ; Z hop return
G1 E0.8 F2100 ; Un-retract
G1 X115.3884 Y129.8832 E0.02539 F1800 ; Glyph: .
G1 E-0.8 F2100 ; Retract
G1 Z0.85 F7200 ; Z hop
G0 X112.1384 Y130.8832 F7200 ; Move
G1 Z0.45 F7200 ; Z hop return
G1 E0.8 F2100 ; Un-retract
G1 X114.1384 Y130.8832 E0.0677 F1800 ; Glyph: 1
G1 X116.1384 Y130.8832 E0.0677 F1800 ; Glyph: 1
G1 E-0.8 F2100 ; Retract
G1 Z0.85 F7200 ; Z hop
G0 X112.1384 Y131.8832 F7200 ; Move
G1 Z0.45 F7200 ; Z hop return
G1 E0.8 F2100 ; Un-retract
G1 X112.1384 Y133.8832 E0.0677 F1800 ; Glyph: 2
G1 X114.1384 Y133.8832 E0.0677 F1800 ; Glyph: 2
G1 X114.1384 Y131.8832 E0.0677 F1800 ; Glyph: 2
G1 X116.1384 Y131.8832 E0.0677 F1800 ; Glyph: 2
G1 X116.1384 Y133.8832 E0.0677 F1800 ; Glyph: 2
G1 E-0.8 F2100 ; Retract
G1 Z0.85 F7200 ; Z hop
G0 X119.3412 Y126.8832 F7200 ; Move
G1 Z0.45 F7200 ; Z hop return
G1 E0.8 F2100 ; Un-retract
G1 X121.3412 Y126.8832 E0.0677 F1800 ; Glyph: 0
G1 X123.3412 Y126.8832 E0.0677 F1800 ; Glyph: 0
G1 X123.3412 Y128.8832 E0.0677 F1800 ; Glyph: 0
G1 X121.3412 Y128.8832 E0.0677 F1800 ; Glyph: 0
G1 X119.3412 Y128.8832 E0.0677 F1800 ; Glyph: 0
G1 X119.3412 Y126.8832 E0.0677 F1800 ; Glyph: 0
G1 E-0.8 F2100 ; Retract
G1 Z0.85 F7200 ; Z hop
G0 X123.3412 Y129.8832 F7200 ; Move
G1 Z0.45 F7200 ; Z hop return
G1 E0.8 F2100 ; Un-retract
G1 X122.5912 Y129.8832 E0.02539 F1800 ; Glyph: .
G1 E-0.8 F2100 ; Retract
G1 Z0.85 F7200 ; Z hop
G0 X119.3412 Y130.8832 F7200 ; Move
G1 Z0.45 F7200 ; Z hop return
G1 E0.8 F2100 ; Un-retract
G1 X121.3412 Y130.8832 E0.0677 F1800 ; Glyph: 1
G1 X123.3412 Y130.8832 E0.0677 F1800 ; Glyph: 1
G1 E-0.8 F2100 ; Retract
G1 Z0.85 F7200 ; Z hop
G0 X119.3412 Y131.8832 F7200 ; Move
G1 Z0.45 F7200 ; Z hop return
G1 E0.8 F2100 ; Un-retract
G1 X119.3412 Y133.8832 E0.0677 F1800 ; Glyph: 3
G1 X121.3412 Y133.8832 E0.0677 F1800 ; Glyph: 3
G1 X121.3412 Y131.8832 E0.0677 F1800 ; Glyph: 3
G0 X121.3412 Y133.8832 F7200 ; Move
G1 X123.3412 Y133.8832 E0.0677 F1800 ; Glyph: 3
G1 X123.3412 Y131.8832 E0.0677 F1800 ; Glyph: 3
G1 E-0.8 F2100 ; Retract
G1 Z0.85 F7200 ; Z hop
G0 X126.544 Y126.8832 F7200 ; Move
G1 Z0.45 F7200 ; Z hop return
G1 E0.8 F2100 ; Un-retract
G1 X128.544 Y126.8832 E0.0677 F1800 ; Glyph: 0
G1 X130.544 Y126.8832 E0.0677 F1800 ; Glyph: 0
G1 X130.544 Y128.8832 E0.0677 F1800 ; Glyph: 0
G1 X128.544 Y128.8832 E0.0677 F1800 ; Glyph: 0
G1 X126.544 Y128.8832 E0.0677 F1800 ; Glyph: 0
G1 X126.544 Y126.8832 E0.0677 F1800 ; Glyph: 0
G1 E-0.8 F2100 ; Retract
G1 Z0.85 F7200 ; Z hop
G0 X130.544 Y129.8832 F7200 ; Move
G1 Z0.45 F7200 ; Z hop return
G1 E0.8 F2100 ; Un-retract
G1 X129.794 Y129.8832 E0.02539 F1800 ; Glyph: .
G1 E-0.8 F2100 ; Retract
G1 Z0.85 F7200 ; Z hop
G0 X126.544 Y130.8832 F7200 ; Move
G1 Z0.45 F7200 ; Z hop return
G1 E0.8 F2100 ; Un-retract
G1 X128.544 Y130.8832 E0.0677 F1800 ; Glyph: 1
G1 X130.544 Y130.8832 E0.0677 F1800 ; Glyph: 1
G1 E-0.8 F2100 ; Retract
G1 Z0.85 F7200 ; Z hop
G0 X126.544 Y133.8832 F7200 ; Move
G1 Z0.45 F7200 ; Z hop return
G1 E0.8 F2100 ; Un-retract
G1 X128.544 Y133.8832 E0.0677 F1800 ; Glyph: 4
G1 X130.544 Y133.8832 E0.0677 F1800 ; Glyph: 4
G0 X128.544 Y133.8832 F7200 ; Move
G1 X128.544 Y131.8832 E0.0677 F1800 ; Glyph: 4
G1 X126.544 Y131.8832 E0.0677 F1800 ; Glyph: 4
G1 E-0.8 F2100 ; Retract
G1 Z0.85 F7200 ; Z hop
G0 X133.7468 Y126.8832 F7200 ; Move
G1 Z0.45 F7200 ; Z hop return
G1 E0.8 F2100 ; Un-retract
G1 X135.7468 Y126.8832 E0.0677 F1800 ; Glyph: 0
G1 X137.7468 Y126.8832 E0.0677 F1800 ; Glyph: 0
G1 X137.7468 Y128.8832 E0.0677 F1800 ; Glyph: 0
G1 X135.7468 Y128.8832 E0.0677 F1800 ; Glyph: 0
G1 X133.7468 Y128.8832 E0.0677 F1800 ; Glyph: 0
G1 X133.7468 Y126.8832 E0.0677 F1800 ; Glyph: 0
G1 E-0.8 F2100 ; Retract
G1 Z0.85 F7200 ; Z hop
G0 X137.7468 Y129.8832 F7200 ; Move
G1 Z0.45 F7200 ; Z hop return
G1 E0.8 F2100 ; Un-retract
G1 X136.9968 Y129.8832 E0.02539 F1800 ; Glyph: .
G1 E-0.8 F2100 ; Retract
G1 Z0.85 F7200 ; Z hop
G0 X133.7468 Y130.8832 F7200 ; Move
G1 Z0.45 F7200 ; Z hop return
G1 E0.8 F2100 ; Un-retract
G1 X135.7468 Y130.8832 E0.0677 F1800 ; Glyph: 1
G1 X137.7468 Y130.8832 E0.0677 F1800 ; Glyph: 1
G1 E-0.8 F2100 ; Retract
G1 Z0.85 F7200 ; Z hop
G0 X133.7468 Y133.8832 F7200 ; Move
G1 Z0.45 F7200 ; Z hop return
G1 E0.8 F2100 ; Un-retract
G1 X133.7468 Y131.8832 E0.0677 F1800 ; Glyph: 5
G1 X135.7468 Y131.8832 E0.0677 F1800 ; Glyph: 5
G1 X135.7468 Y133.8832 E0.0677 F1800 ; Glyph: 5
G1 X137.7468 Y133.8832 E0.0677 F1800 ; Glyph: 5
G1 X137.7468 Y131.8832 E0.0677 F1800 ; Glyph: 5
G1 E-0.8 F2100 ; Retract
G1 Z0.85 F7200 ; Z hop
G0 X63.1432 Y83.0068 F7200 ; Move to pattern start

G1 Z0.45 F7200 ; Z hop return
G1 E0.8 F2100 ; Un-retract
SET_PRESSURE_ADVANCE ADVANCE=0.05 ; Set pressure advance
M117 PA 0.05
G1 X84.3564 Y104.22 E1.01546 F6000 ; Print pattern wall
G1 X63.1432 Y125.4332 E1.01546 F6000 ; Print pattern wall
G1 E-0.8 F2100 ; Retract
G1 Z0.85 F7200 ; Z hop
G0 X63.7189 Y83.0068 F7200 ; Move to start next pattern wall
G1 Z0.45 F7200 ; Z hop return
G1 E0.8 F2100 ; Un-retract
G1 X84.9321 Y104.22 E1.01546 F6000 ; Print pattern wall
G1 X63.7189 Y125.4332 E1.01546 F6000 ; Print pattern wall
G1 E-0.8 F2100 ; Retract
G1 Z0.85 F7200 ; Z hop
G0 X64.2946 Y83.0068 F7200 ; Move to start next pattern wall
G1 Z0.45 F7200 ; Z hop return
G1 E0.8 F2100 ; Un-retract
G1 X85.5078 Y104.22 E1.01546 F6000 ; Print pattern wall
G1 X64.2946 Y125.4332 E1.01546 F6000 ; Print pattern wall
G1 E-0.8 F2100 ; Retract
G1 Z0.85 F7200 ; Z hop
G0 X66.7446 Y83.0068 F7200 ; Move to next pattern
G1 Z0.45 F7200 ; Z hop return
G1 E0.8 F2100 ; Un-retract
SET_PRESSURE_ADVANCE ADVANCE=0.055 ; Set pressure advance
M117 PA 0.055
G1 X87.9578 Y104.22 E1.01546 F6000 ; Print pattern wall
G1 X66.7446 Y125.4332 E1.01546 F6000 ; Print pattern wall
G1 E-0.8 F2100 ; Retract
G1 Z0.85 F7200 ; Z hop
G0 X67.3203 Y83.0068 F7200 ; Move to start next pattern wall
G1 Z0.45 F7200 ; Z hop return
G1 E0.8 F2100 ; Un-retract
G1 X88.5335 Y104.22 E1.01546 F6000 ; Print pattern wall
G1 X67.3203 Y125.4332 E1.01546 F6000 ; Print pattern wall
G1 E-0.8 F2100 ; Retract
G1 Z0.85 F7200 ; Z hop
G0 X67.896 Y83.0068 F7200 ; Move to start next pattern wall
G1 Z0.45 F7200 ; Z hop return
G1 E0.8 F2100 ; Un-retract
G1 X89.1092 Y104.22 E1.01546 F6000 ; Print pattern wall
G1 X67.896 Y125.4332 E1.01546 F6000 ; Print pattern wall
G1 E-0.8 F2100 ; Retract
G1 Z0.85 F7200 ; Z hop
G0 X70.346 Y83.0068 F7200 ; Move to next pattern
G1 Z0.45 F7200 ; Z hop return
G1 E0.8 F2100 ; Un-retract
SET_PRESSURE_ADVANCE ADVANCE=0.06 ; Set pressure advance
M117 PA 0.06
G1 X91.5592 Y104.22 E1.01546 F6000 ; Print pattern wall
G1 X70.346 Y125.4332 E1.01546 F6000 ; Print pattern wall
G1 E-0.8 F2100 ; Retract
G1 Z0.85 F7200 ; Z hop
G0 X70.9217 Y83.0068 F7200 ; Move to start next pattern wall
G1 Z0.45 F7200 ; Z hop return
G1 E0.8 F2100 ; Un-retract
G1 X92.1349 Y104.22 E1.01546 F6000 ; Print pattern wall
G1 X70.9217 Y125.4332 E1.01546 F6000 ; Print pattern wall
G1 E-0.8 F2100 ; Retract
G1 Z0.85 F7200 ; Z hop
G0 X71.4974 Y83.0068 F7200 ; Move to start next pattern wall
G1 Z0.45 F7200 ; Z hop return
G1 E0.8 F2100 ; Un-retract
G1 X92.7106 Y104.22 E1.01546 F6000 ; Print pattern wall
G1 X71.4974 Y125.4332 E1.01546 F6000 ; Print pattern wall
G1 E-0.8 F2100 ; Retract
G1 Z0.85 F7200 ; Z hop
G0 X73.9474 Y83.0068 F7200 ; Move to next pattern
G1 Z0.45 F7200 ; Z hop return
G1 E0.8 F2100 ; Un-retract
SET_PRESSURE_ADVANCE ADVANCE=0.065 ; Set pressure advance
M117 PA 0.065
G1 X95.1606 Y104.22 E1.01546 F6000 ; Print pattern wall
G1 X73.9474 Y125.4332 E1.01546 F6000 ; Print pattern wall
G1 E-0.8 F2100 ; Retract
G1 Z0.85 F7200 ; Z hop
G0 X74.5231 Y83.0068 F7200 ; Move to start next pattern wall
G1 Z0.45 F7200 ; Z hop return
G1 E0.8 F2100 ; Un-retract
G1 X95.7363 Y104.22 E1.01546 F6000 ; Print pattern wall
G1 X74.5231 Y125.4332 E1.01546 F6000 ; Print pattern wall
G1 E-0.8 F2100 ; Retract
G1 Z0.85 F7200 ; Z hop
G0 X75.0988 Y83.0068 F7200 ; Move to start next pattern wall
G1 Z0.45 F7200 ; Z hop return
G1 E0.8 F2100 ; Un-retract
G1 X96.312 Y104.22 E1.01546 F6000 ; Print pattern wall
G1 X75.0988 Y125.4332 E1.01546 F6000 ; Print pattern wall
G1 E-0.8 F2100 ; Retract
G1 Z0.85 F7200 ; Z hop
G0 X77.5488 Y83.0068 F7200 ; Move to next pattern
G1 Z0.45 F7200 ; Z hop return
G1 E0.8 F2100 ; Un-retract
SET_PRESSURE_ADVANCE ADVANCE=0.07 ; Set pressure advance
M117 PA 0.07
G1 X98.762 Y104.22 E1.01546 F6000 ; Print pattern wall
G1 X77.5488 Y125.4332 E1.01546 F6000 ; Print pattern wall
G1 E-0.8 F2100 ; Retract
G1 Z0.85 F7200 ; Z hop
G0 X78.1245 Y83.0068 F7200 ; Move to start next pattern wall
G1 Z0.45 F7200 ; Z hop return
G1 E0.8 F2100 ; Un-retract
G1 X99.3377 Y104.22 E1.01546 F6000 ; Print pattern wall
G1 X78.1245 Y125.4332 E1.01546 F6000 ; Print pattern wall
G1 E-0.8 F2100 ; Retract
G1 Z0.85 F7200 ; Z hop
G0 X78.7002 Y83.0068 F7200 ; Move to start next pattern wall
G1 Z0.45 F7200 ; Z hop return
G1 E0.8 F2100 ; Un-retract
G1 X99.9134 Y104.22 E1.01546 F6000 ; Print pattern wall
G1 X78.7002 Y125.4332 E1.01546 F6000 ; Print pattern wall
G1 E-0.8 F2100 ; Retract
G1 Z0.85 F7200 ; Z hop
G0 X81.1502 Y83.0068 F7200 ; Move to next pattern
G1 Z0.45 F7200 ; Z hop return
G1 E0.8 F2100 ; Un-retract
SET_PRESSURE_ADVANCE ADVANCE=0.075 ; Set pressure advance
M117 PA 0.075
G1 X102.3634 Y104.22 E1.01546 F6000 ; Print pattern wall
G1 X81.1502 Y125.4332 E1.01546 F6000 ; Print pattern wall
G1 E-0.8 F2100 ; Retract
G1 Z0.85 F7200 ; Z hop
G0 X81.7259 Y83.0068 F7200 ; Move to start next pattern wall
G1 Z0.45 F7200 ; Z hop return
G1 E0.8 F2100 ; Un-retract
G1 X102.9391 Y104.22 E1.01546 F6000 ; Print pattern wall
G1 X81.7259 Y125.4332 E1.01546 F6000 ; Print pattern wall
G1 E-0.8 F2100 ; Retract
G1 Z0.85 F7200 ; Z hop
G0 X82.3016 Y83.0068 F7200 ; Move to start next pattern wall
G1 Z0.45 F7200 ; Z hop return
G1 E0.8 F2100 ; Un-retract
G1 X103.5148 Y104.22 E1.01546 F6000 ; Print pattern wall
G1 X82.3016 Y125.4332 E1.01546 F6000 ; Print pattern wall
G1 E-0.8 F2100 ; Retract
G1 Z0.85 F7200 ; Z hop
G0 X84.7516 Y83.0068 F7200 ; Move to next pattern
G1 Z0.45 F7200 ; Z hop return
G1 E0.8 F2100 ; Un-retract
SET_PRESSURE_ADVANCE ADVANCE=0.08 ; Set pressure advance
M117 PA 0.08
G1 X105.9648 Y104.22 E1.01546 F6000 ; Print pattern wall
G1 X84.7516 Y125.4332 E1.01546 F6000 ; Print pattern wall
G1 E-0.8 F2100 ; Retract
G1 Z0.85 F7200 ; Z hop
G0 X85.3273 Y83.0068 F7200 ; Move to start next pattern wall
G1 Z0.45 F7200 ; Z hop return
G1 E0.8 F2100 ; Un-retract
G1 X106.5405 Y104.22 E1.01546 F6000 ; Print pattern wall
G1 X85.3273 Y125.4332 E1.01546 F6000 ; Print pattern wall
G1 E-0.8 F2100 ; Retract
G1 Z0.85 F7200 ; Z hop
G0 X85.903 Y83.0068 F7200 ; Move to start next pattern wall
G1 Z0.45 F7200 ; Z hop return
G1 E0.8 F2100 ; Un-retract
G1 X107.1162 Y104.22 E1.01546 F6000 ; Print pattern wall
G1 X85.903 Y125.4332 E1.01546 F6000 ; Print pattern wall
G1 E-0.8 F2100 ; Retract
G1 Z0.85 F7200 ; Z hop
G0 X88.353 Y83.0068 F7200 ; Move to next pattern
G1 Z0.45 F7200 ; Z hop return
G1 E0.8 F2100 ; Un-retract
SET_PRESSURE_ADVANCE ADVANCE=0.085 ; Set pressure advance
M117 PA 0.085
G1 X109.5662 Y104.22 E1.01546 F6000 ; Print pattern wall
G1 X88.353 Y125.4332 E1.01546 F6000 ; Print pattern wall
G1 E-0.8 F2100 ; Retract
G1 Z0.85 F7200 ; Z hop
G0 X88.9287 Y83.0068 F7200 ; Move to start next pattern wall
G1 Z0.45 F7200 ; Z hop return
G1 E0.8 F2100 ; Un-retract
G1 X110.1419 Y104.22 E1.01546 F6000 ; Print pattern wall
G1 X88.9287 Y125.4332 E1.01546 F6000 ; Print pattern wall
G1 E-0.8 F2100 ; Retract
G1 Z0.85 F7200 ; Z hop
G0 X89.5044 Y83.0068 F7200 ; Move to start next pattern wall
G1 Z0.45 F7200 ; Z hop return
G1 E0.8 F2100 ; Un-retract
G1 X110.7176 Y104.22 E1.01546 F6000 ; Print pattern wall
G1 X89.5044 Y125.4332 E1.01546 F6000 ; Print pattern wall
G1 E-0.8 F2100 ; Retract
G1 Z0.85 F7200 ; Z hop
G0 X91.9544 Y83.0068 F7200 ; Move to next pattern
G1 Z0.45 F7200 ; Z hop return
G1 E0.8 F2100 ; Un-retract
SET_PRESSURE_ADVANCE ADVANCE=0.09 ; Set pressure advance
M117 PA 0.09
G1 X113.1676 Y104.22 E1.01546 F6000 ; Print pattern wall
G1 X91.9544 Y125.4332 E1.01546 F6000 ; Print pattern wall
G1 E-0.8 F2100 ; Retract
G1 Z0.85 F7200 ; Z hop
G0 X92.5301 Y83.0068 F7200 ; Move to start next pattern wall
G1 Z0.45 F7200 ; Z hop return
G1 E0.8 F2100 ; Un-retract
G1 X113.7433 Y104.22 E1.01546 F6000 ; Print pattern wall
G1 X92.5301 Y125.4332 E1.01546 F6000 ; Print pattern wall
G1 E-0.8 F2100 ; Retract
G1 Z0.85 F7200 ; Z hop
G0 X93.1058 Y83.0068 F7200 ; Move to start next pattern wall
G1 Z0.45 F7200 ; Z hop return
G1 E0.8 F2100 ; Un-retract
G1 X114.319 Y104.22 E1.01546 F6000 ; Print pattern wall
G1 X93.1058 Y125.4332 E1.01546 F6000 ; Print pattern wall
G1 E-0.8 F2100 ; Retract
G1 Z0.85 F7200 ; Z hop
G0 X95.5558 Y83.0068 F7200 ; Move to next pattern
G1 Z0.45 F7200 ; Z hop return
G1 E0.8 F2100 ; Un-retract
SET_PRESSURE_ADVANCE ADVANCE=0.095 ; Set pressure advance
M117 PA 0.095
G1 X116.769 Y104.22 E1.01546 F6000 ; Print pattern wall
G1 X95.5558 Y125.4332 E1.01546 F6000 ; Print pattern wall
G1 E-0.8 F2100 ; Retract
G1 Z0.85 F7200 ; Z hop
G0 X96.1315 Y83.0068 F7200 ; Move to start next pattern wall
G1 Z0.45 F7200 ; Z hop return
G1 E0.8 F2100 ; Un-retract
G1 X117.3447 Y104.22 E1.01546 F6000 ; Print pattern wall
G1 X96.1315 Y125.4332 E1.01546 F6000 ; Print pattern wall
G1 E-0.8 F2100 ; Retract
G1 Z0.85 F7200 ; Z hop
G0 X96.7072 Y83.0068 F7200 ; Move to start next pattern wall
G1 Z0.45 F7200 ; Z hop return
G1 E0.8 F2100 ; Un-retract
G1 X117.9204 Y104.22 E1.01546 F6000 ; Print pattern wall
G1 X96.7072 Y125.4332 E1.01546 F6000 ; Print pattern wall
G1 E-0.8 F2100 ; Retract
G1 Z0.85 F7200 ; Z hop
G0 X99.1572 Y83.0068 F7200 ; Move to next pattern
G1 Z0.45 F7200 ; Z hop return
G1 E0.8 F2100 ; Un-retract
SET_PRESSURE_ADVANCE ADVANCE=0.1 ; Set pressure advance
M117 PA 0.1
G1 X120.3704 Y104.22 E1.01546 F6000 ; Print pattern wall
G1 X99.1572 Y125.4332 E1.01546 F6000 ; Print pattern wall
G1 E-0.8 F2100 ; Retract
G1 Z0.85 F7200 ; Z hop
G0 X99.7329 Y83.0068 F7200 ; Move to start next pattern wall
G1 Z0.45 F7200 ; Z hop return
G1 E0.8 F2100 ; Un-retract
G1 X120.9461 Y104.22 E1.01546 F6000 ; Print pattern wall
G1 X99.7329 Y125.4332 E1.01546 F6000 ; Print pattern wall
G1 E-0.8 F2100 ; Retract
G1 Z0.85 F7200 ; Z hop
G0 X100.3085 Y83.0068 F7200 ; Move to start next pattern wall
G1 Z0.45 F7200 ; Z hop return
G1 E0.8 F2100 ; Un-retract
G1 X121.5218 Y104.22 E1.01546 F6000 ; Print pattern wall
G1 X100.3085 Y125.4332 E1.01546 F6000 ; Print pattern wall
G1 E-0.8 F2100 ; Retract
G1 Z0.85 F7200 ; Z hop
G0 X102.7585 Y83.0068 F7200 ; Move to next pattern
G1 Z0.45 F7200 ; Z hop return
G1 E0.8 F2100 ; Un-retract
SET_PRESSURE_ADVANCE ADVANCE=0.105 ; Set pressure advance
M117 PA 0.105
G1 X123.9718 Y104.22 E1.01546 F6000 ; Print pattern wall
G1 X102.7585 Y125.4332 E1.01546 F6000 ; Print pattern wall
G1 E-0.8 F2100 ; Retract
G1 Z0.85 F7200 ; Z hop
G0 X103.3342 Y83.0068 F7200 ; Move to start next pattern wall
G1 Z0.45 F7200 ; Z hop return
G1 E0.8 F2100 ; Un-retract
G1 X124.5474 Y104.22 E1.01546 F6000 ; Print pattern wall
G1 X103.3342 Y125.4332 E1.01546 F6000 ; Print pattern wall
G1 E-0.8 F2100 ; Retract
G1 Z0.85 F7200 ; Z hop
G0 X103.9099 Y83.0068 F7200 ; Move to start next pattern wall
G1 Z0.45 F7200 ; Z hop return
G1 E0.8 F2100 ; Un-retract
G1 X125.1231 Y104.22 E1.01546 F6000 ; Print pattern wall
G1 X103.9099 Y125.4332 E1.01546 F6000 ; Print pattern wall
G1 E-0.8 F2100 ; Retract
G1 Z0.85 F7200 ; Z hop
G0 X106.3599 Y83.0068 F7200 ; Move to next pattern
G1 Z0.45 F7200 ; Z hop return
G1 E0.8 F2100 ; Un-retract
SET_PRESSURE_ADVANCE ADVANCE=0.11 ; Set pressure advance
M117 PA 0.11
G1 X127.5731 Y104.22 E1.01546 F6000 ; Print pattern wall
G1 X106.3599 Y125.4332 E1.01546 F6000 ; Print pattern wall
G1 E-0.8 F2100 ; Retract
G1 Z0.85 F7200 ; Z hop
G0 X106.9356 Y83.0068 F7200 ; Move to start next pattern wall
G1 Z0.45 F7200 ; Z hop return
G1 E0.8 F2100 ; Un-retract
G1 X128.1488 Y104.22 E1.01546 F6000 ; Print pattern wall
G1 X106.9356 Y125.4332 E1.01546 F6000 ; Print pattern wall
G1 E-0.8 F2100 ; Retract
G1 Z0.85 F7200 ; Z hop
G0 X107.5113 Y83.0068 F7200 ; Move to start next pattern wall
G1 Z0.45 F7200 ; Z hop return
G1 E0.8 F2100 ; Un-retract
G1 X128.7245 Y104.22 E1.01546 F6000 ; Print pattern wall
G1 X107.5113 Y125.4332 E1.01546 F6000 ; Print pattern wall
G1 E-0.8 F2100 ; Retract
G1 Z0.85 F7200 ; Z hop
G0 X109.9613 Y83.0068 F7200 ; Move to next pattern
G1 Z0.45 F7200 ; Z hop return
G1 E0.8 F2100 ; Un-retract
SET_PRESSURE_ADVANCE ADVANCE=0.115 ; Set pressure advance
M117 PA 0.115
G1 X131.1745 Y104.22 E1.01546 F6000 ; Print pattern wall
G1 X109.9613 Y125.4332 E1.01546 F6000 ; Print pattern wall
G1 E-0.8 F2100 ; Retract
G1 Z0.85 F7200 ; Z hop
G0 X110.537 Y83.0068 F7200 ; Move to start next pattern wall
G1 Z0.45 F7200 ; Z hop return
G1 E0.8 F2100 ; Un-retract
G1 X131.7502 Y104.22 E1.01546 F6000 ; Print pattern wall
G1 X110.537 Y125.4332 E1.01546 F6000 ; Print pattern wall
G1 E-0.8 F2100 ; Retract
G1 Z0.85 F7200 ; Z hop
G0 X111.1127 Y83.0068 F7200 ; Move to start next pattern wall
G1 Z0.45 F7200 ; Z hop return
G1 E0.8 F2100 ; Un-retract
G1 X132.3259 Y104.22 E1.01546 F6000 ; Print pattern wall
G1 X111.1127 Y125.4332 E1.01546 F6000 ; Print pattern wall
G1 E-0.8 F2100 ; Retract
G1 Z0.85 F7200 ; Z hop
G0 X113.5627 Y83.0068 F7200 ; Move to next pattern
G1 Z0.45 F7200 ; Z hop return
G1 E0.8 F2100 ; Un-retract
SET_PRESSURE_ADVANCE ADVANCE=0.12 ; Set pressure advance
M117 PA 0.12
G1 X134.7759 Y104.22 E1.01546 F6000 ; Print pattern wall
G1 X113.5627 Y125.4332 E1.01546 F6000 ; Print pattern wall
G1 E-0.8 F2100 ; Retract
G1 Z0.85 F7200 ; Z hop
G0 X114.1384 Y83.0068 F7200 ; Move to start next pattern wall
G1 Z0.45 F7200 ; Z hop return
G1 E0.8 F2100 ; Un-retract
G1 X135.3516 Y104.22 E1.01546 F6000 ; Print pattern wall
G1 X114.1384 Y125.4332 E1.01546 F6000 ; Print pattern wall
G1 E-0.8 F2100 ; Retract
G1 Z0.85 F7200 ; Z hop
G0 X114.7141 Y83.0068 F7200 ; Move to start next pattern wall
G1 Z0.45 F7200 ; Z hop return
G1 E0.8 F2100 ; Un-retract
G1 X135.9273 Y104.22 E1.01546 F6000 ; Print pattern wall
G1 X114.7141 Y125.4332 E1.01546 F6000 ; Print pattern wall
G1 E-0.8 F2100 ; Retract
G1 Z0.85 F7200 ; Z hop
G0 X117.1641 Y83.0068 F7200 ; Move to next pattern
G1 Z0.45 F7200 ; Z hop return
G1 E0.8 F2100 ; Un-retract
SET_PRESSURE_ADVANCE ADVANCE=0.125 ; Set pressure advance
M117 PA 0.125
G1 X138.3773 Y104.22 E1.01546 F6000 ; Print pattern wall
G1 X117.1641 Y125.4332 E1.01546 F6000 ; Print pattern wall
G1 E-0.8 F2100 ; Retract
G1 Z0.85 F7200 ; Z hop
G0 X117.7398 Y83.0068 F7200 ; Move to start next pattern wall
G1 Z0.45 F7200 ; Z hop return
G1 E0.8 F2100 ; Un-retract
G1 X138.953 Y104.22 E1.01546 F6000 ; Print pattern wall
G1 X117.7398 Y125.4332 E1.01546 F6000 ; Print pattern wall
G1 E-0.8 F2100 ; Retract
G1 Z0.85 F7200 ; Z hop
G0 X118.3155 Y83.0068 F7200 ; Move to start next pattern wall
G1 Z0.45 F7200 ; Z hop return
G1 E0.8 F2100 ; Un-retract
G1 X139.5287 Y104.22 E1.01546 F6000 ; Print pattern wall
G1 X118.3155 Y125.4332 E1.01546 F6000 ; Print pattern wall
G1 E-0.8 F2100 ; Retract
G1 Z0.85 F7200 ; Z hop
G0 X120.7655 Y83.0068 F7200 ; Move to next pattern
G1 Z0.45 F7200 ; Z hop return
G1 E0.8 F2100 ; Un-retract
SET_PRESSURE_ADVANCE ADVANCE=0.13 ; Set pressure advance
M117 PA 0.13
G1 X141.9787 Y104.22 E1.01546 F6000 ; Print pattern wall
G1 X120.7655 Y125.4332 E1.01546 F6000 ; Print pattern wall
G1 E-0.8 F2100 ; Retract
G1 Z0.85 F7200 ; Z hop
G0 X121.3412 Y83.0068 F7200 ; Move to start next pattern wall
G1 Z0.45 F7200 ; Z hop return
G1 E0.8 F2100 ; Un-retract
G1 X142.5544 Y104.22 E1.01546 F6000 ; Print pattern wall
G1 X121.3412 Y125.4332 E1.01546 F6000 ; Print pattern wall
G1 E-0.8 F2100 ; Retract
G1 Z0.85 F7200 ; Z hop
G0 X121.9169 Y83.0068 F7200 ; Move to start next pattern wall
G1 Z0.45 F7200 ; Z hop return
G1 E0.8 F2100 ; Un-retract
G1 X143.1301 Y104.22 E1.01546 F6000 ; Print pattern wall
G1 X121.9169 Y125.4332 E1.01546 F6000 ; Print pattern wall
G1 E-0.8 F2100 ; Retract
G1 Z0.85 F7200 ; Z hop
G0 X124.3669 Y83.0068 F7200 ; Move to next pattern
G1 Z0.45 F7200 ; Z hop return
G1 E0.8 F2100 ; Un-retract
SET_PRESSURE_ADVANCE ADVANCE=0.135 ; Set pressure advance
M117 PA 0.135
G1 X145.5801 Y104.22 E1.01546 F6000 ; Print pattern wall
G1 X124.3669 Y125.4332 E1.01546 F6000 ; Print pattern wall
G1 E-0.8 F2100 ; Retract
G1 Z0.85 F7200 ; Z hop
G0 X124.9426 Y83.0068 F7200 ; Move to start next pattern wall
G1 Z0.45 F7200 ; Z hop return
G1 E0.8 F2100 ; Un-retract
G1 X146.1558 Y104.22 E1.01546 F6000 ; Print pattern wall
G1 X124.9426 Y125.4332 E1.01546 F6000 ; Print pattern wall
G1 E-0.8 F2100 ; Retract
G1 Z0.85 F7200 ; Z hop
G0 X125.5183 Y83.0068 F7200 ; Move to start next pattern wall
G1 Z0.45 F7200 ; Z hop return
G1 E0.8 F2100 ; Un-retract
G1 X146.7315 Y104.22 E1.01546 F6000 ; Print pattern wall
G1 X125.5183 Y125.4332 E1.01546 F6000 ; Print pattern wall
G1 E-0.8 F2100 ; Retract
G1 Z0.85 F7200 ; Z hop
G0 X127.9683 Y83.0068 F7200 ; Move to next pattern
G1 Z0.45 F7200 ; Z hop return
G1 E0.8 F2100 ; Un-retract
SET_PRESSURE_ADVANCE ADVANCE=0.14 ; Set pressure advance
M117 PA 0.14
G1 X149.1815 Y104.22 E1.01546 F6000 ; Print pattern wall
G1 X127.9683 Y125.4332 E1.01546 F6000 ; Print pattern wall
G1 E-0.8 F2100 ; Retract
G1 Z0.85 F7200 ; Z hop
G0 X128.544 Y83.0068 F7200 ; Move to start next pattern wall
G1 Z0.45 F7200 ; Z hop return
G1 E0.8 F2100 ; Un-retract
G1 X149.7572 Y104.22 E1.01546 F6000 ; Print pattern wall
G1 X128.544 Y125.4332 E1.01546 F6000 ; Print pattern wall
G1 E-0.8 F2100 ; Retract
G1 Z0.85 F7200 ; Z hop
G0 X129.1197 Y83.0068 F7200 ; Move to start next pattern wall
G1 Z0.45 F7200 ; Z hop return
G1 E0.8 F2100 ; Un-retract
G1 X150.3329 Y104.22 E1.01546 F6000 ; Print pattern wall
G1 X129.1197 Y125.4332 E1.01546 F6000 ; Print pattern wall
G1 E-0.8 F2100 ; Retract
G1 Z0.85 F7200 ; Z hop
G0 X131.5697 Y83.0068 F7200 ; Move to next pattern
G1 Z0.45 F7200 ; Z hop return
G1 E0.8 F2100 ; Un-retract
SET_PRESSURE_ADVANCE ADVANCE=0.145 ; Set pressure advance
M117 PA 0.145
G1 X152.7829 Y104.22 E1.01546 F6000 ; Print pattern wall
G1 X131.5697 Y125.4332 E1.01546 F6000 ; Print pattern wall
G1 E-0.8 F2100 ; Retract
G1 Z0.85 F7200 ; Z hop
G0 X132.1454 Y83.0068 F7200 ; Move to start next pattern wall
G1 Z0.45 F7200 ; Z hop return
G1 E0.8 F2100 ; Un-retract
G1 X153.3586 Y104.22 E1.01546 F6000 ; Print pattern wall
G1 X132.1454 Y125.4332 E1.01546 F6000 ; Print pattern wall
G1 E-0.8 F2100 ; Retract
G1 Z0.85 F7200 ; Z hop
G0 X132.7211 Y83.0068 F7200 ; Move to start next pattern wall
G1 Z0.45 F7200 ; Z hop return
G1 E0.8 F2100 ; Un-retract
G1 X153.9343 Y104.22 E1.01546 F6000 ; Print pattern wall
G1 X132.7211 Y125.4332 E1.01546 F6000 ; Print pattern wall
G1 E-0.8 F2100 ; Retract
G1 Z0.85 F7200 ; Z hop
G0 X135.1711 Y83.0068 F7200 ; Move to next pattern
G1 Z0.45 F7200 ; Z hop return
G1 E0.8 F2100 ; Un-retract
SET_PRESSURE_ADVANCE ADVANCE=0.15 ; Set pressure advance
M117 PA 0.15
G1 X156.3843 Y104.22 E1.01546 F6000 ; Print pattern wall
G1 X135.1711 Y125.4332 E1.01546 F6000 ; Print pattern wall
G1 E-0.8 F2100 ; Retract
G1 Z0.85 F7200 ; Z hop
G0 X135.7468 Y83.0068 F7200 ; Move to start next pattern wall
G1 Z0.45 F7200 ; Z hop return
G1 E0.8 F2100 ; Un-retract
G1 X156.96 Y104.22 E1.01546 F6000 ; Print pattern wall
G1 X135.7468 Y125.4332 E1.01546 F6000 ; Print pattern wall
G1 E-0.8 F2100 ; Retract
G1 Z0.85 F7200 ; Z hop
G0 X136.3225 Y83.0068 F7200 ; Move to start next pattern wall
G1 Z0.45 F7200 ; Z hop return
G1 E0.8 F2100 ; Un-retract
G1 X157.5357 Y104.22 E1.01546 F6000 ; Print pattern wall
G1 X136.3225 Y125.4332 E1.01546 F6000 ; Print pattern wall
G1 E-0.8 F2100 ; Retract
G1 Z0.85 F7200 ; Z hop
G0 X63.1432 Y83.0068 F7200 ; Move back to start position
G1 Z0.45 F7200 ; Z hop return
G1 E0.8 F2100 ; Un-retract
G0 Z0.65 F7200 ; Move to layer height
SET_PRESSURE_ADVANCE ADVANCE=0.05 ; Set pressure advance
M117 PA 0.05
G1 X84.3564 Y104.22 E1.01546 F6000 ; Print pattern wall
G1 X63.1432 Y125.4332 E1.01546 F6000 ; Print pattern wall
G1 E-0.8 F2100 ; Retract
G1 Z1.05 F7200 ; Z hop
G0 X63.7189 Y83.0068 F7200 ; Move to start next pattern wall
G1 Z0.65 F7200 ; Z hop return
G1 E0.8 F2100 ; Un-retract
G1 X84.9321 Y104.22 E1.01546 F6000 ; Print pattern wall
G1 X63.7189 Y125.4332 E1.01546 F6000 ; Print pattern wall
G1 E-0.8 F2100 ; Retract
G1 Z1.05 F7200 ; Z hop
G0 X64.2946 Y83.0068 F7200 ; Move to start next pattern wall
G1 Z0.65 F7200 ; Z hop return
G1 E0.8 F2100 ; Un-retract
G1 X85.5078 Y104.22 E1.01546 F6000 ; Print pattern wall
G1 X64.2946 Y125.4332 E1.01546 F6000 ; Print pattern wall
G1 E-0.8 F2100 ; Retract
G1 Z1.05 F7200 ; Z hop
G0 X66.7446 Y83.0068 F7200 ; Move to next pattern
G1 Z0.65 F7200 ; Z hop return
G1 E0.8 F2100 ; Un-retract
SET_PRESSURE_ADVANCE ADVANCE=0.055 ; Set pressure advance
M117 PA 0.055
G1 X87.9578 Y104.22 E1.01546 F6000 ; Print pattern wall
G1 X66.7446 Y125.4332 E1.01546 F6000 ; Print pattern wall
G1 E-0.8 F2100 ; Retract
G1 Z1.05 F7200 ; Z hop
G0 X67.3203 Y83.0068 F7200 ; Move to start next pattern wall
G1 Z0.65 F7200 ; Z hop return
G1 E0.8 F2100 ; Un-retract
G1 X88.5335 Y104.22 E1.01546 F6000 ; Print pattern wall
G1 X67.3203 Y125.4332 E1.01546 F6000 ; Print pattern wall
G1 E-0.8 F2100 ; Retract
G1 Z1.05 F7200 ; Z hop
G0 X67.896 Y83.0068 F7200 ; Move to start next pattern wall
G1 Z0.65 F7200 ; Z hop return
G1 E0.8 F2100 ; Un-retract
G1 X89.1092 Y104.22 E1.01546 F6000 ; Print pattern wall
G1 X67.896 Y125.4332 E1.01546 F6000 ; Print pattern wall
G1 E-0.8 F2100 ; Retract
G1 Z1.05 F7200 ; Z hop
G0 X70.346 Y83.0068 F7200 ; Move to next pattern
G1 Z0.65 F7200 ; Z hop return
G1 E0.8 F2100 ; Un-retract
SET_PRESSURE_ADVANCE ADVANCE=0.06 ; Set pressure advance
M117 PA 0.06
G1 X91.5592 Y104.22 E1.01546 F6000 ; Print pattern wall
G1 X70.346 Y125.4332 E1.01546 F6000 ; Print pattern wall
G1 E-0.8 F2100 ; Retract
G1 Z1.05 F7200 ; Z hop
G0 X70.9217 Y83.0068 F7200 ; Move to start next pattern wall
G1 Z0.65 F7200 ; Z hop return
G1 E0.8 F2100 ; Un-retract
G1 X92.1349 Y104.22 E1.01546 F6000 ; Print pattern wall
G1 X70.9217 Y125.4332 E1.01546 F6000 ; Print pattern wall
G1 E-0.8 F2100 ; Retract
G1 Z1.05 F7200 ; Z hop
G0 X71.4974 Y83.0068 F7200 ; Move to start next pattern wall
G1 Z0.65 F7200 ; Z hop return
G1 E0.8 F2100 ; Un-retract
G1 X92.7106 Y104.22 E1.01546 F6000 ; Print pattern wall
G1 X71.4974 Y125.4332 E1.01546 F6000 ; Print pattern wall
G1 E-0.8 F2100 ; Retract
G1 Z1.05 F7200 ; Z hop
G0 X73.9474 Y83.0068 F7200 ; Move to next pattern
G1 Z0.65 F7200 ; Z hop return
G1 E0.8 F2100 ; Un-retract
SET_PRESSURE_ADVANCE ADVANCE=0.065 ; Set pressure advance
M117 PA 0.065
G1 X95.1606 Y104.22 E1.01546 F6000 ; Print pattern wall
G1 X73.9474 Y125.4332 E1.01546 F6000 ; Print pattern wall
G1 E-0.8 F2100 ; Retract
G1 Z1.05 F7200 ; Z hop
G0 X74.5231 Y83.0068 F7200 ; Move to start next pattern wall
G1 Z0.65 F7200 ; Z hop return
G1 E0.8 F2100 ; Un-retract
G1 X95.7363 Y104.22 E1.01546 F6000 ; Print pattern wall
G1 X74.5231 Y125.4332 E1.01546 F6000 ; Print pattern wall
G1 E-0.8 F2100 ; Retract
G1 Z1.05 F7200 ; Z hop
G0 X75.0988 Y83.0068 F7200 ; Move to start next pattern wall
G1 Z0.65 F7200 ; Z hop return
G1 E0.8 F2100 ; Un-retract
G1 X96.312 Y104.22 E1.01546 F6000 ; Print pattern wall
G1 X75.0988 Y125.4332 E1.01546 F6000 ; Print pattern wall
G1 E-0.8 F2100 ; Retract
G1 Z1.05 F7200 ; Z hop
G0 X77.5488 Y83.0068 F7200 ; Move to next pattern
G1 Z0.65 F7200 ; Z hop return
G1 E0.8 F2100 ; Un-retract
SET_PRESSURE_ADVANCE ADVANCE=0.07 ; Set pressure advance
M117 PA 0.07
G1 X98.762 Y104.22 E1.01546 F6000 ; Print pattern wall
G1 X77.5488 Y125.4332 E1.01546 F6000 ; Print pattern wall
G1 E-0.8 F2100 ; Retract
G1 Z1.05 F7200 ; Z hop
G0 X78.1245 Y83.0068 F7200 ; Move to start next pattern wall
G1 Z0.65 F7200 ; Z hop return
G1 E0.8 F2100 ; Un-retract
G1 X99.3377 Y104.22 E1.01546 F6000 ; Print pattern wall
G1 X78.1245 Y125.4332 E1.01546 F6000 ; Print pattern wall
G1 E-0.8 F2100 ; Retract
G1 Z1.05 F7200 ; Z hop
G0 X78.7002 Y83.0068 F7200 ; Move to start next pattern wall
G1 Z0.65 F7200 ; Z hop return
G1 E0.8 F2100 ; Un-retract
G1 X99.9134 Y104.22 E1.01546 F6000 ; Print pattern wall
G1 X78.7002 Y125.4332 E1.01546 F6000 ; Print pattern wall
G1 E-0.8 F2100 ; Retract
G1 Z1.05 F7200 ; Z hop
G0 X81.1502 Y83.0068 F7200 ; Move to next pattern
G1 Z0.65 F7200 ; Z hop return
G1 E0.8 F2100 ; Un-retract
SET_PRESSURE_ADVANCE ADVANCE=0.075 ; Set pressure advance
M117 PA 0.075
G1 X102.3634 Y104.22 E1.01546 F6000 ; Print pattern wall
G1 X81.1502 Y125.4332 E1.01546 F6000 ; Print pattern wall
G1 E-0.8 F2100 ; Retract
G1 Z1.05 F7200 ; Z hop
G0 X81.7259 Y83.0068 F7200 ; Move to start next pattern wall
G1 Z0.65 F7200 ; Z hop return
G1 E0.8 F2100 ; Un-retract
G1 X102.9391 Y104.22 E1.01546 F6000 ; Print pattern wall
G1 X81.7259 Y125.4332 E1.01546 F6000 ; Print pattern wall
G1 E-0.8 F2100 ; Retract
G1 Z1.05 F7200 ; Z hop
G0 X82.3016 Y83.0068 F7200 ; Move to start next pattern wall
G1 Z0.65 F7200 ; Z hop return
G1 E0.8 F2100 ; Un-retract
G1 X103.5148 Y104.22 E1.01546 F6000 ; Print pattern wall
G1 X82.3016 Y125.4332 E1.01546 F6000 ; Print pattern wall
G1 E-0.8 F2100 ; Retract
G1 Z1.05 F7200 ; Z hop
G0 X84.7516 Y83.0068 F7200 ; Move to next pattern
G1 Z0.65 F7200 ; Z hop return
G1 E0.8 F2100 ; Un-retract
SET_PRESSURE_ADVANCE ADVANCE=0.08 ; Set pressure advance
M117 PA 0.08
G1 X105.9648 Y104.22 E1.01546 F6000 ; Print pattern wall
G1 X84.7516 Y125.4332 E1.01546 F6000 ; Print pattern wall
G1 E-0.8 F2100 ; Retract
G1 Z1.05 F7200 ; Z hop
G0 X85.3273 Y83.0068 F7200 ; Move to start next pattern wall
G1 Z0.65 F7200 ; Z hop return
G1 E0.8 F2100 ; Un-retract
G1 X106.5405 Y104.22 E1.01546 F6000 ; Print pattern wall
G1 X85.3273 Y125.4332 E1.01546 F6000 ; Print pattern wall
G1 E-0.8 F2100 ; Retract
G1 Z1.05 F7200 ; Z hop
G0 X85.903 Y83.0068 F7200 ; Move to start next pattern wall
G1 Z0.65 F7200 ; Z hop return
G1 E0.8 F2100 ; Un-retract
G1 X107.1162 Y104.22 E1.01546 F6000 ; Print pattern wall
G1 X85.903 Y125.4332 E1.01546 F6000 ; Print pattern wall
G1 E-0.8 F2100 ; Retract
G1 Z1.05 F7200 ; Z hop
G0 X88.353 Y83.0068 F7200 ; Move to next pattern
G1 Z0.65 F7200 ; Z hop return
G1 E0.8 F2100 ; Un-retract
SET_PRESSURE_ADVANCE ADVANCE=0.085 ; Set pressure advance
M117 PA 0.085
G1 X109.5662 Y104.22 E1.01546 F6000 ; Print pattern wall
G1 X88.353 Y125.4332 E1.01546 F6000 ; Print pattern wall
G1 E-0.8 F2100 ; Retract
G1 Z1.05 F7200 ; Z hop
G0 X88.9287 Y83.0068 F7200 ; Move to start next pattern wall
G1 Z0.65 F7200 ; Z hop return
G1 E0.8 F2100 ; Un-retract
G1 X110.1419 Y104.22 E1.01546 F6000 ; Print pattern wall
G1 X88.9287 Y125.4332 E1.01546 F6000 ; Print pattern wall
G1 E-0.8 F2100 ; Retract
G1 Z1.05 F7200 ; Z hop
G0 X89.5044 Y83.0068 F7200 ; Move to start next pattern wall
G1 Z0.65 F7200 ; Z hop return
G1 E0.8 F2100 ; Un-retract
G1 X110.7176 Y104.22 E1.01546 F6000 ; Print pattern wall
G1 X89.5044 Y125.4332 E1.01546 F6000 ; Print pattern wall
G1 E-0.8 F2100 ; Retract
G1 Z1.05 F7200 ; Z hop
G0 X91.9544 Y83.0068 F7200 ; Move to next pattern
G1 Z0.65 F7200 ; Z hop return
G1 E0.8 F2100 ; Un-retract
SET_PRESSURE_ADVANCE ADVANCE=0.09 ; Set pressure advance
M117 PA 0.09
G1 X113.1676 Y104.22 E1.01546 F6000 ; Print pattern wall
G1 X91.9544 Y125.4332 E1.01546 F6000 ; Print pattern wall
G1 E-0.8 F2100 ; Retract
G1 Z1.05 F7200 ; Z hop
G0 X92.5301 Y83.0068 F7200 ; Move to start next pattern wall
G1 Z0.65 F7200 ; Z hop return
G1 E0.8 F2100 ; Un-retract
G1 X113.7433 Y104.22 E1.01546 F6000 ; Print pattern wall
G1 X92.5301 Y125.4332 E1.01546 F6000 ; Print pattern wall
G1 E-0.8 F2100 ; Retract
G1 Z1.05 F7200 ; Z hop
G0 X93.1058 Y83.0068 F7200 ; Move to start next pattern wall
G1 Z0.65 F7200 ; Z hop return
G1 E0.8 F2100 ; Un-retract
G1 X114.319 Y104.22 E1.01546 F6000 ; Print pattern wall
G1 X93.1058 Y125.4332 E1.01546 F6000 ; Print pattern wall
G1 E-0.8 F2100 ; Retract
G1 Z1.05 F7200 ; Z hop
G0 X95.5558 Y83.0068 F7200 ; Move to next pattern
G1 Z0.65 F7200 ; Z hop return
G1 E0.8 F2100 ; Un-retract
SET_PRESSURE_ADVANCE ADVANCE=0.095 ; Set pressure advance
M117 PA 0.095
G1 X116.769 Y104.22 E1.01546 F6000 ; Print pattern wall
G1 X95.5558 Y125.4332 E1.01546 F6000 ; Print pattern wall
G1 E-0.8 F2100 ; Retract
G1 Z1.05 F7200 ; Z hop
G0 X96.1315 Y83.0068 F7200 ; Move to start next pattern wall
G1 Z0.65 F7200 ; Z hop return
G1 E0.8 F2100 ; Un-retract
G1 X117.3447 Y104.22 E1.01546 F6000 ; Print pattern wall
G1 X96.1315 Y125.4332 E1.01546 F6000 ; Print pattern wall
G1 E-0.8 F2100 ; Retract
G1 Z1.05 F7200 ; Z hop
G0 X96.7072 Y83.0068 F7200 ; Move to start next pattern wall
G1 Z0.65 F7200 ; Z hop return
G1 E0.8 F2100 ; Un-retract
G1 X117.9204 Y104.22 E1.01546 F6000 ; Print pattern wall
G1 X96.7072 Y125.4332 E1.01546 F6000 ; Print pattern wall
G1 E-0.8 F2100 ; Retract
G1 Z1.05 F7200 ; Z hop
G0 X99.1572 Y83.0068 F7200 ; Move to next pattern
G1 Z0.65 F7200 ; Z hop return
G1 E0.8 F2100 ; Un-retract
SET_PRESSURE_ADVANCE ADVANCE=0.1 ; Set pressure advance
M117 PA 0.1
G1 X120.3704 Y104.22 E1.01546 F6000 ; Print pattern wall
G1 X99.1572 Y125.4332 E1.01546 F6000 ; Print pattern wall
G1 E-0.8 F2100 ; Retract
G1 Z1.05 F7200 ; Z hop
G0 X99.7329 Y83.0068 F7200 ; Move to start next pattern wall
G1 Z0.65 F7200 ; Z hop return
G1 E0.8 F2100 ; Un-retract
G1 X120.9461 Y104.22 E1.01546 F6000 ; Print pattern wall
G1 X99.7329 Y125.4332 E1.01546 F6000 ; Print pattern wall
G1 E-0.8 F2100 ; Retract
G1 Z1.05 F7200 ; Z hop
G0 X100.3085 Y83.0068 F7200 ; Move to start next pattern wall
G1 Z0.65 F7200 ; Z hop return
G1 E0.8 F2100 ; Un-retract
G1 X121.5218 Y104.22 E1.01546 F6000 ; Print pattern wall
G1 X100.3085 Y125.4332 E1.01546 F6000 ; Print pattern wall
G1 E-0.8 F2100 ; Retract
G1 Z1.05 F7200 ; Z hop
G0 X102.7585 Y83.0068 F7200 ; Move to next pattern
G1 Z0.65 F7200 ; Z hop return
G1 E0.8 F2100 ; Un-retract
SET_PRESSURE_ADVANCE ADVANCE=0.105 ; Set pressure advance
M117 PA 0.105
G1 X123.9718 Y104.22 E1.01546 F6000 ; Print pattern wall
G1 X102.7585 Y125.4332 E1.01546 F6000 ; Print pattern wall
G1 E-0.8 F2100 ; Retract
G1 Z1.05 F7200 ; Z hop
G0 X103.3342 Y83.0068 F7200 ; Move to start next pattern wall
G1 Z0.65 F7200 ; Z hop return
G1 E0.8 F2100 ; Un-retract
G1 X124.5474 Y104.22 E1.01546 F6000 ; Print pattern wall
G1 X103.3342 Y125.4332 E1.01546 F6000 ; Print pattern wall
G1 E-0.8 F2100 ; Retract
G1 Z1.05 F7200 ; Z hop
G0 X103.9099 Y83.0068 F7200 ; Move to start next pattern wall
G1 Z0.65 F7200 ; Z hop return
G1 E0.8 F2100 ; Un-retract
G1 X125.1231 Y104.22 E1.01546 F6000 ; Print pattern wall
G1 X103.9099 Y125.4332 E1.01546 F6000 ; Print pattern wall
G1 E-0.8 F2100 ; Retract
G1 Z1.05 F7200 ; Z hop
G0 X106.3599 Y83.0068 F7200 ; Move to next pattern
G1 Z0.65 F7200 ; Z hop return
G1 E0.8 F2100 ; Un-retract
SET_PRESSURE_ADVANCE ADVANCE=0.11 ; Set pressure advance
M117 PA 0.11
G1 X127.5731 Y104.22 E1.01546 F6000 ; Print pattern wall
G1 X106.3599 Y125.4332 E1.01546 F6000 ; Print pattern wall
G1 E-0.8 F2100 ; Retract
G1 Z1.05 F7200 ; Z hop
G0 X106.9356 Y83.0068 F7200 ; Move to start next pattern wall
G1 Z0.65 F7200 ; Z hop return
G1 E0.8 F2100 ; Un-retract
G1 X128.1488 Y104.22 E1.01546 F6000 ; Print pattern wall
G1 X106.9356 Y125.4332 E1.01546 F6000 ; Print pattern wall
G1 E-0.8 F2100 ; Retract
G1 Z1.05 F7200 ; Z hop
G0 X107.5113 Y83.0068 F7200 ; Move to start next pattern wall
G1 Z0.65 F7200 ; Z hop return
G1 E0.8 F2100 ; Un-retract
G1 X128.7245 Y104.22 E1.01546 F6000 ; Print pattern wall
G1 X107.5113 Y125.4332 E1.01546 F6000 ; Print pattern wall
G1 E-0.8 F2100 ; Retract
G1 Z1.05 F7200 ; Z hop
G0 X109.9613 Y83.0068 F7200 ; Move to next pattern
G1 Z0.65 F7200 ; Z hop return
G1 E0.8 F2100 ; Un-retract
SET_PRESSURE_ADVANCE ADVANCE=0.115 ; Set pressure advance
M117 PA 0.115
G1 X131.1745 Y104.22 E1.01546 F6000 ; Print pattern wall
G1 X109.9613 Y125.4332 E1.01546 F6000 ; Print pattern wall
G1 E-0.8 F2100 ; Retract
G1 Z1.05 F7200 ; Z hop
G0 X110.537 Y83.0068 F7200 ; Move to start next pattern wall
G1 Z0.65 F7200 ; Z hop return
G1 E0.8 F2100 ; Un-retract
G1 X131.7502 Y104.22 E1.01546 F6000 ; Print pattern wall
G1 X110.537 Y125.4332 E1.01546 F6000 ; Print pattern wall
G1 E-0.8 F2100 ; Retract
G1 Z1.05 F7200 ; Z hop
G0 X111.1127 Y83.0068 F7200 ; Move to start next pattern wall
G1 Z0.65 F7200 ; Z hop return
G1 E0.8 F2100 ; Un-retract
G1 X132.3259 Y104.22 E1.01546 F6000 ; Print pattern wall
G1 X111.1127 Y125.4332 E1.01546 F6000 ; Print pattern wall
G1 E-0.8 F2100 ; Retract
G1 Z1.05 F7200 ; Z hop
G0 X113.5627 Y83.0068 F7200 ; Move to next pattern
G1 Z0.65 F7200 ; Z hop return
G1 E0.8 F2100 ; Un-retract
SET_PRESSURE_ADVANCE ADVANCE=0.12 ; Set pressure advance
M117 PA 0.12
G1 X134.7759 Y104.22 E1.01546 F6000 ; Print pattern wall
G1 X113.5627 Y125.4332 E1.01546 F6000 ; Print pattern wall
G1 E-0.8 F2100 ; Retract
G1 Z1.05 F7200 ; Z hop
G0 X114.1384 Y83.0068 F7200 ; Move to start next pattern wall
G1 Z0.65 F7200 ; Z hop return
G1 E0.8 F2100 ; Un-retract
G1 X135.3516 Y104.22 E1.01546 F6000 ; Print pattern wall
G1 X114.1384 Y125.4332 E1.01546 F6000 ; Print pattern wall
G1 E-0.8 F2100 ; Retract
G1 Z1.05 F7200 ; Z hop
G0 X114.7141 Y83.0068 F7200 ; Move to start next pattern wall
G1 Z0.65 F7200 ; Z hop return
G1 E0.8 F2100 ; Un-retract
G1 X135.9273 Y104.22 E1.01546 F6000 ; Print pattern wall
G1 X114.7141 Y125.4332 E1.01546 F6000 ; Print pattern wall
G1 E-0.8 F2100 ; Retract
G1 Z1.05 F7200 ; Z hop
G0 X117.1641 Y83.0068 F7200 ; Move to next pattern
G1 Z0.65 F7200 ; Z hop return
G1 E0.8 F2100 ; Un-retract
SET_PRESSURE_ADVANCE ADVANCE=0.125 ; Set pressure advance
M117 PA 0.125
G1 X138.3773 Y104.22 E1.01546 F6000 ; Print pattern wall
G1 X117.1641 Y125.4332 E1.01546 F6000 ; Print pattern wall
G1 E-0.8 F2100 ; Retract
G1 Z1.05 F7200 ; Z hop
G0 X117.7398 Y83.0068 F7200 ; Move to start next pattern wall
G1 Z0.65 F7200 ; Z hop return
G1 E0.8 F2100 ; Un-retract
G1 X138.953 Y104.22 E1.01546 F6000 ; Print pattern wall
G1 X117.7398 Y125.4332 E1.01546 F6000 ; Print pattern wall
G1 E-0.8 F2100 ; Retract
G1 Z1.05 F7200 ; Z hop
G0 X118.3155 Y83.0068 F7200 ; Move to start next pattern wall
G1 Z0.65 F7200 ; Z hop return
G1 E0.8 F2100 ; Un-retract
G1 X139.5287 Y104.22 E1.01546 F6000 ; Print pattern wall
G1 X118.3155 Y125.4332 E1.01546 F6000 ; Print pattern wall
G1 E-0.8 F2100 ; Retract
G1 Z1.05 F7200 ; Z hop
G0 X120.7655 Y83.0068 F7200 ; Move to next pattern
G1 Z0.65 F7200 ; Z hop return
G1 E0.8 F2100 ; Un-retract
SET_PRESSURE_ADVANCE ADVANCE=0.13 ; Set pressure advance
M117 PA 0.13
G1 X141.9787 Y104.22 E1.01546 F6000 ; Print pattern wall
G1 X120.7655 Y125.4332 E1.01546 F6000 ; Print pattern wall
G1 E-0.8 F2100 ; Retract
G1 Z1.05 F7200 ; Z hop
G0 X121.3412 Y83.0068 F7200 ; Move to start next pattern wall
G1 Z0.65 F7200 ; Z hop return
G1 E0.8 F2100 ; Un-retract
G1 X142.5544 Y104.22 E1.01546 F6000 ; Print pattern wall
G1 X121.3412 Y125.4332 E1.01546 F6000 ; Print pattern wall
G1 E-0.8 F2100 ; Retract
G1 Z1.05 F7200 ; Z hop
G0 X121.9169 Y83.0068 F7200 ; Move to start next pattern wall
G1 Z0.65 F7200 ; Z hop return
G1 E0.8 F2100 ; Un-retract
G1 X143.1301 Y104.22 E1.01546 F6000 ; Print pattern wall
G1 X121.9169 Y125.4332 E1.01546 F6000 ; Print pattern wall
G1 E-0.8 F2100 ; Retract
G1 Z1.05 F7200 ; Z hop
G0 X124.3669 Y83.0068 F7200 ; Move to next pattern
G1 Z0.65 F7200 ; Z hop return
G1 E0.8 F2100 ; Un-retract
SET_PRESSURE_ADVANCE ADVANCE=0.135 ; Set pressure advance
M117 PA 0.135
G1 X145.5801 Y104.22 E1.01546 F6000 ; Print pattern wall
G1 X124.3669 Y125.4332 E1.01546 F6000 ; Print pattern wall
G1 E-0.8 F2100 ; Retract
G1 Z1.05 F7200 ; Z hop
G0 X124.9426 Y83.0068 F7200 ; Move to start next pattern wall
G1 Z0.65 F7200 ; Z hop return
G1 E0.8 F2100 ; Un-retract
G1 X146.1558 Y104.22 E1.01546 F6000 ; Print pattern wall
G1 X124.9426 Y125.4332 E1.01546 F6000 ; Print pattern wall
G1 E-0.8 F2100 ; Retract
G1 Z1.05 F7200 ; Z hop
G0 X125.5183 Y83.0068 F7200 ; Move to start next pattern wall
G1 Z0.65 F7200 ; Z hop return
G1 E0.8 F2100 ; Un-retract
G1 X146.7315 Y104.22 E1.01546 F6000 ; Print pattern wall
G1 X125.5183 Y125.4332 E1.01546 F6000 ; Print pattern wall
G1 E-0.8 F2100 ; Retract
G1 Z1.05 F7200 ; Z hop
G0 X127.9683 Y83.0068 F7200 ; Move to next pattern
G1 Z0.65 F7200 ; Z hop return
G1 E0.8 F2100 ; Un-retract
SET_PRESSURE_ADVANCE ADVANCE=0.14 ; Set pressure advance
M117 PA 0.14
G1 X149.1815 Y104.22 E1.01546 F6000 ; Print pattern wall
G1 X127.9683 Y125.4332 E1.01546 F6000 ; Print pattern wall
G1 E-0.8 F2100 ; Retract
G1 Z1.05 F7200 ; Z hop
G0 X128.544 Y83.0068 F7200 ; Move to start next pattern wall
G1 Z0.65 F7200 ; Z hop return
G1 E0.8 F2100 ; Un-retract
G1 X149.7572 Y104.22 E1.01546 F6000 ; Print pattern wall
G1 X128.544 Y125.4332 E1.01546 F6000 ; Print pattern wall
G1 E-0.8 F2100 ; Retract
G1 Z1.05 F7200 ; Z hop
G0 X129.1197 Y83.0068 F7200 ; Move to start next pattern wall
G1 Z0.65 F7200 ; Z hop return
G1 E0.8 F2100 ; Un-retract
G1 X150.3329 Y104.22 E1.01546 F6000 ; Print pattern wall
G1 X129.1197 Y125.4332 E1.01546 F6000 ; Print pattern wall
G1 E-0.8 F2100 ; Retract
G1 Z1.05 F7200 ; Z hop
G0 X131.5697 Y83.0068 F7200 ; Move to next pattern
G1 Z0.65 F7200 ; Z hop return
G1 E0.8 F2100 ; Un-retract
SET_PRESSURE_ADVANCE ADVANCE=0.145 ; Set pressure advance
M117 PA 0.145
G1 X152.7829 Y104.22 E1.01546 F6000 ; Print pattern wall
G1 X131.5697 Y125.4332 E1.01546 F6000 ; Print pattern wall
G1 E-0.8 F2100 ; Retract
G1 Z1.05 F7200 ; Z hop
G0 X132.1454 Y83.0068 F7200 ; Move to start next pattern wall
G1 Z0.65 F7200 ; Z hop return
G1 E0.8 F2100 ; Un-retract
G1 X153.3586 Y104.22 E1.01546 F6000 ; Print pattern wall
G1 X132.1454 Y125.4332 E1.01546 F6000 ; Print pattern wall
G1 E-0.8 F2100 ; Retract
G1 Z1.05 F7200 ; Z hop
G0 X132.7211 Y83.0068 F7200 ; Move to start next pattern wall
G1 Z0.65 F7200 ; Z hop return
G1 E0.8 F2100 ; Un-retract
G1 X153.9343 Y104.22 E1.01546 F6000 ; Print pattern wall
G1 X132.7211 Y125.4332 E1.01546 F6000 ; Print pattern wall
G1 E-0.8 F2100 ; Retract
G1 Z1.05 F7200 ; Z hop
G0 X135.1711 Y83.0068 F7200 ; Move to next pattern
G1 Z0.65 F7200 ; Z hop return
G1 E0.8 F2100 ; Un-retract
SET_PRESSURE_ADVANCE ADVANCE=0.15 ; Set pressure advance
M117 PA 0.15
G1 X156.3843 Y104.22 E1.01546 F6000 ; Print pattern wall
G1 X135.1711 Y125.4332 E1.01546 F6000 ; Print pattern wall
G1 E-0.8 F2100 ; Retract
G1 Z1.05 F7200 ; Z hop
G0 X135.7468 Y83.0068 F7200 ; Move to start next pattern wall
G1 Z0.65 F7200 ; Z hop return
G1 E0.8 F2100 ; Un-retract
G1 X156.96 Y104.22 E1.01546 F6000 ; Print pattern wall
G1 X135.7468 Y125.4332 E1.01546 F6000 ; Print pattern wall
G1 E-0.8 F2100 ; Retract
G1 Z1.05 F7200 ; Z hop
G0 X136.3225 Y83.0068 F7200 ; Move to start next pattern wall
G1 Z0.65 F7200 ; Z hop return
G1 E0.8 F2100 ; Un-retract
G1 X157.5357 Y104.22 E1.01546 F6000 ; Print pattern wall
G1 X136.3225 Y125.4332 E1.01546 F6000 ; Print pattern wall
G1 E-0.8 F2100 ; Retract
G1 Z1.05 F7200 ; Z hop
G0 X63.1432 Y83.0068 F7200 ; Move back to start position
G1 Z0.65 F7200 ; Z hop return
G1 E0.8 F2100 ; Un-retract
G0 Z0.85 F7200 ; Move to layer height
SET_PRESSURE_ADVANCE ADVANCE=0.05 ; Set pressure advance
M117 PA 0.05
G1 X84.3564 Y104.22 E1.01546 F6000 ; Print pattern wall
G1 X63.1432 Y125.4332 E1.01546 F6000 ; Print pattern wall
G1 E-0.8 F2100 ; Retract
G1 Z1.25 F7200 ; Z hop
G0 X63.7189 Y83.0068 F7200 ; Move to start next pattern wall
G1 Z0.85 F7200 ; Z hop return
G1 E0.8 F2100 ; Un-retract
G1 X84.9321 Y104.22 E1.01546 F6000 ; Print pattern wall
G1 X63.7189 Y125.4332 E1.01546 F6000 ; Print pattern wall
G1 E-0.8 F2100 ; Retract
G1 Z1.25 F7200 ; Z hop
G0 X64.2946 Y83.0068 F7200 ; Move to start next pattern wall
G1 Z0.85 F7200 ; Z hop return
G1 E0.8 F2100 ; Un-retract
G1 X85.5078 Y104.22 E1.01546 F6000 ; Print pattern wall
G1 X64.2946 Y125.4332 E1.01546 F6000 ; Print pattern wall
G1 E-0.8 F2100 ; Retract
G1 Z1.25 F7200 ; Z hop
G0 X66.7446 Y83.0068 F7200 ; Move to next pattern
G1 Z0.85 F7200 ; Z hop return
G1 E0.8 F2100 ; Un-retract
SET_PRESSURE_ADVANCE ADVANCE=0.055 ; Set pressure advance
M117 PA 0.055
G1 X87.9578 Y104.22 E1.01546 F6000 ; Print pattern wall
G1 X66.7446 Y125.4332 E1.01546 F6000 ; Print pattern wall
G1 E-0.8 F2100 ; Retract
G1 Z1.25 F7200 ; Z hop
G0 X67.3203 Y83.0068 F7200 ; Move to start next pattern wall
G1 Z0.85 F7200 ; Z hop return
G1 E0.8 F2100 ; Un-retract
G1 X88.5335 Y104.22 E1.01546 F6000 ; Print pattern wall
G1 X67.3203 Y125.4332 E1.01546 F6000 ; Print pattern wall
G1 E-0.8 F2100 ; Retract
G1 Z1.25 F7200 ; Z hop
G0 X67.896 Y83.0068 F7200 ; Move to start next pattern wall
G1 Z0.85 F7200 ; Z hop return
G1 E0.8 F2100 ; Un-retract
G1 X89.1092 Y104.22 E1.01546 F6000 ; Print pattern wall
G1 X67.896 Y125.4332 E1.01546 F6000 ; Print pattern wall
G1 E-0.8 F2100 ; Retract
G1 Z1.25 F7200 ; Z hop
G0 X70.346 Y83.0068 F7200 ; Move to next pattern
G1 Z0.85 F7200 ; Z hop return
G1 E0.8 F2100 ; Un-retract
SET_PRESSURE_ADVANCE ADVANCE=0.06 ; Set pressure advance
M117 PA 0.06
G1 X91.5592 Y104.22 E1.01546 F6000 ; Print pattern wall
G1 X70.346 Y125.4332 E1.01546 F6000 ; Print pattern wall
G1 E-0.8 F2100 ; Retract
G1 Z1.25 F7200 ; Z hop
G0 X70.9217 Y83.0068 F7200 ; Move to start next pattern wall
G1 Z0.85 F7200 ; Z hop return
G1 E0.8 F2100 ; Un-retract
G1 X92.1349 Y104.22 E1.01546 F6000 ; Print pattern wall
G1 X70.9217 Y125.4332 E1.01546 F6000 ; Print pattern wall
G1 E-0.8 F2100 ; Retract
G1 Z1.25 F7200 ; Z hop
G0 X71.4974 Y83.0068 F7200 ; Move to start next pattern wall
G1 Z0.85 F7200 ; Z hop return
G1 E0.8 F2100 ; Un-retract
G1 X92.7106 Y104.22 E1.01546 F6000 ; Print pattern wall
G1 X71.4974 Y125.4332 E1.01546 F6000 ; Print pattern wall
G1 E-0.8 F2100 ; Retract
G1 Z1.25 F7200 ; Z hop
G0 X73.9474 Y83.0068 F7200 ; Move to next pattern
G1 Z0.85 F7200 ; Z hop return
G1 E0.8 F2100 ; Un-retract
SET_PRESSURE_ADVANCE ADVANCE=0.065 ; Set pressure advance
M117 PA 0.065
G1 X95.1606 Y104.22 E1.01546 F6000 ; Print pattern wall
G1 X73.9474 Y125.4332 E1.01546 F6000 ; Print pattern wall
G1 E-0.8 F2100 ; Retract
G1 Z1.25 F7200 ; Z hop
G0 X74.5231 Y83.0068 F7200 ; Move to start next pattern wall
G1 Z0.85 F7200 ; Z hop return
G1 E0.8 F2100 ; Un-retract
G1 X95.7363 Y104.22 E1.01546 F6000 ; Print pattern wall
G1 X74.5231 Y125.4332 E1.01546 F6000 ; Print pattern wall
G1 E-0.8 F2100 ; Retract
G1 Z1.25 F7200 ; Z hop
G0 X75.0988 Y83.0068 F7200 ; Move to start next pattern wall
G1 Z0.85 F7200 ; Z hop return
G1 E0.8 F2100 ; Un-retract
G1 X96.312 Y104.22 E1.01546 F6000 ; Print pattern wall
G1 X75.0988 Y125.4332 E1.01546 F6000 ; Print pattern wall
G1 E-0.8 F2100 ; Retract
G1 Z1.25 F7200 ; Z hop
G0 X77.5488 Y83.0068 F7200 ; Move to next pattern
G1 Z0.85 F7200 ; Z hop return
G1 E0.8 F2100 ; Un-retract
SET_PRESSURE_ADVANCE ADVANCE=0.07 ; Set pressure advance
M117 PA 0.07
G1 X98.762 Y104.22 E1.01546 F6000 ; Print pattern wall
G1 X77.5488 Y125.4332 E1.01546 F6000 ; Print pattern wall
G1 E-0.8 F2100 ; Retract
G1 Z1.25 F7200 ; Z hop
G0 X78.1245 Y83.0068 F7200 ; Move to start next pattern wall
G1 Z0.85 F7200 ; Z hop return
G1 E0.8 F2100 ; Un-retract
G1 X99.3377 Y104.22 E1.01546 F6000 ; Print pattern wall
G1 X78.1245 Y125.4332 E1.01546 F6000 ; Print pattern wall
G1 E-0.8 F2100 ; Retract
G1 Z1.25 F7200 ; Z hop
G0 X78.7002 Y83.0068 F7200 ; Move to start next pattern wall
G1 Z0.85 F7200 ; Z hop return
G1 E0.8 F2100 ; Un-retract
G1 X99.9134 Y104.22 E1.01546 F6000 ; Print pattern wall
G1 X78.7002 Y125.4332 E1.01546 F6000 ; Print pattern wall
G1 E-0.8 F2100 ; Retract
G1 Z1.25 F7200 ; Z hop
G0 X81.1502 Y83.0068 F7200 ; Move to next pattern
G1 Z0.85 F7200 ; Z hop return
G1 E0.8 F2100 ; Un-retract
SET_PRESSURE_ADVANCE ADVANCE=0.075 ; Set pressure advance
M117 PA 0.075
G1 X102.3634 Y104.22 E1.01546 F6000 ; Print pattern wall
G1 X81.1502 Y125.4332 E1.01546 F6000 ; Print pattern wall
G1 E-0.8 F2100 ; Retract
G1 Z1.25 F7200 ; Z hop
G0 X81.7259 Y83.0068 F7200 ; Move to start next pattern wall
G1 Z0.85 F7200 ; Z hop return
G1 E0.8 F2100 ; Un-retract
G1 X102.9391 Y104.22 E1.01546 F6000 ; Print pattern wall
G1 X81.7259 Y125.4332 E1.01546 F6000 ; Print pattern wall
G1 E-0.8 F2100 ; Retract
G1 Z1.25 F7200 ; Z hop
G0 X82.3016 Y83.0068 F7200 ; Move to start next pattern wall
G1 Z0.85 F7200 ; Z hop return
G1 E0.8 F2100 ; Un-retract
G1 X103.5148 Y104.22 E1.01546 F6000 ; Print pattern wall
G1 X82.3016 Y125.4332 E1.01546 F6000 ; Print pattern wall
G1 E-0.8 F2100 ; Retract
G1 Z1.25 F7200 ; Z hop
G0 X84.7516 Y83.0068 F7200 ; Move to next pattern
G1 Z0.85 F7200 ; Z hop return
G1 E0.8 F2100 ; Un-retract
SET_PRESSURE_ADVANCE ADVANCE=0.08 ; Set pressure advance
M117 PA 0.08
G1 X105.9648 Y104.22 E1.01546 F6000 ; Print pattern wall
G1 X84.7516 Y125.4332 E1.01546 F6000 ; Print pattern wall
G1 E-0.8 F2100 ; Retract
G1 Z1.25 F7200 ; Z hop
G0 X85.3273 Y83.0068 F7200 ; Move to start next pattern wall
G1 Z0.85 F7200 ; Z hop return
G1 E0.8 F2100 ; Un-retract
G1 X106.5405 Y104.22 E1.01546 F6000 ; Print pattern wall
G1 X85.3273 Y125.4332 E1.01546 F6000 ; Print pattern wall
G1 E-0.8 F2100 ; Retract
G1 Z1.25 F7200 ; Z hop
G0 X85.903 Y83.0068 F7200 ; Move to start next pattern wall
G1 Z0.85 F7200 ; Z hop return
G1 E0.8 F2100 ; Un-retract
G1 X107.1162 Y104.22 E1.01546 F6000 ; Print pattern wall
G1 X85.903 Y125.4332 E1.01546 F6000 ; Print pattern wall
G1 E-0.8 F2100 ; Retract
G1 Z1.25 F7200 ; Z hop
G0 X88.353 Y83.0068 F7200 ; Move to next pattern
G1 Z0.85 F7200 ; Z hop return
G1 E0.8 F2100 ; Un-retract
SET_PRESSURE_ADVANCE ADVANCE=0.085 ; Set pressure advance
M117 PA 0.085
G1 X109.5662 Y104.22 E1.01546 F6000 ; Print pattern wall
G1 X88.353 Y125.4332 E1.01546 F6000 ; Print pattern wall
G1 E-0.8 F2100 ; Retract
G1 Z1.25 F7200 ; Z hop
G0 X88.9287 Y83.0068 F7200 ; Move to start next pattern wall
G1 Z0.85 F7200 ; Z hop return
G1 E0.8 F2100 ; Un-retract
G1 X110.1419 Y104.22 E1.01546 F6000 ; Print pattern wall
G1 X88.9287 Y125.4332 E1.01546 F6000 ; Print pattern wall
G1 E-0.8 F2100 ; Retract
G1 Z1.25 F7200 ; Z hop
G0 X89.5044 Y83.0068 F7200 ; Move to start next pattern wall
G1 Z0.85 F7200 ; Z hop return
G1 E0.8 F2100 ; Un-retract
G1 X110.7176 Y104.22 E1.01546 F6000 ; Print pattern wall
G1 X89.5044 Y125.4332 E1.01546 F6000 ; Print pattern wall
G1 E-0.8 F2100 ; Retract
G1 Z1.25 F7200 ; Z hop
G0 X91.9544 Y83.0068 F7200 ; Move to next pattern
G1 Z0.85 F7200 ; Z hop return
G1 E0.8 F2100 ; Un-retract
SET_PRESSURE_ADVANCE ADVANCE=0.09 ; Set pressure advance
M117 PA 0.09
G1 X113.1676 Y104.22 E1.01546 F6000 ; Print pattern wall
G1 X91.9544 Y125.4332 E1.01546 F6000 ; Print pattern wall
G1 E-0.8 F2100 ; Retract
G1 Z1.25 F7200 ; Z hop
G0 X92.5301 Y83.0068 F7200 ; Move to start next pattern wall
G1 Z0.85 F7200 ; Z hop return
G1 E0.8 F2100 ; Un-retract
G1 X113.7433 Y104.22 E1.01546 F6000 ; Print pattern wall
G1 X92.5301 Y125.4332 E1.01546 F6000 ; Print pattern wall
G1 E-0.8 F2100 ; Retract
G1 Z1.25 F7200 ; Z hop
G0 X93.1058 Y83.0068 F7200 ; Move to start next pattern wall
G1 Z0.85 F7200 ; Z hop return
G1 E0.8 F2100 ; Un-retract
G1 X114.319 Y104.22 E1.01546 F6000 ; Print pattern wall
G1 X93.1058 Y125.4332 E1.01546 F6000 ; Print pattern wall
G1 E-0.8 F2100 ; Retract
G1 Z1.25 F7200 ; Z hop
G0 X95.5558 Y83.0068 F7200 ; Move to next pattern
G1 Z0.85 F7200 ; Z hop return
G1 E0.8 F2100 ; Un-retract
SET_PRESSURE_ADVANCE ADVANCE=0.095 ; Set pressure advance
M117 PA 0.095
G1 X116.769 Y104.22 E1.01546 F6000 ; Print pattern wall
G1 X95.5558 Y125.4332 E1.01546 F6000 ; Print pattern wall
G1 E-0.8 F2100 ; Retract
G1 Z1.25 F7200 ; Z hop
G0 X96.1315 Y83.0068 F7200 ; Move to start next pattern wall
G1 Z0.85 F7200 ; Z hop return
G1 E0.8 F2100 ; Un-retract
G1 X117.3447 Y104.22 E1.01546 F6000 ; Print pattern wall
G1 X96.1315 Y125.4332 E1.01546 F6000 ; Print pattern wall
G1 E-0.8 F2100 ; Retract
G1 Z1.25 F7200 ; Z hop
G0 X96.7072 Y83.0068 F7200 ; Move to start next pattern wall
G1 Z0.85 F7200 ; Z hop return
G1 E0.8 F2100 ; Un-retract
G1 X117.9204 Y104.22 E1.01546 F6000 ; Print pattern wall
G1 X96.7072 Y125.4332 E1.01546 F6000 ; Print pattern wall
G1 E-0.8 F2100 ; Retract
G1 Z1.25 F7200 ; Z hop
G0 X99.1572 Y83.0068 F7200 ; Move to next pattern
G1 Z0.85 F7200 ; Z hop return
G1 E0.8 F2100 ; Un-retract
SET_PRESSURE_ADVANCE ADVANCE=0.1 ; Set pressure advance
M117 PA 0.1
G1 X120.3704 Y104.22 E1.01546 F6000 ; Print pattern wall
G1 X99.1572 Y125.4332 E1.01546 F6000 ; Print pattern wall
G1 E-0.8 F2100 ; Retract
G1 Z1.25 F7200 ; Z hop
G0 X99.7329 Y83.0068 F7200 ; Move to start next pattern wall
G1 Z0.85 F7200 ; Z hop return
G1 E0.8 F2100 ; Un-retract
G1 X120.9461 Y104.22 E1.01546 F6000 ; Print pattern wall
G1 X99.7329 Y125.4332 E1.01546 F6000 ; Print pattern wall
G1 E-0.8 F2100 ; Retract
G1 Z1.25 F7200 ; Z hop
G0 X100.3085 Y83.0068 F7200 ; Move to start next pattern wall
G1 Z0.85 F7200 ; Z hop return
G1 E0.8 F2100 ; Un-retract
G1 X121.5218 Y104.22 E1.01546 F6000 ; Print pattern wall
G1 X100.3085 Y125.4332 E1.01546 F6000 ; Print pattern wall
G1 E-0.8 F2100 ; Retract
G1 Z1.25 F7200 ; Z hop
G0 X102.7585 Y83.0068 F7200 ; Move to next pattern
G1 Z0.85 F7200 ; Z hop return
G1 E0.8 F2100 ; Un-retract
SET_PRESSURE_ADVANCE ADVANCE=0.105 ; Set pressure advance
M117 PA 0.105
G1 X123.9718 Y104.22 E1.01546 F6000 ; Print pattern wall
G1 X102.7585 Y125.4332 E1.01546 F6000 ; Print pattern wall
G1 E-0.8 F2100 ; Retract
G1 Z1.25 F7200 ; Z hop
G0 X103.3342 Y83.0068 F7200 ; Move to start next pattern wall
G1 Z0.85 F7200 ; Z hop return
G1 E0.8 F2100 ; Un-retract
G1 X124.5474 Y104.22 E1.01546 F6000 ; Print pattern wall
G1 X103.3342 Y125.4332 E1.01546 F6000 ; Print pattern wall
G1 E-0.8 F2100 ; Retract
G1 Z1.25 F7200 ; Z hop
G0 X103.9099 Y83.0068 F7200 ; Move to start next pattern wall
G1 Z0.85 F7200 ; Z hop return
G1 E0.8 F2100 ; Un-retract
G1 X125.1231 Y104.22 E1.01546 F6000 ; Print pattern wall
G1 X103.9099 Y125.4332 E1.01546 F6000 ; Print pattern wall
G1 E-0.8 F2100 ; Retract
G1 Z1.25 F7200 ; Z hop
G0 X106.3599 Y83.0068 F7200 ; Move to next pattern
G1 Z0.85 F7200 ; Z hop return
G1 E0.8 F2100 ; Un-retract
SET_PRESSURE_ADVANCE ADVANCE=0.11 ; Set pressure advance
M117 PA 0.11
G1 X127.5731 Y104.22 E1.01546 F6000 ; Print pattern wall
G1 X106.3599 Y125.4332 E1.01546 F6000 ; Print pattern wall
G1 E-0.8 F2100 ; Retract
G1 Z1.25 F7200 ; Z hop
G0 X106.9356 Y83.0068 F7200 ; Move to start next pattern wall
G1 Z0.85 F7200 ; Z hop return
G1 E0.8 F2100 ; Un-retract
G1 X128.1488 Y104.22 E1.01546 F6000 ; Print pattern wall
G1 X106.9356 Y125.4332 E1.01546 F6000 ; Print pattern wall
G1 E-0.8 F2100 ; Retract
G1 Z1.25 F7200 ; Z hop
G0 X107.5113 Y83.0068 F7200 ; Move to start next pattern wall
G1 Z0.85 F7200 ; Z hop return
G1 E0.8 F2100 ; Un-retract
G1 X128.7245 Y104.22 E1.01546 F6000 ; Print pattern wall
G1 X107.5113 Y125.4332 E1.01546 F6000 ; Print pattern wall
G1 E-0.8 F2100 ; Retract
G1 Z1.25 F7200 ; Z hop
G0 X109.9613 Y83.0068 F7200 ; Move to next pattern
G1 Z0.85 F7200 ; Z hop return
G1 E0.8 F2100 ; Un-retract
SET_PRESSURE_ADVANCE ADVANCE=0.115 ; Set pressure advance
M117 PA 0.115
G1 X131.1745 Y104.22 E1.01546 F6000 ; Print pattern wall
G1 X109.9613 Y125.4332 E1.01546 F6000 ; Print pattern wall
G1 E-0.8 F2100 ; Retract
G1 Z1.25 F7200 ; Z hop
G0 X110.537 Y83.0068 F7200 ; Move to start next pattern wall
G1 Z0.85 F7200 ; Z hop return
G1 E0.8 F2100 ; Un-retract
G1 X131.7502 Y104.22 E1.01546 F6000 ; Print pattern wall
G1 X110.537 Y125.4332 E1.01546 F6000 ; Print pattern wall
G1 E-0.8 F2100 ; Retract
G1 Z1.25 F7200 ; Z hop
G0 X111.1127 Y83.0068 F7200 ; Move to start next pattern wall
G1 Z0.85 F7200 ; Z hop return
G1 E0.8 F2100 ; Un-retract
G1 X132.3259 Y104.22 E1.01546 F6000 ; Print pattern wall
G1 X111.1127 Y125.4332 E1.01546 F6000 ; Print pattern wall
G1 E-0.8 F2100 ; Retract
G1 Z1.25 F7200 ; Z hop
G0 X113.5627 Y83.0068 F7200 ; Move to next pattern
G1 Z0.85 F7200 ; Z hop return
G1 E0.8 F2100 ; Un-retract
SET_PRESSURE_ADVANCE ADVANCE=0.12 ; Set pressure advance
M117 PA 0.12
G1 X134.7759 Y104.22 E1.01546 F6000 ; Print pattern wall
G1 X113.5627 Y125.4332 E1.01546 F6000 ; Print pattern wall
G1 E-0.8 F2100 ; Retract
G1 Z1.25 F7200 ; Z hop
G0 X114.1384 Y83.0068 F7200 ; Move to start next pattern wall
G1 Z0.85 F7200 ; Z hop return
G1 E0.8 F2100 ; Un-retract
G1 X135.3516 Y104.22 E1.01546 F6000 ; Print pattern wall
G1 X114.1384 Y125.4332 E1.01546 F6000 ; Print pattern wall
G1 E-0.8 F2100 ; Retract
G1 Z1.25 F7200 ; Z hop
G0 X114.7141 Y83.0068 F7200 ; Move to start next pattern wall
G1 Z0.85 F7200 ; Z hop return
G1 E0.8 F2100 ; Un-retract
G1 X135.9273 Y104.22 E1.01546 F6000 ; Print pattern wall
G1 X114.7141 Y125.4332 E1.01546 F6000 ; Print pattern wall
G1 E-0.8 F2100 ; Retract
G1 Z1.25 F7200 ; Z hop
G0 X117.1641 Y83.0068 F7200 ; Move to next pattern
G1 Z0.85 F7200 ; Z hop return
G1 E0.8 F2100 ; Un-retract
SET_PRESSURE_ADVANCE ADVANCE=0.125 ; Set pressure advance
M117 PA 0.125
G1 X138.3773 Y104.22 E1.01546 F6000 ; Print pattern wall
G1 X117.1641 Y125.4332 E1.01546 F6000 ; Print pattern wall
G1 E-0.8 F2100 ; Retract
G1 Z1.25 F7200 ; Z hop
G0 X117.7398 Y83.0068 F7200 ; Move to start next pattern wall
G1 Z0.85 F7200 ; Z hop return
G1 E0.8 F2100 ; Un-retract
G1 X138.953 Y104.22 E1.01546 F6000 ; Print pattern wall
G1 X117.7398 Y125.4332 E1.01546 F6000 ; Print pattern wall
G1 E-0.8 F2100 ; Retract
G1 Z1.25 F7200 ; Z hop
G0 X118.3155 Y83.0068 F7200 ; Move to start next pattern wall
G1 Z0.85 F7200 ; Z hop return
G1 E0.8 F2100 ; Un-retract
G1 X139.5287 Y104.22 E1.01546 F6000 ; Print pattern wall
G1 X118.3155 Y125.4332 E1.01546 F6000 ; Print pattern wall
G1 E-0.8 F2100 ; Retract
G1 Z1.25 F7200 ; Z hop
