; generated by SuperSlicer 2.5.59 on 2023-10-13 at 16:12:14 UTC


;
;

;
;
; 

; external perimeters extrusion width = 0.44mm
; perimeters extrusion width = 0.46mm
; infill extrusion width = 0.44mm
; solid infill extrusion width = 0.46mm
; top infill extrusion width = 0.44mm
; first layer extrusion width = 0.57mm

; object:{"name":"smart_compact_temp_calibration","id":"smart_compact_temp_calibration id:0 copy 0","object_center":[112.500000,112.400000,0.000000],"boundingbox_center":[112.500000,112.400000,25.000000],"boundingbox_size":[44.487499,5.200000,50.000000]}
EXCLUDE_OBJECT_DEFINE NAME=smart_compact_temp_calibration_id_0_copy_0 CENTER=112.500000,112.400000 POLYGON=[[90.256248,111.405368],[90.268856,111.392288],[90.302048,111.359560],[90.322552,111.339680],[90.373944,111.291952],[90.476952,111.203104],[90.504744,111.181536],[90.779552,110.981424],[90.880248,110.919432],[91.324048,110.679768],[91.368344,110.659176],[91.849152,110.464272],[91.981752,110.418688],[92.391448,110.295952],[92.510552,110.265112],[92.707752,110.218304],[92.739656,110.211056],[92.766752,110.205096],[92.906752,110.176256],[92.909048,110.175800],[92.952456,110.167248],[93.055848,110.148096],[93.093648,110.141424],[93.204256,110.122784],[93.334248,110.102432],[93.391648,110.094352],[93.596552,110.067560],[93.643248,110.062136],[93.689048,110.057056],[93.997144,110.028560],[94.027352,110.026296],[94.109256,110.020656],[94.151848,110.017984],[94.171552,110.016816],[94.203648,110.014984],[94.214848,110.014384],[94.274552,110.011280],[94.354952,110.007816],[94.445752,110.004624],[100.754656,109.800000],[115.754656,109.800000],[134.743744,110.000000],[134.743744,115.000000],[94.714752,115.000000],[94.445752,114.995376],[94.354952,114.992184],[94.274552,114.988728],[94.214848,114.985616],[94.199552,114.984784],[94.161152,114.982576],[94.151848,114.982016],[94.108752,114.979320],[94.070448,114.976760],[94.027352,114.973704],[93.997144,114.971440],[93.799848,114.954352],[93.643248,114.937864],[93.596552,114.932440],[93.450752,114.914232],[93.341848,114.898472],[93.205456,114.877712],[93.088152,114.857616],[93.055848,114.851904],[93.022952,114.845896],[92.905056,114.823424],[92.861144,114.814648],[92.764056,114.794328],[92.743048,114.789688],[92.714848,114.783248],[92.516952,114.736528],[92.300448,114.679072],[92.057648,114.606176],[91.692944,114.477704],[91.652448,114.462056],[91.171952,114.245560],[91.143952,114.231072],[90.715152,113.975000],[90.708056,113.970624],[90.519152,113.831136],[90.398752,113.730256],[90.391848,113.724128],[90.334152,113.671304],[90.276648,113.615920],[90.258752,113.597256],[90.256248,111.405368]]
; plater:{"center":[112.500000,112.400000,0.000000],"boundingbox_center":[112.500000,112.400000,25.000000],"boundingbox_size":[44.487499,5.200000,50.000000]}

;TYPE:Custom
SET_PRINT_STATS_INFO TOTAL_LAYER=250

PRINT_START BED=70 EXTRUDER=240 CHAMBER=0 SIZE=87.2572_103.4_131.802_121.6 MATERIAL=PETG
; Filament gcode
;_TOOLCHANGE 0
M107
;LAYER_CHANGE
;Z:0.24
;HEIGHT:0.24

G1 E-0.8 F2100
G1 Z0.4 F18000
SET_PRINT_STATS_INFO CURRENT_LAYER=1

G92 E0
G1 Z0.64
M204 S1000
G1 X89.162 Y104.497
G1 Z0.24
G1 E0.8 F2100
;TYPE:Skirt
;WIDTH:0.48
G1 F1200
G1 X88.077 Y105.66 E0.86801
G1 X87.684 Y107.202 E0.93603
G1 X87.684 Y117.798 E1.38911
G1 X88.12 Y119.415 E1.4607
G1 X89.236 Y120.549 E1.52871
G1 X90.759 Y121.009 E1.59673
G1 X94.511 Y121.17 E1.75731
G1 X128.162 Y121.173 E3.1961
G1 X129.897 Y120.665 E3.27338
G1 X130.982 Y119.501 E3.34139
G1 X131.376 Y117.96 E3.40941
G1 X131.376 Y107.04 E3.8763
G1 X130.867 Y105.305 E3.95358
G1 X129.704 Y104.221 E4.02159
G1 X128.162 Y103.827 E4.08961
G1 X94.649 Y103.827 E5.52249
G1 X90.759 Y103.991 E5.68898
G1 X89.219 Y104.479 E5.75801
G92 E0
;WIPE_START
G1 F14400
G1 X90.759 Y103.991 E-0.22368
G1 X94.626 Y103.828 E-0.76
;WIPE_END
G1 E-0.8 F2100
G1 Z0.64 F18000
; acceleration to travel
M204 S1500
G1 X92.714 Y107.235
; decel to extrusion
M204 S1000
G1 X92.252 Y108.057
; end travel
G1 Z0.24
G1 E0 F2100
;WIDTH:0.57365
;HEIGHT:0.25
G1 F1200
G1 X92.704 Y107.735 E0.02997
G1 X93.107 Y107.553 E0.05387
G1 X93.473 Y107.449 E0.07444
G1 X94.689 Y107.38 E0.14024
G1 X125.358 Y107.385 E1.79786
G1 X125.87 Y107.496 E1.82615
G1 X126.439 Y107.754 E1.8599
G1 X126.751 Y107.984 E1.88086
G1 X127.225 Y108.457 E1.91707
G1 X127.512 Y108.879 E1.94463
G1 X127.713 Y109.351 E1.97238
G1 X127.823 Y109.901 E2.00269
G1 X127.823 Y115.091 E2.28319
G1 X127.75 Y115.527 E2.3071
G1 X127.545 Y116.056 E2.33776
G1 X127.338 Y116.402 E2.35952
G1 X126.752 Y117.016 E2.40541
G1 X126.266 Y117.34 E2.43696
G1 X125.677 Y117.562 E2.47101
G1 X125.293 Y117.62 E2.49197
G1 X94.661 Y117.619 E4.14758
G1 X93.587 Y117.569 E4.2057
G1 X93.145 Y117.461 E4.23027
G1 X92.648 Y117.233 E4.25983
G1 X92.249 Y116.939 E4.28663
G1 X91.696 Y116.335 E4.33091
G1 X91.499 Y115.996 E4.35208
G1 X91.292 Y115.428 E4.38475
G1 X91.237 Y115.055 E4.40514
G1 X91.237 Y109.945 E4.6813
G1 X91.305 Y109.521 E4.70455
G1 X91.499 Y109.004 E4.73436
G1 X91.696 Y108.665 E4.75552
G1 X92.212 Y108.101 E4.79686
G1 X92.593 Y108.455 F18000
G1 F1200
G1 X92.615 Y108.43 E4.79866
G1 X92.941 Y108.199 E4.82027
G1 X93.303 Y108.035 E4.84173
G1 X93.584 Y107.957 E4.8575
G1 X94.695 Y107.9 E4.91763
G1 X125.33 Y107.905 E6.57336
G1 X125.684 Y107.982 E6.59292
G1 X126.156 Y108.191 E6.62083
G1 X126.398 Y108.366 E6.63696
G1 X126.839 Y108.807 E6.67067
G1 X127.065 Y109.146 E6.69272
G1 X127.223 Y109.526 E6.71496
G1 X127.303 Y109.927 E6.73702
G1 X127.303 Y115.07 E7.01502
G1 X127.255 Y115.365 E7.03115
G1 X127.069 Y115.847 E7.05906
G1 X126.91 Y116.105 E7.07548
G1 X126.398 Y116.634 E7.11526
G1 X126.052 Y116.865 E7.13774
G1 X125.567 Y117.053 E7.16582
G1 X125.273 Y117.1 E7.18195
G1 X94.667 Y117.099 E8.83611
G1 X93.638 Y117.051 E8.89179
G1 X93.299 Y116.963 E8.91073
G1 X92.891 Y116.773 E8.93504
G1 X92.613 Y116.567 E8.95373
G1 X92.129 Y116.046 E8.99221
G1 X91.978 Y115.792 E9.00818
G1 X91.801 Y115.321 E9.03532
G1 X91.757 Y115.035 E9.05101
G1 X91.757 Y109.965 E9.32499
G1 X91.801 Y109.679 E9.34068
G1 X91.978 Y109.209 E9.36782
G1 X92.129 Y108.954 E9.38379
G1 X92.552 Y108.499 E9.4174
G1 X92.93 Y108.855 F18000
G1 F1200
G1 X92.976 Y108.806 E9.42104
G1 X93.178 Y108.662 E9.43446
G1 X93.498 Y108.518 E9.4534
G1 X93.69 Y108.467 E9.46416
G1 X94.701 Y108.42 E9.51886
G1 X125.301 Y108.425 E11.17272
G1 X125.501 Y108.47 E11.18377
G1 X125.879 Y108.632 E11.206
G1 X126.046 Y108.749 E11.21704
G1 X126.453 Y109.157 E11.24816
G1 X126.595 Y109.369 E11.26196
G1 X126.733 Y109.702 E11.28144
G1 X126.783 Y109.952 E11.29523
G1 X126.783 Y115.048 E11.57065
G1 X126.748 Y115.249 E11.5817
G1 X126.595 Y115.631 E11.60392
G1 X126.485 Y115.804 E11.61497
G1 X126.046 Y116.251 E11.64884
G1 X125.834 Y116.392 E11.66264
G1 X125.452 Y116.545 E11.68486
G1 X125.25 Y116.58 E11.69591
G1 X94.673 Y116.579 E13.34853
G1 X93.69 Y116.533 E13.40173
G1 X93.498 Y116.482 E13.41249
G1 X93.135 Y116.313 E13.4341
G1 X92.976 Y116.194 E13.44485
G1 X92.558 Y115.751 E13.47775
G1 X92.454 Y115.582 E13.48849
G1 X92.31 Y115.209 E13.5101
G1 X92.277 Y115.013 E13.52085
G1 X92.277 Y109.987 E13.79248
G1 X92.31 Y109.791 E13.80323
G1 X92.454 Y109.418 E13.82484
G1 X92.558 Y109.249 E13.83558
G1 X92.888 Y108.899 E13.8616
G1 X93.263 Y109.258 F18000
G1 F1200
G1 X93.334 Y109.183 E13.86714
G1 X93.415 Y109.126 E13.87252
G1 X93.689 Y109.002 E13.88878
G1 X93.787 Y108.979 E13.89417
G1 X94.707 Y108.94 E13.94395
G1 X125.225 Y108.94 E15.59338
G1 X125.325 Y108.96 E15.59892
G1 X125.611 Y109.078 E15.61564
G1 X125.696 Y109.135 E15.62117
G1 X126.067 Y109.506 E15.64953
G1 X126.124 Y109.591 E15.65507
G1 X126.243 Y109.877 E15.67178
G1 X126.263 Y109.978 E15.67732
G1 X126.263 Y115.022 E15.94997
G1 X126.243 Y115.123 E15.95551
G1 X126.124 Y115.409 E15.97223
G1 X126.067 Y115.494 E15.97776
G1 X125.696 Y115.865 E16.00612
G1 X125.611 Y115.922 E16.01166
G1 X125.325 Y116.04 E16.02838
G1 X125.225 Y116.06 E16.03391
G1 X94.69 Y116.06 E17.68425
G1 X93.786 Y116.021 E17.73313
G1 X93.689 Y115.998 E17.73852
G1 X93.416 Y115.874 E17.75477
G1 X93.334 Y115.817 E17.76015
G1 X92.982 Y115.449 E17.78769
G1 X92.928 Y115.365 E17.79308
G1 X92.816 Y115.086 E17.80933
G1 X92.797 Y114.988 E17.81471
G1 X92.797 Y110.012 E18.08366
G1 X92.816 Y109.914 E18.08904
G1 X92.928 Y109.635 E18.10529
G1 X92.982 Y109.551 E18.11067
G1 X93.222 Y109.301 E18.12943
G1 X93.597 Y109.661 F18000
G1 F1200
G1 X93.675 Y109.579 E18.13552
G1 X93.858 Y109.496 E18.14639
G1 X94.712 Y109.46 E18.19258
G1 X125.174 Y109.46 E19.83895
G1 X125.365 Y109.539 E19.85013
G1 X125.663 Y109.838 E19.87295
G1 X125.743 Y110.029 E19.88413
G1 X125.743 Y114.971 E20.15125
G1 X125.663 Y115.162 E20.16243
G1 X125.365 Y115.461 E20.18525
G1 X125.174 Y115.54 E20.19643
G1 X94.707 Y115.54 E21.8431
G1 X93.858 Y115.504 E21.88899
G1 X93.675 Y115.421 E21.89985
G1 X93.392 Y115.125 E21.92201
G1 X93.317 Y114.938 E21.93288
G1 X93.317 Y110.062 E22.19644
G1 X93.392 Y109.875 E22.20731
G1 X93.556 Y109.704 E22.22013
G1 X93.931 Y110.064 F18000
G1 F1200
G1 X93.981 Y110.011 E22.22403
G1 X94.715 Y109.98 E22.26373
G1 X125.07 Y109.98 E23.90435
G1 X125.223 Y110.132 E23.91599
G1 X125.223 Y114.868 E24.17193
G1 X125.07 Y115.02 E24.18357
G1 X94.715 Y115.02 E25.8242
G1 X93.981 Y114.989 E25.8639
G1 X93.837 Y114.838 E25.87519
G1 X93.837 Y110.162 E26.12788
G1 X93.89 Y110.107 E26.13202
G92 E0
;WIPE_START
G1 F14400
G1 X93.837 Y110.162 E-0.01062
G1 X93.837 Y114.838 E-0.65836
G1 X93.981 Y114.989 E-0.6873
G1 X94.506 Y115.011 E-0.76
;WIPE_END
G1 E-0.8 F2100
G1 Z0.64 F18000
; printing object smart_compact_temp_calibration id:0 copy 0
EXCLUDE_OBJECT_START NAME=smart_compact_temp_calibration_id_0_copy_0
G1 X94.724 Y114.474
G1 Z0.24
G1 E0 F2100
;TYPE:External perimeter
;WIDTH:0.571504
;HEIGHT:0.24
G1 F1200
G1 X94.383 Y114.46 E0.01774
G1 X94.383 Y110.54 E0.22108
G1 X94.724 Y110.526 E0.23882
G1 X124.677 Y110.526 E1.79294
G1 X124.677 Y114.474 E1.99781
G1 X94.784 Y114.474 E3.54882
;WIPE_START
G1 X94.534 Y114.122 F18000
;WIPE_END
G92 E0
;WIPE_START
G1 F14400
G1 X94.583 Y110.732 E-0.46973
G1 X94.728 Y110.726 E-0.48996
G1 X96.678 Y110.726 E-0.76
;WIPE_END
G1 E-0.8 F2100
G1 Z0.64 F18000
; acceleration to travel
M204 S1500
G1 X119.112 Y111.537
; decel to extrusion
M204 S1000
G1 X124.521 Y111.733
; end travel
G1 Z0.24
G1 E0 F2100
;TYPE:Solid infill
;WIDTH:0.562502
G1 F1200
G1 X123.694 Y110.906 E0.05974
G1 X122.959 Y110.906 E0.09727
G1 X124.297 Y112.245 E0.19395
G1 X124.297 Y112.98 E0.2315
G1 X122.224 Y110.907 E0.38126
G1 X121.489 Y110.907 E0.4188
G1 X124.297 Y113.716 E0.62165
G1 X124.297 Y114.094 E0.641
G1 X123.941 Y114.094 E0.65921
G1 X120.753 Y110.907 E0.88939
G1 X120.018 Y110.908 E0.92692
G1 X123.205 Y114.094 E1.15705
G1 X122.469 Y114.094 E1.19462
G1 X119.283 Y110.908 E1.42469
G1 X118.548 Y110.908 E1.46223
G1 X121.733 Y114.093 E1.69225
G1 X120.998 Y114.093 E1.72983
G1 X117.813 Y110.909 E1.9598
G1 X117.078 Y110.909 E1.99733
G1 X120.262 Y114.093 E2.22725
G1 X119.526 Y114.092 E2.26482
G1 X116.343 Y110.909 E2.49469
G1 X115.608 Y110.91 E2.53223
G1 X118.79 Y114.092 E2.76204
G1 X118.055 Y114.091 E2.79962
G1 X114.873 Y110.91 E3.02938
G1 X114.138 Y110.91 E3.06692
G1 X117.319 Y114.091 E3.29663
G1 X116.583 Y114.091 E3.3342
G1 X113.403 Y110.911 E3.56386
G1 X112.668 Y110.911 E3.6014
G1 X115.847 Y114.09 E3.83101
G1 X115.112 Y114.09 E3.86858
G1 X111.933 Y110.912 E4.09814
G1 X111.198 Y110.912 E4.13568
G1 X114.376 Y114.09 E4.36518
G1 X113.64 Y114.089 E4.40276
G1 X110.463 Y110.912 E4.63221
G1 X109.728 Y110.913 E4.66975
G1 X112.904 Y114.089 E4.89915
G1 X112.169 Y114.089 E4.93673
G1 X108.993 Y110.913 E5.16608
G1 X108.258 Y110.913 E5.20361
G1 X111.433 Y114.088 E5.43291
G1 X110.697 Y114.088 E5.47049
G1 X107.523 Y110.914 E5.69974
G1 X106.788 Y110.914 E5.73727
G1 X109.961 Y114.088 E5.96647
G1 X109.226 Y114.087 E6.00404
G1 X106.053 Y110.914 E6.23319
G1 X105.318 Y110.915 E6.27073
G1 X108.49 Y114.087 E6.49982
G1 X107.754 Y114.086 E6.53739
G1 X104.583 Y110.915 E6.76643
G1 X103.848 Y110.915 E6.80397
G1 X107.018 Y114.086 E7.03296
G1 X106.283 Y114.086 E7.07054
G1 X103.113 Y110.916 E7.29947
G1 X102.378 Y110.916 E7.33701
G1 X105.547 Y114.085 E7.5659
G1 X104.811 Y114.085 E7.60347
G1 X101.643 Y110.917 E7.83231
G1 X100.908 Y110.917 E7.86985
G1 X104.075 Y114.085 E8.09863
G1 X103.34 Y114.084 E8.1362
G1 X100.173 Y110.917 E8.36494
G1 X99.438 Y110.918 E8.40247
G1 X102.604 Y114.084 E8.63115
G1 X101.868 Y114.084 E8.66873
G1 X98.703 Y110.918 E8.89736
G1 X97.967 Y110.918 E8.93489
G1 X101.132 Y114.083 E9.16347
G1 X100.397 Y114.083 E9.20105
G1 X97.232 Y110.919 E9.42957
G1 X96.497 Y110.919 E9.46711
G1 X99.661 Y114.083 E9.69558
G1 X98.925 Y114.082 E9.73316
G1 X95.762 Y110.919 E9.96158
G1 X95.027 Y110.92 E9.99912
G1 X98.189 Y114.082 E10.22749
G1 X97.454 Y114.081 E10.26506
G1 X94.762 Y111.39 E10.45945
G1 X94.762 Y112.125 E10.49701
G1 X96.718 Y114.081 E10.63826
G1 X95.982 Y114.081 E10.67584
G1 X94.762 Y112.861 E10.76395
G1 X94.762 Y113.596 E10.80151
G1 X95.47 Y114.304 E10.85265
;LAYER_CHANGE
;Z:0.44
;HEIGHT:0.2

G92 E0
;WIPE_START
G1 F14400
G1 X94.762 Y113.596 E-0.13873
G1 X94.762 Y112.861 E-0.24061
G1 X95.982 Y114.081 E-0.47966
G1 X96.718 Y114.081 E-0.58159
G1 X95.807 Y113.171 E-0.76
;WIPE_END
G1 E-0.8 F2100
G1 Z0.64 F18000
; stop printing object smart_compact_temp_calibration id:0 copy 0
EXCLUDE_OBJECT_END NAME=smart_compact_temp_calibration_id_0_copy_0
SET_PRINT_STATS_INFO CURRENT_LAYER=2

M104 S240 ; set temperature
M140 S70 ; set bed temperature
G92 E0
G1 Z0.84
; acceleration to travel
M204 S1500
G1 X95.807 Y119.616
; decel to extrusion
M204 S1000
G1 X95.807 Y121.17
; end travel
G1 Z0.44
G1 E0.8 F2100
;TYPE:Skirt
;WIDTH:0.48
G1 F1200
G1 X128.162 Y121.173 E1.97592
G1 X129.897 Y120.665 E2.04161
G1 X130.982 Y119.501 E2.09943
G1 X131.376 Y117.96 E2.15724
G1 X131.376 Y107.04 E2.55411
G1 X130.867 Y105.305 E2.6198
G1 X129.704 Y104.221 E2.67762
G1 X128.162 Y103.827 E2.73543
G1 X94.649 Y103.827 E3.95342
G1 X90.759 Y103.991 E4.09494
G1 X89.162 Y104.497 E4.1558
G1 X88.077 Y105.66 E4.21361
G1 X87.684 Y107.202 E4.27142
G1 X87.684 Y117.798 E4.65655
G1 X88.12 Y119.415 E4.71741
G1 X89.236 Y120.549 E4.77522
G1 X90.759 Y121.009 E4.83304
G1 X94.511 Y121.17 E4.96953
G1 X95.747 Y121.17 E5.01444
M104 S250 ; set temperature
G92 E0
;WIPE_START
G1 F14400
G1 X94.511 Y121.17 E-0.1712
G1 X90.759 Y121.009 E-0.69153
G1 X90.285 Y120.866 E-0.76
;WIPE_END
G1 E-0.8 F2100
G1 Z0.84 F18000
; printing object smart_compact_temp_calibration id:0 copy 0
EXCLUDE_OBJECT_START NAME=smart_compact_temp_calibration_id_0_copy_0
; acceleration to travel
M204 S1500
G1 X93.859 Y115.62
; decel to extrusion
M204 S1000
G1 X94.733 Y114.339
; end travel
G1 Z0.44
G1 E0 F2100
;TYPE:Internal perimeter
;WIDTH:0.46292
G1 F2400
G1 X94.339 Y114.317 E0.01377
G1 X94.339 Y110.683 E0.14065
G1 X94.733 Y110.661 E0.15441
G1 X124.812 Y110.661 E1.20489
G1 X124.812 Y114.339 E1.3333
G1 X94.793 Y114.339 E2.38168
M204 S800
G1 X94.71 Y114.748 F18000
;TYPE:Overhang perimeter
;WIDTH:0.44292
G1 F1500
G1 X93.996 Y114.708 E2.40545
;WIDTH:0.389872
;HEIGHT:0.389872
G1 X93.929 Y114.704 E2.40879
G1 X93.929 Y110.296 E2.62761
G1 X93.996 Y110.292 E2.63095
;WIDTH:0.44292
;HEIGHT:0.2
G1 X94.721 Y110.251 E2.6551
G1 X125.063 Y110.251 E3.66427
;WIDTH:0.389872
;HEIGHT:0.389872
G1 X125.222 Y110.251 E3.67217
G1 X125.222 Y114.749 E3.89537
G1 X125.063 Y114.749 E3.90326
;WIDTH:0.44292
;HEIGHT:0.2
G1 X94.77 Y114.749 E4.91082
G92 E0
;WIPE_START
G1 F14400
M204 S1000
G1 X100.255 Y114.749 E-0.76
;WIPE_END
G1 E-0.8 F2100
G1 Z0.84 F18000
; acceleration to travel
M204 S1500
G1 X96.166 Y111.582
; decel to extrusion
M204 S1000
G1 X95.166 Y110.809
; end travel
G1 Z0.44
G1 E0 F2100
;TYPE:Solid infill
;WIDTH:0.462325
G1 F2400
G1 X94.646 Y111.33 E0.02569
G1 X94.646 Y111.924 E0.04641
G1 X95.58 Y110.989 E0.0925
G1 X96.174 Y110.989 E0.11323
G1 X94.646 Y112.518 E0.18864
G1 X94.646 Y113.112 E0.20936
G1 X96.769 Y110.988 E0.31409
G1 X97.363 Y110.988 E0.33482
G1 X94.646 Y113.705 E0.46887
G1 X94.646 Y114.01 E0.4795
G1 X94.935 Y114.01 E0.48958
G1 X97.958 Y110.987 E0.63869
G1 X98.552 Y110.987 E0.65942
G1 X95.528 Y114.011 E0.80858
G1 X96.122 Y114.011 E0.82928
G1 X99.146 Y110.987 E0.97848
G1 X99.741 Y110.986 E0.99921
